assets/luts/black-and-white.cube
TITLE "Black and White"
LUT_3D_SIZE 5
DOMAIN_MIN 0.0 0.0 0.0
DOMAIN_MAX 1.0 1.0 1.0
0.000000 0.000000 0.000000
0.032911 0.032911 0.032911
0.072639 0.072639 0.072639
0.118372 0.118372 0.118372
0.169300 0.169300 0.169300
0.136354 0.136354 0.136354
0.188972 0.188972 0.188972
0.245680 0.245680 0.245680
0.305665 0.305665 0.305665
0.368118 0.368118 0.368118
0.328159 0.328159 0.328159
0.391309 0.391309 0.391309
0.455820 0.455820 0.455820
0.520882 0.520882 0.520882
0.585684 0.585684 0.585684
0.544547 0.544547 0.544547
0.609052 0.609052 0.609052
0.672192 0.672192 0.672192
0.733155 0.733155 0.733155
0.791131 0.791131 0.791131
0.754650 0.754650 0.754650
0.811337 0.811337 0.811337
0.863930 0.863930 0.863930
0.911618 0.911618 0.911618
0.953591 0.953591 0.953591
0.010362 0.010362 0.010362
0.045679 0.045679 0.045679
0.087537 0.087537 0.087537
0.135125 0.135125 0.135125
0.187633 0.187633 0.187633
0.153715 0.153715 0.153715
0.207813 0.207813 0.207813
0.265724 0.265724 0.265724
0.326638 0.326638 0.326638
0.389744 0.389744 0.389744
0.349402 0.349402 0.349402
0.413105 0.413105 0.413105
0.477894 0.477894 0.477894
0.542959 0.542959 0.542959
0.607488 0.607488 0.607488
0.566556 0.566556 0.566556
0.630689 0.630689 0.630689
0.693180 0.693180 0.693180
0.753220 0.753220 0.753220
0.809996 0.809996 0.809996
0.774310 0.774310 0.774310
0.829697 0.829697 0.829697
0.880715 0.880715 0.880715
0.926554 0.926554 0.926554
0.966402 0.966402 0.966402
0.021572 0.021572 0.021572
0.059201 0.059201 0.059201
0.103096 0.103096 0.103096
0.152446 0.152446 0.152446
0.206441 0.206441 0.206441
0.171609 0.171609 0.171609
0.227092 0.227092 0.227092
0.286115 0.286115 0.286115
0.347864 0.347864 0.347864
0.411530 0.411530 0.411530
0.370864 0.370864 0.370864
0.435026 0.435026 0.435026
0.500000 0.500000 0.500000
0.564974 0.564974 0.564974
0.629136 0.629136 0.629136
0.588470 0.588470 0.588470
0.652136 0.652136 0.652136
0.713885 0.713885 0.713885
0.772908 0.772908 0.772908
0.828391 0.828391 0.828391
0.793559 0.793559 0.793559
0.847554 0.847554 0.847554
0.896904 0.896904 0.896904
0.940799 0.940799 0.940799
0.978428 0.978428 0.978428
0.033598 0.033598 0.033598
0.073446 0.073446 0.073446
0.119285 0.119285 0.119285
0.170303 0.170303 0.170303
0.225690 0.225690 0.225690
0.190004 0.190004 0.190004
0.246780 0.246780 0.246780
0.306820 0.306820 0.306820
0.369311 0.369311 0.369311
0.433444 0.433444 0.433444
0.392512 0.392512 0.392512
0.457041 0.457041 0.457041
0.522106 0.522106 0.522106
0.586895 0.586895 0.586895
0.650598 0.650598 0.650598
0.610256 0.610256 0.610256
0.673362 0.673362 0.673362
0.734276 0.734276 0.734276
0.792188 0.792188 0.792188
0.846285 0.846285 0.846285
0.812367 0.812367 0.812367
0.864875 0.864875 0.864875
0.912463 0.912463 0.912463
0.954321 0.954321 0.954321
0.989638 0.989638 0.989638
0.046409 0.046409 0.046409
0.088382 0.088382 0.088382
0.136070 0.136070 0.136070
0.188663 0.188663 0.188663
0.245350 0.245350 0.245350
0.208869 0.208869 0.208869
0.266845 0.266845 0.266845
0.327808 0.327808 0.327808
0.390948 0.390948 0.390948
0.455453 0.455453 0.455453
0.414316 0.414316 0.414316
0.479118 0.479118 0.479118
0.544180 0.544180 0.544180
0.608691 0.608691 0.608691
0.671841 0.671841 0.671841
0.631882 0.631882 0.631882
0.694335 0.694335 0.694335
0.754320 0.754320 0.754320
0.811028 0.811028 0.811028
0.863646 0.863646 0.863646
0.830700 0.830700 0.830700
0.881628 0.881628 0.881628
0.927361 0.927361 0.927361
0.967089 0.967089 0.967089
1.000000 1.000000 1.000000
