assets/luts/black-and-white.cube
TITLE "Black and White"
LUT_3D_SIZE 9
DOMAIN_MIN 0.0 0.0 0.0
DOMAIN_MAX 1.0 1.0 1.0
0.000000 0.000000 0.000000
0.015553 0.015553 0.015553
0.032911 0.032911 0.032911
0.051973 0.051973 0.051973
0.072639 0.072639 0.072639
0.094805 0.094805 0.094805
0.118372 0.118372 0.118372
0.143237 0.143237 0.143237
0.169300 0.169300 0.169300
0.059317 0.059317 0.059317
0.080540 0.080540 0.080540
0.103228 0.103228 0.103228
0.127279 0.127279 0.127279
0.152592 0.152592 0.152592
0.179066 0.179066 0.179066
0.206599 0.206599 0.206599
0.235089 0.235089 0.235089
0.264436 0.264436 0.264436
0.136354 0.136354 0.136354
0.162102 0.162102 0.162102
0.188972 0.188972 0.188972
0.216866 0.216866 0.216866
0.245680 0.245680 0.245680
0.275313 0.275313 0.275313
0.305665 0.305665 0.305665
0.336634 0.336634 0.336634
0.368118 0.368118 0.368118
0.227254 0.227254 0.227254
0.256379 0.256379 0.256379
0.286285 0.286285 0.286285
0.316873 0.316873 0.316873
0.348041 0.348041 0.348041
0.379688 0.379688 0.379688
0.411712 0.411712 0.411712
0.444012 0.444012 0.444012
0.476486 0.476486 0.476486
0.328159 0.328159 0.328159
0.359513 0.359513 0.359513
0.391309 0.391309 0.391309
0.423445 0.423445 0.423445
0.455820 0.455820 0.455820
0.488333 0.488333 0.488333
0.520882 0.520882 0.520882
0.553366 0.553366 0.553366
0.585684 0.585684 0.585684
0.435209 0.435209 0.435209
0.467646 0.467646 0.467646
0.500184 0.500184 0.500184
0.532721 0.532721 0.532721
0.565156 0.565156 0.565156
0.597388 0.597388 0.597388
0.629316 0.629316 0.629316
0.660837 0.660837 0.660837
0.691851 0.691851 0.691851
0.544547 0.544547 0.544547
0.576920 0.576920 0.576920
0.609052 0.609052 0.609052
0.640844 0.640844 0.640844
0.672192 0.672192 0.672192
0.702997 0.702997 0.702997
0.733155 0.733155 0.733155
0.762567 0.762567 0.762567
0.791131 0.791131 0.791131
0.652313 0.652313 0.652313
0.683475 0.683475 0.683475
0.714056 0.714056 0.714056
0.743955 0.743955 0.743955
0.773070 0.773070 0.773070
0.801299 0.801299 0.801299
0.828542 0.828542 0.828542
0.854697 0.854697 0.854697
0.879663 0.879663 0.879663
0.754650 0.754650 0.754650
0.783455 0.783455 0.783455
0.811337 0.811337 0.811337
0.838196 0.838196 0.838196
0.863930 0.863930 0.863930
0.888438 0.888438 0.888438
0.911618 0.911618 0.911618
0.933370 0.933370 0.933370
0.953591 0.953591 0.953591
0.005073 0.005073 0.005073
0.021250 0.021250 0.021250
0.039199 0.039199 0.039199
0.058817 0.058817 0.058817
0.080003 0.080003 0.080003
0.102657 0.102657 0.102657
0.126676 0.126676 0.126676
0.151959 0.151959 0.151959
0.178405 0.178405 0.178405
0.066354 0.066354 0.066354
0.088086 0.088086 0.088086
0.111248 0.111248 0.111248
0.135739 0.135739 0.135739
0.161458 0.161458 0.161458
0.188303 0.188303 0.188303
0.216172 0.216172 0.216172
0.244965 0.244965 0.244965
0.274579 0.274579 0.274579
0.144966 0.144966 0.144966
0.171106 0.171106 0.171106
0.198335 0.198335 0.198335
0.226553 0.226553 0.226553
0.255656 0.255656 0.255656
0.285545 0.285545 0.285545
0.316118 0.316118 0.316118
0.347273 0.347273 0.347273
0.378909 0.378909 0.378909
0.237051 0.237051 0.237051
0.266452 0.266452 0.266452
0.296602 0.296602 0.296602
0.327398 0.327398 0.327398
0.358740 0.358740 0.358740
0.390526 0.390526 0.390526
0.422655 0.422655 0.422655
0.455026 0.455026 0.455026
0.487537 0.487537 0.487537
0.338751 0.338751 0.338751
0.370266 0.370266 0.370266
0.402189 0.402189 0.402189
0.434418 0.434418 0.434418
0.466851 0.466851 0.466851
0.499388 0.499388 0.499388
0.531926 0.531926 0.531926
0.564365 0.564365 0.564365
0.596603 0.596603 0.596603
0.446207 0.446207 0.446207
0.478690 0.478690 0.478690
0.511239 0.511239 0.511239
0.543753 0.543753 0.543753
0.576130 0.576130 0.576130
0.608270 0.608270 0.608270
0.640071 0.640071 0.640071
0.671432 0.671432 0.671432
0.702250 0.702250 0.702250
0.555561 0.555561 0.555561
0.587864 0.587864 0.587864
0.619892 0.619892 0.619892
0.651545 0.651545 0.651545
0.682720 0.682720 0.682720
0.713316 0.713316 0.713316
0.743232 0.743232 0.743232
0.772368 0.772368 0.772368
0.800620 0.800620 0.800620
0.662955 0.662955 0.662955
0.693931 0.693931 0.693931
0.724292 0.724292 0.724292
0.753935 0.753935 0.753935
0.782761 0.782761 0.782761
0.810667 0.810667 0.810667
0.837552 0.837552 0.837552
0.863314 0.863314 0.863314
0.887854 0.887854 0.887854
0.764530 0.764530 0.764530
0.793032 0.793032 0.793032
0.820578 0.820578 0.820578
0.847066 0.847066 0.847066
0.872395 0.872395 0.872395
0.896464 0.896464 0.896464
0.919170 0.919170 0.919170
0.940414 0.940414 0.940414
0.960093 0.960093 0.960093
0.010362 0.010362 0.010362
0.027152 0.027152 0.027152
0.045679 0.045679 0.045679
0.065841 0.065841 0.065841
0.087537 0.087537 0.087537
0.110665 0.110665 0.110665
0.135125 0.135125 0.135125
0.160815 0.160815 0.160815
0.187633 0.187633 0.187633
0.073567 0.073567 0.073567
0.095797 0.095797 0.095797
0.119422 0.119422 0.119422
0.144341 0.144341 0.144341
0.170453 0.170453 0.170453
0.197657 0.197657 0.197657
0.225852 0.225852 0.225852
0.254935 0.254935 0.254935
0.284806 0.284806 0.284806
0.153715 0.153715 0.153715
0.180236 0.180236 0.180236
0.207813 0.207813 0.207813
0.236342 0.236342 0.236342
0.265724 0.265724 0.265724
0.295856 0.295856 0.295856
0.326638 0.326638 0.326638
0.357968 0.357968 0.357968
0.389744 0.389744 0.389744
0.246946 0.246946 0.246946
0.276612 0.276612 0.276612
0.306993 0.306993 0.306993
0.337986 0.337986 0.337986
0.369490 0.369490 0.369490
0.401404 0.401404 0.401404
0.433627 0.433627 0.433627
0.466056 0.466056 0.466056
0.498591 0.498591 0.498591
0.349402 0.349402 0.349402
0.381067 0.381067 0.381067
0.413105 0.413105 0.413105
0.445414 0.445414 0.445414
0.477894 0.477894 0.477894
0.510443 0.510443 0.510443
0.542959 0.542959 0.542959
0.575341 0.575341 0.575341
0.607488 0.607488 0.607488
0.457225 0.457225 0.457225
0.489741 0.489741 0.489741
0.522290 0.522290 0.522290
0.554769 0.554769 0.554769
0.587077 0.587077 0.587077
0.619113 0.619113 0.619113
0.650776 0.650776 0.650776
0.681964 0.681964 0.681964
0.712575 0.712575 0.712575
0.566556 0.566556 0.566556
0.598777 0.598777 0.598777
0.630689 0.630689 0.630689
0.662190 0.662190 0.662190
0.693180 0.693180 0.693180
0.723557 0.723557 0.723557
0.753220 0.753220 0.753220
0.782066 0.782066 0.782066
0.809996 0.809996 0.809996
0.673537 0.673537 0.673537
0.704316 0.704316 0.704316
0.734444 0.734444 0.734444
0.763821 0.763821 0.763821
0.792346 0.792346 0.792346
0.819917 0.819917 0.819917
0.846432 0.846432 0.846432
0.871790 0.871790 0.871790
0.895891 0.895891 0.895891
0.774310 0.774310 0.774310
0.802499 0.802499 0.802499
0.829697 0.829697 0.829697
0.855803 0.855803 0.855803
0.880715 0.880715 0.880715
0.904333 0.904333 0.904333
0.926554 0.926554 0.926554
0.947277 0.947277 0.947277
0.966402 0.966402 0.966402
0.015863 0.015863 0.015863
0.033254 0.033254 0.033254
0.052348 0.052348 0.052348
0.073042 0.073042 0.073042
0.095236 0.095236 0.095236
0.118828 0.118828 0.118828
0.143717 0.143717 0.143717
0.169801 0.169801 0.169801
0.196980 0.196980 0.196980
0.080954 0.080954 0.080954
0.103668 0.103668 0.103668
0.127744 0.127744 0.127744
0.153080 0.153080 0.153080
0.179575 0.179575 0.179575
0.207126 0.207126 0.207126
0.235634 0.235634 0.235634
0.264996 0.264996 0.264996
0.295111 0.295111 0.295111
0.162597 0.162597 0.162597
0.189488 0.189488 0.189488
0.217399 0.217399 0.217399
0.246230 0.246230 0.246230
0.275878 0.275878 0.275878
0.306242 0.306242 0.306242
0.337222 0.337222 0.337222
0.368714 0.368714 0.368714
0.400620 0.400620 0.400620
0.256934 0.256934 0.256934
0.286855 0.286855 0.286855
0.317455 0.317455 0.317455
0.348633 0.348633 0.348633
0.380288 0.380288 0.380288
0.412318 0.412318 0.412318
0.444622 0.444622 0.444622
0.477098 0.477098 0.477098
0.509646 0.509646 0.509646
0.360107 0.360107 0.360107
0.391910 0.391910 0.391910
0.424052 0.424052 0.424052
0.456431 0.456431 0.456431
0.488945 0.488945 0.488945
0.521494 0.521494 0.521494
0.553976 0.553976 0.553976
0.586289 0.586289 0.586289
0.618333 0.618333 0.618333
0.468258 0.468258 0.468258
0.500796 0.500796 0.500796
0.533332 0.533332 0.533332
0.565765 0.565765 0.565765
0.597992 0.597992 0.597992
0.629913 0.629913 0.629913
0.661426 0.661426 0.661426
0.692429 0.692429 0.692429
0.722822 0.722822 0.722822
0.577527 0.577527 0.577527
0.609654 0.609654 0.609654
0.641438 0.641438 0.641438
0.672777 0.672777 0.672777
0.703570 0.703570 0.703570
0.733716 0.733716 0.733716
0.763113 0.763113 0.763113
0.791659 0.791659 0.791659
0.819254 0.819254 0.819254
0.684056 0.684056 0.684056
0.714625 0.714625 0.714625
0.744510 0.744510 0.744510
0.773609 0.773609 0.773609
0.801821 0.801821 0.801821
0.829045 0.829045 0.829045
0.855178 0.855178 0.855178
0.880121 0.880121 0.880121
0.903771 0.903771 0.903771
0.783988 0.783988 0.783988
0.811852 0.811852 0.811852
0.838690 0.838690 0.838690
0.864402 0.864402 0.864402
0.888886 0.888886 0.888886
0.912041 0.912041 0.912041
0.933765 0.933765 0.933765
0.953957 0.953957 0.953957
0.972515 0.972515 0.972515
0.021572 0.021572 0.021572
0.039553 0.039553 0.039553
0.059201 0.059201 0.059201
0.080416 0.080416 0.080416
0.103096 0.103096 0.103096
0.127140 0.127140 0.127140
0.152446 0.152446 0.152446
0.178914 0.178914 0.178914
0.206441 0.206441 0.206441
0.088509 0.088509 0.088509
0.111697 0.111697 0.111697
0.136212 0.136212 0.136212
0.161953 0.161953 0.161953
0.188818 0.188818 0.188818
0.216705 0.216705 0.216705
0.245515 0.245515 0.245515
0.275144 0.275144 0.275144
0.305492 0.305492 0.305492
0.171609 0.171609 0.171609
0.198858 0.198858 0.198858
0.227092 0.227092 0.227092
0.256212 0.256212 0.256212
0.286115 0.286115 0.286115
0.316699 0.316699 0.316699
0.347864 0.347864 0.347864
0.379508 0.379508 0.379508
0.411530 0.411530 0.411530
0.267013 0.267013 0.267013
0.297176 0.297176 0.297176
0.327983 0.327983 0.327983
0.359335 0.359335 0.359335
0.391128 0.391128 0.391128
0.423263 0.423263 0.423263
0.455637 0.455637 0.455637
0.488149 0.488149 0.488149
0.520698 0.520698 0.520698
0.370864 0.370864 0.370864
0.402793 0.402793 0.402793
0.435026 0.435026 0.435026
0.467463 0.467463 0.467463
0.500000 0.500000 0.500000
0.532537 0.532537 0.532537
0.564974 0.564974 0.564974
0.597207 0.597207 0.597207
0.629136 0.629136 0.629136
0.479302 0.479302 0.479302
0.511851 0.511851 0.511851
0.544363 0.544363 0.544363
0.576737 0.576737 0.576737
0.608872 0.608872 0.608872
0.640665 0.640665 0.640665
0.672017 0.672017 0.672017
0.702824 0.702824 0.702824
0.732987 0.732987 0.732987
0.588470 0.588470 0.588470
0.620492 0.620492 0.620492
0.652136 0.652136 0.652136
0.683301 0.683301 0.683301
0.713885 0.713885 0.713885
0.743788 0.743788 0.743788
0.772908 0.772908 0.772908
0.801142 0.801142 0.801142
0.828391 0.828391 0.828391
0.694508 0.694508 0.694508
0.724856 0.724856 0.724856
0.754485 0.754485 0.754485
0.783295 0.783295 0.783295
0.811182 0.811182 0.811182
0.838047 0.838047 0.838047
0.863788 0.863788 0.863788
0.888303 0.888303 0.888303
0.911491 0.911491 0.911491
0.793559 0.793559 0.793559
0.821086 0.821086 0.821086
0.847554 0.847554 0.847554
0.872860 0.872860 0.872860
0.896904 0.896904 0.896904
0.919584 0.919584 0.919584
0.940799 0.940799 0.940799
0.960447 0.960447 0.960447
0.978428 0.978428 0.978428
0.027485 0.027485 0.027485
0.046043 0.046043 0.046043
0.066235 0.066235 0.066235
0.087959 0.087959 0.087959
0.111114 0.111114 0.111114
0.135598 0.135598 0.135598
0.161310 0.161310 0.161310
0.188148 0.188148 0.188148
0.216012 0.216012 0.216012
0.096229 0.096229 0.096229
0.119879 0.119879 0.119879
0.144822 0.144822 0.144822
0.170955 0.170955 0.170955
0.198179 0.198179 0.198179
0.226391 0.226391 0.226391
0.255490 0.255490 0.255490
0.285375 0.285375 0.285375
0.315944 0.315944 0.315944
0.180746 0.180746 0.180746
0.208341 0.208341 0.208341
0.236887 0.236887 0.236887
0.266284 0.266284 0.266284
0.296430 0.296430 0.296430
0.327223 0.327223 0.327223
0.358562 0.358562 0.358562
0.390346 0.390346 0.390346
0.422473 0.422473 0.422473
0.277178 0.277178 0.277178
0.307571 0.307571 0.307571
0.338574 0.338574 0.338574
0.370087 0.370087 0.370087
0.402008 0.402008 0.402008
0.434235 0.434235 0.434235
0.466668 0.466668 0.466668
0.499204 0.499204 0.499204
0.531742 0.531742 0.531742
0.381667 0.381667 0.381667
0.413711 0.413711 0.413711
0.446024 0.446024 0.446024
0.478506 0.478506 0.478506
0.511055 0.511055 0.511055
0.543569 0.543569 0.543569
0.575948 0.575948 0.575948
0.608090 0.608090 0.608090
0.639893 0.639893 0.639893
0.490354 0.490354 0.490354
0.522902 0.522902 0.522902
0.555378 0.555378 0.555378
0.587682 0.587682 0.587682
0.619712 0.619712 0.619712
0.651367 0.651367 0.651367
0.682545 0.682545 0.682545
0.713145 0.713145 0.713145
0.743066 0.743066 0.743066
0.599380 0.599380 0.599380
0.631286 0.631286 0.631286
0.662778 0.662778 0.662778
0.693758 0.693758 0.693758
0.724122 0.724122 0.724122
0.753770 0.753770 0.753770
0.782601 0.782601 0.782601
0.810512 0.810512 0.810512
0.837403 0.837403 0.837403
0.704889 0.704889 0.704889
0.735004 0.735004 0.735004
0.764366 0.764366 0.764366
0.792874 0.792874 0.792874
0.820425 0.820425 0.820425
0.846920 0.846920 0.846920
0.872256 0.872256 0.872256
0.896332 0.896332 0.896332
0.919046 0.919046 0.919046
0.803020 0.803020 0.803020
0.830199 0.830199 0.830199
0.856283 0.856283 0.856283
0.881172 0.881172 0.881172
0.904764 0.904764 0.904764
0.926958 0.926958 0.926958
0.947652 0.947652 0.947652
0.966746 0.966746 0.966746
0.984137 0.984137 0.984137
0.033598 0.033598 0.033598
0.052723 0.052723 0.052723
0.073446 0.073446 0.073446
0.095667 0.095667 0.095667
0.119285 0.119285 0.119285
0.144197 0.144197 0.144197
0.170303 0.170303 0.170303
0.197501 0.197501 0.197501
0.225690 0.225690 0.225690
0.104109 0.104109 0.104109
0.128210 0.128210 0.128210
0.153568 0.153568 0.153568
0.180083 0.180083 0.180083
0.207654 0.207654 0.207654
0.236179 0.236179 0.236179
0.265556 0.265556 0.265556
0.295684 0.295684 0.295684
0.326463 0.326463 0.326463
0.190004 0.190004 0.190004
0.217934 0.217934 0.217934
0.246780 0.246780 0.246780
0.276443 0.276443 0.276443
0.306820 0.306820 0.306820
0.337810 0.337810 0.337810
0.369311 0.369311 0.369311
0.401223 0.401223 0.401223
0.433444 0.433444 0.433444
0.287425 0.287425 0.287425
0.318036 0.318036 0.318036
0.349224 0.349224 0.349224
0.380887 0.380887 0.380887
0.412923 0.412923 0.412923
0.445231 0.445231 0.445231
0.477710 0.477710 0.477710
0.510259 0.510259 0.510259
0.542775 0.542775 0.542775
0.392512 0.392512 0.392512
0.424659 0.424659 0.424659
0.457041 0.457041 0.457041
0.489557 0.489557 0.489557
0.522106 0.522106 0.522106
0.554586 0.554586 0.554586
0.586895 0.586895 0.586895
0.618933 0.618933 0.618933
0.650598 0.650598 0.650598
0.501409 0.501409 0.501409
0.533944 0.533944 0.533944
0.566373 0.566373 0.566373
0.598596 0.598596 0.598596
0.630510 0.630510 0.630510
0.662014 0.662014 0.662014
0.693007 0.693007 0.693007
0.723388 0.723388 0.723388
0.753054 0.753054 0.753054
0.610256 0.610256 0.610256
0.642032 0.642032 0.642032
0.673362 0.673362 0.673362
0.704144 0.704144 0.704144
0.734276 0.734276 0.734276
0.763658 0.763658 0.763658
0.792188 0.792188 0.792188
0.819764 0.819764 0.819764
0.846285 0.846285 0.846285
0.715194 0.715194 0.715194
0.745065 0.745065 0.745065
0.774148 0.774148 0.774148
0.802343 0.802343 0.802343
0.829547 0.829547 0.829547
0.855659 0.855659 0.855659
0.880578 0.880578 0.880578
0.904203 0.904203 0.904203
0.926433 0.926433 0.926433
0.812367 0.812367 0.812367
0.839185 0.839185 0.839185
0.864875 0.864875 0.864875
0.889335 0.889335 0.889335
0.912463 0.912463 0.912463
0.934159 0.934159 0.934159
0.954321 0.954321 0.954321
0.972848 0.972848 0.972848
0.989638 0.989638 0.989638
0.039907 0.039907 0.039907
0.059586 0.059586 0.059586
0.080830 0.080830 0.080830
0.103536 0.103536 0.103536
0.127605 0.127605 0.127605
0.152934 0.152934 0.152934
0.179422 0.179422 0.179422
0.206968 0.206968 0.206968
0.235470 0.235470 0.235470
0.112146 0.112146 0.112146
0.136686 0.136686 0.136686
0.162448 0.162448 0.162448
0.189333 0.189333 0.189333
0.217239 0.217239 0.217239
0.246065 0.246065 0.246065
0.275708 0.275708 0.275708
0.306069 0.306069 0.306069
0.337045 0.337045 0.337045
0.199380 0.199380 0.199380
0.227632 0.227632 0.227632
0.256768 0.256768 0.256768
0.286684 0.286684 0.286684
0.317280 0.317280 0.317280
0.348455 0.348455 0.348455
0.380108 0.380108 0.380108
0.412136 0.412136 0.412136
0.444439 0.444439 0.444439
0.297750 0.297750 0.297750
0.328568 0.328568 0.328568
0.359929 0.359929 0.359929
0.391730 0.391730 0.391730
0.423870 0.423870 0.423870
0.456247 0.456247 0.456247
0.488761 0.488761 0.488761
0.521310 0.521310 0.521310
0.553793 0.553793 0.553793
0.403397 0.403397 0.403397
0.435635 0.435635 0.435635
0.468074 0.468074 0.468074
0.500612 0.500612 0.500612
0.533149 0.533149 0.533149
0.565582 0.565582 0.565582
0.597811 0.597811 0.597811
0.629734 0.629734 0.629734
0.661249 0.661249 0.661249
0.512463 0.512463 0.512463
0.544974 0.544974 0.544974
0.577345 0.577345 0.577345
0.609474 0.609474 0.609474
0.641260 0.641260 0.641260
0.672602 0.672602 0.672602
0.703398 0.703398 0.703398
0.733548 0.733548 0.733548
0.762949 0.762949 0.762949
0.621091 0.621091 0.621091
0.652727 0.652727 0.652727
0.683882 0.683882 0.683882
0.714455 0.714455 0.714455
0.744344 0.744344 0.744344
0.773447 0.773447 0.773447
0.801665 0.801665 0.801665
0.828894 0.828894 0.828894
0.855034 0.855034 0.855034
0.725421 0.725421 0.725421
0.755035 0.755035 0.755035
0.783828 0.783828 0.783828
0.811697 0.811697 0.811697
0.838542 0.838542 0.838542
0.864261 0.864261 0.864261
0.888752 0.888752 0.888752
0.911914 0.911914 0.911914
0.933646 0.933646 0.933646
0.821595 0.821595 0.821595
0.848041 0.848041 0.848041
0.873324 0.873324 0.873324
0.897343 0.897343 0.897343
0.919997 0.919997 0.919997
0.941183 0.941183 0.941183
0.960801 0.960801 0.960801
0.978750 0.978750 0.978750
0.994927 0.994927 0.994927
0.046409 0.046409 0.046409
0.066630 0.066630 0.066630
0.088382 0.088382 0.088382
0.111562 0.111562 0.111562
0.136070 0.136070 0.136070
0.161804 0.161804 0.161804
0.188663 0.188663 0.188663
0.216545 0.216545 0.216545
0.245350 0.245350 0.245350
0.120337 0.120337 0.120337
0.145303 0.145303 0.145303
0.171458 0.171458 0.171458
0.198701 0.198701 0.198701
0.226930 0.226930 0.226930
0.256045 0.256045 0.256045
0.285944 0.285944 0.285944
0.316525 0.316525 0.316525
0.347687 0.347687 0.347687
0.208869 0.208869 0.208869
0.237433 0.237433 0.237433
0.266845 0.266845 0.266845
0.297003 0.297003 0.297003
0.327808 0.327808 0.327808
0.359156 0.359156 0.359156
0.390948 0.390948 0.390948
0.423080 0.423080 0.423080
0.455453 0.455453 0.455453
0.308149 0.308149 0.308149
0.339163 0.339163 0.339163
0.370684 0.370684 0.370684
0.402612 0.402612 0.402612
0.434844 0.434844 0.434844
0.467279 0.467279 0.467279
0.499816 0.499816 0.499816
0.532354 0.532354 0.532354
0.564791 0.564791 0.564791
0.414316 0.414316 0.414316
0.446634 0.446634 0.446634
0.479118 0.479118 0.479118
0.511667 0.511667 0.511667
0.544180 0.544180 0.544180
0.576555 0.576555 0.576555
0.608691 0.608691 0.608691
0.640487 0.640487 0.640487
0.671841 0.671841 0.671841
0.523514 0.523514 0.523514
0.555988 0.555988 0.555988
0.588288 0.588288 0.588288
0.620312 0.620312 0.620312
0.651959 0.651959 0.651959
0.683127 0.683127 0.683127
0.713715 0.713715 0.713715
0.743621 0.743621 0.743621
0.772746 0.772746 0.772746
0.631882 0.631882 0.631882
0.663366 0.663366 0.663366
0.694335 0.694335 0.694335
0.724687 0.724687 0.724687
0.754320 0.754320 0.754320
0.783134 0.783134 0.783134
0.811028 0.811028 0.811028
0.837898 0.837898 0.837898
0.863646 0.863646 0.863646
0.735564 0.735564 0.735564
0.764911 0.764911 0.764911
0.793401 0.793401 0.793401
0.820934 0.820934 0.820934
0.847408 0.847408 0.847408
0.872721 0.872721 0.872721
0.896772 0.896772 0.896772
0.919460 0.919460 0.919460
0.940683 0.940683 0.940683
0.830700 0.830700 0.830700
0.856763 0.856763 0.856763
0.881628 0.881628 0.881628
0.905195 0.905195 0.905195
0.927361 0.927361 0.927361
0.948027 0.948027 0.948027
0.967089 0.967089 0.967089
0.984447 0.984447 0.984447
1.000000 1.000000 1.000000
