assets/luts/black-and-white.cube
TITLE "Black and White"
LUT_3D_SIZE 17
DOMAIN_MIN 0.0 0.0 0.0
DOMAIN_MAX 1.0 1.0 1.0
0.000000 0.000000 0.000000
0.007544 0.007544 0.007544
0.015553 0.015553 0.015553
0.024013 0.024013 0.024013
0.032911 0.032911 0.032911
0.042236 0.042236 0.042236
0.051973 0.051973 0.051973
0.062112 0.062112 0.062112
0.072639 0.072639 0.072639
0.083540 0.083540 0.083540
0.094805 0.094805 0.094805
0.106420 0.106420 0.106420
0.118372 0.118372 0.118372
0.130648 0.130648 0.130648
0.143237 0.143237 0.143237
0.156125 0.156125 0.156125
0.169300 0.169300 0.169300
0.027202 0.027202 0.027202
0.036257 0.036257 0.036257
0.045734 0.045734 0.045734
0.055619 0.055619 0.055619
0.065900 0.065900 0.065900
0.076565 0.076565 0.076565
0.087600 0.087600 0.087600
0.098994 0.098994 0.098994
0.110733 0.110733 0.110733
0.122804 0.122804 0.122804
0.135196 0.135196 0.135196
0.147895 0.147895 0.147895
0.160889 0.160889 0.160889
0.174165 0.174165 0.174165
0.187711 0.187711 0.187711
0.201513 0.201513 0.201513
0.215559 0.215559 0.215559
0.059317 0.059317 0.059317
0.069739 0.069739 0.069739
0.080540 0.080540 0.080540
0.091707 0.091707 0.091707
0.103228 0.103228 0.103228
0.115090 0.115090 0.115090
0.127279 0.127279 0.127279
0.139785 0.139785 0.139785
0.152592 0.152592 0.152592
0.165690 0.165690 0.165690
0.179066 0.179066 0.179066
0.192706 0.192706 0.192706
0.206599 0.206599 0.206599
0.220731 0.220731 0.220731
0.235089 0.235089 0.235089
0.249662 0.249662 0.249662
0.264436 0.264436 0.264436
0.095861 0.095861 0.095861
0.107508 0.107508 0.107508
0.119490 0.119490 0.119490
0.131796 0.131796 0.131796
0.144413 0.144413 0.144413
0.157328 0.157328 0.157328
0.170529 0.170529 0.170529
0.184002 0.184002 0.184002
0.197736 0.197736 0.197736
0.211717 0.211717 0.211717
0.225932 0.225932 0.225932
0.240370 0.240370 0.240370
0.255018 0.255018 0.255018
0.269862 0.269862 0.269862
0.284891 0.284891 0.284891
0.300091 0.300091 0.300091
0.315450 0.315450 0.315450
0.136354 0.136354 0.136354
0.149081 0.149081 0.149081
0.162102 0.162102 0.162102
0.175403 0.175403 0.175403
0.188972 0.188972 0.188972
0.202798 0.202798 0.202798
0.216866 0.216866 0.216866
0.231164 0.231164 0.231164
0.245680 0.245680 0.245680
0.260400 0.260400 0.260400
0.275313 0.275313 0.275313
0.290406 0.290406 0.290406
0.305665 0.305665 0.305665
0.321078 0.321078 0.321078
0.336634 0.336634 0.336634
0.352318 0.352318 0.352318
0.368118 0.368118 0.368118
0.180313 0.180313 0.180313
0.193977 0.193977 0.193977
0.207892 0.207892 0.207892
0.222045 0.222045 0.222045
0.236424 0.236424 0.236424
0.251016 0.251016 0.251016
0.265808 0.265808 0.265808
0.280788 0.280788 0.280788
0.295942 0.295942 0.295942
0.311259 0.311259 0.311259
0.326726 0.326726 0.326726
0.342329 0.342329 0.342329
0.358057 0.358057 0.358057
0.373896 0.373896 0.373896
0.389835 0.389835 0.389835
0.405859 0.405859 0.405859
0.421957 0.421957 0.421957
0.227254 0.227254 0.227254
0.241712 0.241712 0.241712
0.256379 0.256379 0.256379
0.271240 0.271240 0.271240
0.286285 0.286285 0.286285
0.301501 0.301501 0.301501
0.316873 0.316873 0.316873
0.332391 0.332391 0.332391
0.348041 0.348041 0.348041
0.363811 0.363811 0.363811
0.379688 0.379688 0.379688
0.395659 0.395659 0.395659
0.411712 0.411712 0.411712
0.427834 0.427834 0.427834
0.444012 0.444012 0.444012
0.460234 0.460234 0.460234
0.476486 0.476486 0.476486
0.276697 0.276697 0.276697
0.291806 0.291806 0.291806
0.307080 0.307080 0.307080
0.322507 0.322507 0.322507
0.338074 0.338074 0.338074
0.353770 0.353770 0.353770
0.369580 0.369580 0.369580
0.385492 0.385492 0.385492
0.401495 0.401495 0.401495
0.417574 0.417574 0.417574
0.433718 0.433718 0.433718
0.449913 0.449913 0.449913
0.466148 0.466148 0.466148
0.482409 0.482409 0.482409
0.498683 0.498683 0.498683
0.514959 0.514959 0.514959
0.531223 0.531223 0.531223
0.328159 0.328159 0.328159
0.343774 0.343774 0.343774
0.359513 0.359513 0.359513
0.375362 0.375362 0.375362
0.391309 0.391309 0.391309
0.407340 0.407340 0.407340
0.423445 0.423445 0.423445
0.439609 0.439609 0.439609
0.455820 0.455820 0.455820
0.472065 0.472065 0.472065
0.488333 0.488333 0.488333
0.504609 0.504609 0.504609
0.520882 0.520882 0.520882
0.537138 0.537138 0.537138
0.553366 0.553366 0.553366
0.569552 0.569552 0.569552
0.585684 0.585684 0.585684
0.381157 0.381157 0.381157
0.397136 0.397136 0.397136
0.413196 0.413196 0.413196
0.429323 0.429323 0.429323
0.445506 0.445506 0.445506
0.461731 0.461731 0.461731
0.477986 0.477986 0.477986
0.494258 0.494258 0.494258
0.510534 0.510534 0.510534
0.526803 0.526803 0.526803
0.543050 0.543050 0.543050
0.559264 0.559264 0.559264
0.575432 0.575432 0.575432
0.591541 0.591541 0.591541
0.607578 0.607578 0.607578
0.623531 0.623531 0.623531
0.639387 0.639387 0.639387
0.435209 0.435209 0.435209
0.451409 0.451409 0.451409
0.467646 0.467646 0.467646
0.483909 0.483909 0.483909
0.500184 0.500184 0.500184
0.516459 0.516459 0.516459
0.532721 0.532721 0.532721
0.548958 0.548958 0.548958
0.565156 0.565156 0.565156
0.581304 0.581304 0.581304
0.597388 0.597388 0.597388
0.613396 0.613396 0.613396
0.629316 0.629316 0.629316
0.645133 0.645133 0.645133
0.660837 0.660837 0.660837
0.676414 0.676414 0.676414
0.691851 0.691851 0.691851
0.489833 0.489833 0.489833
0.506110 0.506110 0.506110
0.522381 0.522381 0.522381
0.538636 0.538636 0.538636
0.554860 0.554860 0.554860
0.571042 0.571042 0.571042
0.587168 0.587168 0.587168
0.603226 0.603226 0.603226
0.619203 0.619203 0.619203
0.635087 0.635087 0.635087
0.650864 0.650864 0.650864
0.666523 0.666523 0.666523
0.682051 0.682051 0.682051
0.697434 0.697434 0.697434
0.712661 0.712661 0.712661
0.727718 0.727718 0.727718
0.742593 0.742593 0.742593
0.544547 0.544547 0.544547
0.560757 0.560757 0.560757
0.576920 0.576920 0.576920
0.593022 0.593022 0.593022
0.609052 0.609052 0.609052
0.624997 0.624997 0.624997
0.640844 0.640844 0.640844
0.656580 0.656580 0.656580
0.672192 0.672192 0.672192
0.687669 0.687669 0.687669
0.702997 0.702997 0.702997
0.718163 0.718163 0.718163
0.733155 0.733155 0.733155
0.747961 0.747961 0.747961
0.762567 0.762567 0.762567
0.776961 0.776961 0.776961
0.791131 0.791131 0.791131
0.598867 0.598867 0.598867
0.614868 0.614868 0.614868
0.630778 0.630778 0.630778
0.646586 0.646586 0.646586
0.662279 0.662279 0.662279
0.677843 0.677843 0.677843
0.693267 0.693267 0.693267
0.708537 0.708537 0.708537
0.723642 0.723642 0.723642
0.738568 0.738568 0.738568
0.753302 0.753302 0.753302
0.767833 0.767833 0.767833
0.782146 0.782146 0.782146
0.796231 0.796231 0.796231
0.810073 0.810073 0.810073
0.823661 0.823661 0.823661
0.836981 0.836981 0.836981
0.652313 0.652313 0.652313
0.667961 0.667961 0.667961
0.683475 0.683475 0.683475
0.698845 0.698845 0.698845
0.714056 0.714056 0.714056
0.729097 0.729097 0.729097
0.743955 0.743955 0.743955
0.758616 0.758616 0.758616
0.773070 0.773070 0.773070
0.787301 0.787301 0.787301
0.801299 0.801299 0.801299
0.815050 0.815050 0.815050
0.828542 0.828542 0.828542
0.841762 0.841762 0.841762
0.854697 0.854697 0.854697
0.867335 0.867335 0.867335
0.879663 0.879663 0.879663
0.704402 0.704402 0.704402
0.719553 0.719553 0.719553
0.734528 0.734528 0.734528
0.749316 0.749316 0.749316
0.763903 0.763903 0.763903
0.778277 0.778277 0.778277
0.792425 0.792425 0.792425
0.806335 0.806335 0.806335
0.819993 0.819993 0.819993
0.833387 0.833387 0.833387
0.846505 0.846505 0.846505
0.859334 0.859334 0.859334
0.871860 0.871860 0.871860
0.884072 0.884072 0.884072
0.895957 0.895957 0.895957
0.907502 0.907502 0.907502
0.918694 0.918694 0.918694
0.754650 0.754650 0.754650
0.769162 0.769162 0.769162
0.783455 0.783455 0.783455
0.797517 0.797517 0.797517
0.811337 0.811337 0.811337
0.824900 0.824900 0.824900
0.838196 0.838196 0.838196
0.851210 0.851210 0.851210
0.863930 0.863930 0.863930
0.876343 0.876343 0.876343
0.888438 0.888438 0.888438
0.900200 0.900200 0.900200
0.911618 0.911618 0.911618
0.922679 0.922679 0.922679
0.933370 0.933370 0.933370
0.943678 0.943678 0.943678
0.953591 0.953591 0.953591
0.002509 0.002509 0.002509
0.010213 0.010213 0.010213
0.018376 0.018376 0.018376
0.026986 0.026986 0.026986
0.036031 0.036031 0.036031
0.045497 0.045497 0.045497
0.055372 0.055372 0.055372
0.065644 0.065644 0.065644
0.076299 0.076299 0.076299
0.087326 0.087326 0.087326
0.098711 0.098711 0.098711
0.110442 0.110442 0.110442
0.122505 0.122505 0.122505
0.134889 0.134889 0.134889
0.147581 0.147581 0.147581
0.160568 0.160568 0.160568
0.173837 0.173837 0.173837
0.030229 0.030229 0.030229
0.039429 0.039429 0.039429
0.049045 0.049045 0.049045
0.059067 0.059067 0.059067
0.069479 0.069479 0.069479
0.080272 0.080272 0.080272
0.091430 0.091430 0.091430
0.102942 0.102942 0.102942
0.114796 0.114796 0.114796
0.126977 0.126977 0.126977
0.139475 0.139475 0.139475
0.152276 0.152276 0.152276
0.165367 0.165367 0.165367
0.178736 0.178736 0.178736
0.192370 0.192370 0.192370
0.206256 0.206256 0.206256
0.220382 0.220382 0.220382
0.062813 0.062813 0.062813
0.073365 0.073365 0.073365
0.084292 0.084292 0.084292
0.095581 0.095581 0.095581
0.107219 0.107219 0.107219
0.119193 0.119193 0.119193
0.131491 0.131491 0.131491
0.144101 0.144101 0.144101
0.157009 0.157009 0.157009
0.170202 0.170202 0.170202
0.183669 0.183669 0.183669
0.197397 0.197397 0.197397
0.211372 0.211372 0.211372
0.225582 0.225582 0.225582
0.240015 0.240015 0.240015
0.254657 0.254657 0.254657
0.269497 0.269497 0.269497
0.099778 0.099778 0.099778
0.111540 0.111540 0.111540
0.123634 0.123634 0.123634
0.136047 0.136047 0.136047
0.148766 0.148766 0.148766
0.161780 0.161780 0.161780
0.175074 0.175074 0.175074
0.188637 0.188637 0.188637
0.202456 0.202456 0.202456
0.216519 0.216519 0.216519
0.230811 0.230811 0.230811
0.245322 0.245322 0.245322
0.260038 0.260038 0.260038
0.274946 0.274946 0.274946
0.290034 0.290034 0.290034
0.305290 0.305290 0.305290
0.320700 0.320700 0.320700
0.140643 0.140643 0.140643
0.153471 0.153471 0.153471
0.166588 0.166588 0.166588
0.179982 0.179982 0.179982
0.193639 0.193639 0.193639
0.207548 0.207548 0.207548
0.221696 0.221696 0.221696
0.236070 0.236070 0.236070
0.250656 0.250656 0.250656
0.265444 0.265444 0.265444
0.280419 0.280419 0.280419
0.295570 0.295570 0.295570
0.310883 0.310883 0.310883
0.326346 0.326346 0.326346
0.341946 0.341946 0.341946
0.357671 0.357671 0.357671
0.373508 0.373508 0.373508
0.184924 0.184924 0.184924
0.198675 0.198675 0.198675
0.212672 0.212672 0.212672
0.226904 0.226904 0.226904
0.241356 0.241356 0.241356
0.256017 0.256017 0.256017
0.270875 0.270875 0.270875
0.285915 0.285915 0.285915
0.301126 0.301126 0.301126
0.316496 0.316496 0.316496
0.332010 0.332010 0.332010
0.347657 0.347657 0.347657
0.363424 0.363424 0.363424
0.379299 0.379299 0.379299
0.395268 0.395268 0.395268
0.411319 0.411319 0.411319
0.427439 0.427439 0.427439
0.232140 0.232140 0.232140
0.246670 0.246670 0.246670
0.261404 0.261404 0.261404
0.276330 0.276330 0.276330
0.291434 0.291434 0.291434
0.306704 0.306704 0.306704
0.322128 0.322128 0.322128
0.337692 0.337692 0.337692
0.353384 0.353384 0.353384
0.369192 0.369192 0.369192
0.385102 0.385102 0.385102
0.401102 0.401102 0.401102
0.417180 0.417180 0.417180
0.433322 0.433322 0.433322
0.449517 0.449517 0.449517
0.465750 0.465750 0.465750
0.482011 0.482011 0.482011
0.281809 0.281809 0.281809
0.296975 0.296975 0.296975
0.312302 0.312302 0.312302
0.327779 0.327779 0.327779
0.343391 0.343391 0.343391
0.359127 0.359127 0.359127
0.374973 0.374973 0.374973
0.390917 0.390917 0.390917
0.406947 0.406947 0.406947
0.423050 0.423050 0.423050
0.439213 0.439213 0.439213
0.455423 0.455423 0.455423
0.471668 0.471668 0.471668
0.487935 0.487935 0.487935
0.504211 0.504211 0.504211
0.520484 0.520484 0.520484
0.536741 0.536741 0.536741
0.333447 0.333447 0.333447
0.349106 0.349106 0.349106
0.364883 0.364883 0.364883
0.380767 0.380767 0.380767
0.396744 0.396744 0.396744
0.412802 0.412802 0.412802
0.428928 0.428928 0.428928
0.445109 0.445109 0.445109
0.461334 0.461334 0.461334
0.477588 0.477588 0.477588
0.493860 0.493860 0.493860
0.510136 0.510136 0.510136
0.526405 0.526405 0.526405
0.542653 0.542653 0.542653
0.558868 0.558868 0.558868
0.575037 0.575037 0.575037
0.591147 0.591147 0.591147
0.386574 0.386574 0.386574
0.402582 0.402582 0.402582
0.418666 0.418666 0.418666
0.434813 0.434813 0.434813
0.451012 0.451012 0.451012
0.467248 0.467248 0.467248
0.483511 0.483511 0.483511
0.499786 0.499786 0.499786
0.516061 0.516061 0.516061
0.532323 0.532323 0.532323
0.548561 0.548561 0.548561
0.564761 0.564761 0.564761
0.580910 0.580910 0.580910
0.596996 0.596996 0.596996
0.613006 0.613006 0.613006
0.628927 0.628927 0.628927
0.644748 0.644748 0.644748
0.440705 0.440705 0.440705
0.456919 0.456919 0.456919
0.473167 0.473167 0.473167
0.489435 0.489435 0.489435
0.505711 0.505711 0.505711
0.521984 0.521984 0.521984
0.538239 0.538239 0.538239
0.554464 0.554464 0.554464
0.570646 0.570646 0.570646
0.586774 0.586774 0.586774
0.602834 0.602834 0.602834
0.618813 0.618813 0.618813
0.634699 0.634699 0.634699
0.650480 0.650480 0.650480
0.666142 0.666142 0.666142
0.681673 0.681673 0.681673
0.697060 0.697060 0.697060
0.495360 0.495360 0.495360
0.511637 0.511637 0.511637
0.527904 0.527904 0.527904
0.544150 0.544150 0.544150
0.560361 0.560361 0.560361
0.576525 0.576525 0.576525
0.592629 0.592629 0.592629
0.608661 0.608661 0.608661
0.624608 0.624608 0.624608
0.640457 0.640457 0.640457
0.656196 0.656196 0.656196
0.671812 0.671812 0.671812
0.687292 0.687292 0.687292
0.702623 0.702623 0.702623
0.717794 0.717794 0.717794
0.732791 0.732791 0.732791
0.747601 0.747601 0.747601
0.550056 0.550056 0.550056
0.566252 0.566252 0.566252
0.582396 0.582396 0.582396
0.598475 0.598475 0.598475
0.614478 0.614478 0.614478
0.630390 0.630390 0.630390
0.646201 0.646201 0.646201
0.661896 0.661896 0.661896
0.677464 0.677464 0.677464
0.692891 0.692891 0.692891
0.708166 0.708166 0.708166
0.723275 0.723275 0.723275
0.738205 0.738205 0.738205
0.752944 0.752944 0.752944
0.767480 0.767480 0.767480
0.781799 0.781799 0.781799
0.795889 0.795889 0.795889
0.604311 0.604311 0.604311
0.620282 0.620282 0.620282
0.636159 0.636159 0.636159
0.651929 0.651929 0.651929
0.667579 0.667579 0.667579
0.683098 0.683098 0.683098
0.698471 0.698471 0.698471
0.713686 0.713686 0.713686
0.728731 0.728731 0.728731
0.743594 0.743594 0.743594
0.758260 0.758260 0.758260
0.772719 0.772719 0.772719
0.786956 0.786956 0.786956
0.800960 0.800960 0.800960
0.814717 0.814717 0.814717
0.828215 0.828215 0.828215
0.841442 0.841442 0.841442
0.657641 0.657641 0.657641
0.673245 0.673245 0.673245
0.688712 0.688712 0.688712
0.704029 0.704029 0.704029
0.719184 0.719184 0.719184
0.734164 0.734164 0.734164
0.748957 0.748957 0.748957
0.763549 0.763549 0.763549
0.777928 0.777928 0.777928
0.792082 0.792082 0.792082
0.805997 0.805997 0.805997
0.819662 0.819662 0.819662
0.833063 0.833063 0.833063
0.846188 0.846188 0.846188
0.859023 0.859023 0.859023
0.871557 0.871557 0.871557
0.883777 0.883777 0.883777
0.709566 0.709566 0.709566
0.724659 0.724659 0.724659
0.739572 0.739572 0.739572
0.754293 0.754293 0.754293
0.768809 0.768809 0.768809
0.783108 0.783108 0.783108
0.797176 0.797176 0.797176
0.811002 0.811002 0.811002
0.824572 0.824572 0.824572
0.837874 0.837874 0.837874
0.850895 0.850895 0.850895
0.863622 0.863622 0.863622
0.876043 0.876043 0.876043
0.888146 0.888146 0.888146
0.899916 0.899916 0.899916
0.911343 0.911343 0.911343
0.922413 0.922413 0.922413
0.759602 0.759602 0.759602
0.774041 0.774041 0.774041
0.788257 0.788257 0.788257
0.802238 0.802238 0.802238
0.815972 0.815972 0.815972
0.829446 0.829446 0.829446
0.842647 0.842647 0.842647
0.855563 0.855563 0.855563
0.868180 0.868180 0.868180
0.880487 0.880487 0.880487
0.892470 0.892470 0.892470
0.904117 0.904117 0.904117
0.915415 0.915415 0.915415
0.926352 0.926352 0.926352
0.936914 0.936914 0.936914
0.947090 0.947090 0.947090
0.956866 0.956866 0.956866
0.005073 0.005073 0.005073
0.012934 0.012934 0.012934
0.021250 0.021250 0.021250
0.030009 0.030009 0.030009
0.039199 0.039199 0.039199
0.048805 0.048805 0.048805
0.058817 0.058817 0.058817
0.069220 0.069220 0.069220
0.080003 0.080003 0.080003
0.091153 0.091153 0.091153
0.102657 0.102657 0.102657
0.114502 0.114502 0.114502
0.126676 0.126676 0.126676
0.139166 0.139166 0.139166
0.151959 0.151959 0.151959
0.165043 0.165043 0.165043
0.178405 0.178405 0.178405
0.033306 0.033306 0.033306
0.042648 0.042648 0.042648
0.052404 0.052404 0.052404
0.062560 0.062560 0.062560
0.073103 0.073103 0.073103
0.084021 0.084021 0.084021
0.095301 0.095301 0.095301
0.106930 0.106930 0.106930
0.118896 0.118896 0.118896
0.131187 0.131187 0.131187
0.143789 0.143789 0.143789
0.156690 0.156690 0.156690
0.169876 0.169876 0.169876
0.183337 0.183337 0.183337
0.197058 0.197058 0.197058
0.211027 0.211027 0.211027
0.225232 0.225232 0.225232
0.066354 0.066354 0.066354
0.077035 0.077035 0.077035
0.088086 0.088086 0.088086
0.099495 0.099495 0.099495
0.111248 0.111248 0.111248
0.123334 0.123334 0.123334
0.135739 0.135739 0.135739
0.148452 0.148452 0.148452
0.161458 0.161458 0.161458
0.174746 0.174746 0.174746
0.188303 0.188303 0.188303
0.202115 0.202115 0.202115
0.216172 0.216172 0.216172
0.230459 0.230459 0.230459
0.244965 0.244965 0.244965
0.259676 0.259676 0.259676
0.274579 0.274579 0.274579
0.103734 0.103734 0.103734
0.115610 0.115610 0.115610
0.127814 0.127814 0.127814
0.140333 0.140333 0.140333
0.153153 0.153153 0.153153
0.166264 0.166264 0.166264
0.179651 0.179651 0.179651
0.193302 0.193302 0.193302
0.207205 0.207205 0.207205
0.221347 0.221347 0.221347
0.235715 0.235715 0.235715
0.250297 0.250297 0.250297
0.265080 0.265080 0.265080
0.280051 0.280051 0.280051
0.295197 0.295197 0.295197
0.310506 0.310506 0.310506
0.325966 0.325966 0.325966
0.144966 0.144966 0.144966
0.157893 0.157893 0.157893
0.171106 0.171106 0.171106
0.184591 0.184591 0.184591
0.198335 0.198335 0.198335
0.212327 0.212327 0.212327
0.226553 0.226553 0.226553
0.241000 0.241000 0.241000
0.255656 0.255656 0.255656
0.270509 0.270509 0.270509
0.285545 0.285545 0.285545
0.300752 0.300752 0.300752
0.316118 0.316118 0.316118
0.331629 0.331629 0.331629
0.347273 0.347273 0.347273
0.363037 0.363037 0.363037
0.378909 0.378909 0.378909
0.189565 0.189565 0.189565
0.203401 0.203401 0.203401
0.217480 0.217480 0.217480
0.231788 0.231788 0.231788
0.246312 0.246312 0.246312
0.261042 0.261042 0.261042
0.275963 0.275963 0.275963
0.291063 0.291063 0.291063
0.306329 0.306329 0.306329
0.321749 0.321749 0.321749
0.337310 0.337310 0.337310
0.352999 0.352999 0.352999
0.368804 0.368804 0.368804
0.384712 0.384712 0.384712
0.400710 0.400710 0.400710
0.416786 0.416786 0.416786
0.432927 0.432927 0.432927
0.237051 0.237051 0.237051
0.251652 0.251652 0.251652
0.266452 0.266452 0.266452
0.281440 0.281440 0.281440
0.296602 0.296602 0.296602
0.311926 0.311926 0.311926
0.327398 0.327398 0.327398
0.343007 0.343007 0.343007
0.358740 0.358740 0.358740
0.374584 0.374584 0.374584
0.390526 0.390526 0.390526
0.406554 0.406554 0.406554
0.422655 0.422655 0.422655
0.438817 0.438817 0.438817
0.455026 0.455026 0.455026
0.471270 0.471270 0.471270
0.487537 0.487537 0.487537
0.286940 0.286940 0.286940
0.302163 0.302163 0.302163
0.317542 0.317542 0.317542
0.333066 0.333066 0.333066
0.348722 0.348722 0.348722
0.364496 0.364496 0.364496
0.380377 0.380377 0.380377
0.396352 0.396352 0.396352
0.412408 0.412408 0.412408
0.428533 0.428533 0.428533
0.444713 0.444713 0.444713
0.460936 0.460936 0.460936
0.477190 0.477190 0.477190
0.493462 0.493462 0.493462
0.509738 0.509738 0.509738
0.526007 0.526007 0.526007
0.542256 0.542256 0.542256
0.338751 0.338751 0.338751
0.354451 0.354451 0.354451
0.370266 0.370266 0.370266
0.386183 0.386183 0.386183
0.402189 0.402189 0.402189
0.418271 0.418271 0.418271
0.434418 0.434418 0.434418
0.450615 0.450615 0.450615
0.466851 0.466851 0.466851
0.483113 0.483113 0.483113
0.499388 0.499388 0.499388
0.515663 0.515663 0.515663
0.531926 0.531926 0.531926
0.548164 0.548164 0.548164
0.564365 0.564365 0.564365
0.580515 0.580515 0.580515
0.596603 0.596603 0.596603
0.392001 0.392001 0.392001
0.408036 0.408036 0.408036
0.424143 0.424143 0.424143
0.440309 0.440309 0.440309
0.456522 0.456522 0.456522
0.472769 0.472769 0.472769
0.489037 0.489037 0.489037
0.505313 0.505313 0.505313
0.521586 0.521586 0.521586
0.537841 0.537841 0.537841
0.554067 0.554067 0.554067
0.570251 0.570251 0.570251
0.586380 0.586380 0.586380
0.602442 0.602442 0.602442
0.618423 0.618423 0.618423
0.634312 0.634312 0.634312
0.650095 0.650095 0.650095
0.446207 0.446207 0.446207
0.462434 0.462434 0.462434
0.478690 0.478690 0.478690
0.494962 0.494962 0.494962
0.511239 0.511239 0.511239
0.527506 0.527506 0.527506
0.543753 0.543753 0.543753
0.559965 0.559965 0.559965
0.576130 0.576130 0.576130
0.592236 0.592236 0.592236
0.608270 0.608270 0.608270
0.624219 0.624219 0.624219
0.640071 0.640071 0.640071
0.655813 0.655813 0.655813
0.671432 0.671432 0.671432
0.686915 0.686915 0.686915
0.702250 0.702250 0.702250
0.500888 0.500888 0.500888
0.517163 0.517163 0.517163
0.533424 0.533424 0.533424
0.549660 0.549660 0.549660
0.565856 0.565856 0.565856
0.582001 0.582001 0.582001
0.598083 0.598083 0.598083
0.614087 0.614087 0.614087
0.630002 0.630002 0.630002
0.645815 0.645815 0.645815
0.661514 0.661514 0.661514
0.677085 0.677085 0.677085
0.692516 0.692516 0.692516
0.707794 0.707794 0.707794
0.722907 0.722907 0.722907
0.737842 0.737842 0.737842
0.752586 0.752586 0.752586
0.555561 0.555561 0.555561
0.571741 0.571741 0.571741
0.587864 0.587864 0.587864
0.603919 0.603919 0.603919
0.619892 0.619892 0.619892
0.635772 0.635772 0.635772
0.651545 0.651545 0.651545
0.667198 0.667198 0.667198
0.682720 0.682720 0.682720
0.698096 0.698096 0.698096
0.713316 0.713316 0.713316
0.728366 0.728366 0.728366
0.743232 0.743232 0.743232
0.757904 0.757904 0.757904
0.772368 0.772368 0.772368
0.786610 0.786610 0.786610
0.800620 0.800620 0.800620
0.609744 0.609744 0.609744
0.625685 0.625685 0.625685
0.641527 0.641527 0.641527
0.657258 0.657258 0.657258
0.672865 0.672865 0.672865
0.688335 0.688335 0.688335
0.703656 0.703656 0.703656
0.718815 0.718815 0.718815
0.733800 0.733800 0.733800
0.748597 0.748597 0.748597
0.763194 0.763194 0.763194
0.777579 0.777579 0.777579
0.791738 0.791738 0.791738
0.805660 0.805660 0.805660
0.819331 0.819331 0.819331
0.832738 0.832738 0.832738
0.845870 0.845870 0.845870
0.662955 0.662955 0.662955
0.678514 0.678514 0.678514
0.693931 0.693931 0.693931
0.709195 0.709195 0.709195
0.724292 0.724292 0.724292
0.739209 0.739209 0.739209
0.753935 0.753935 0.753935
0.768457 0.768457 0.768457
0.782761 0.782761 0.782761
0.796835 0.796835 0.796835
0.810667 0.810667 0.810667
0.824243 0.824243 0.824243
0.837552 0.837552 0.837552
0.850580 0.850580 0.850580
0.863314 0.863314 0.863314
0.875743 0.875743 0.875743
0.887854 0.887854 0.887854
0.714711 0.714711 0.714711
0.729744 0.729744 0.729744
0.744593 0.744593 0.744593
0.759246 0.759246 0.759246
0.773690 0.773690 0.773690
0.787912 0.787912 0.787912
0.801899 0.801899 0.801899
0.815640 0.815640 0.815640
0.829120 0.829120 0.829120
0.842328 0.842328 0.842328
0.855251 0.855251 0.855251
0.867875 0.867875 0.867875
0.880190 0.880190 0.880190
0.892181 0.892181 0.892181
0.903836 0.903836 0.903836
0.915143 0.915143 0.915143
0.926089 0.926089 0.926089
0.764530 0.764530 0.764530
0.778894 0.778894 0.778894
0.793032 0.793032 0.793032
0.806931 0.806931 0.806931
0.820578 0.820578 0.820578
0.833961 0.833961 0.833961
0.847066 0.847066 0.847066
0.859882 0.859882 0.859882
0.872395 0.872395 0.872395
0.884593 0.884593 0.884593
0.896464 0.896464 0.896464
0.907994 0.907994 0.907994
0.919170 0.919170 0.919170
0.929981 0.929981 0.929981
0.940414 0.940414 0.940414
0.950455 0.950455 0.950455
0.960093 0.960093 0.960093
0.007691 0.007691 0.007691
0.015708 0.015708 0.015708
0.024176 0.024176 0.024176
0.033083 0.033083 0.033083
0.042415 0.042415 0.042415
0.052160 0.052160 0.052160
0.062306 0.062306 0.062306
0.072840 0.072840 0.072840
0.083749 0.083749 0.083749
0.095020 0.095020 0.095020
0.106642 0.106642 0.106642
0.118600 0.118600 0.118600
0.130883 0.130883 0.130883
0.143477 0.143477 0.143477
0.156371 0.156371 0.156371
0.169551 0.169551 0.169551
0.183004 0.183004 0.183004
0.036432 0.036432 0.036432
