assets/luts/cool.cube
TITLE "Cool"
LUT_3D_SIZE 9
DOMAIN_MIN 0.0 0.0 0.0
DOMAIN_MAX 1.0 1.0 1.0
0.000000 0.000000 0.020000
0.115000 0.000000 0.020000
0.230000 0.000000 0.020000
0.345000 0.000000 0.020000
0.460000 0.000000 0.020000
0.575000 0.000000 0.020000
0.690000 0.000000 0.020000
0.805000 0.000000 0.020000
0.920000 0.000000 0.020000
0.000000 0.123750 0.020000
0.115000 0.123750 0.020000
0.230000 0.123750 0.020000
0.345000 0.123750 0.020000
0.460000 0.123750 0.020000
0.575000 0.123750 0.020000
0.690000 0.123750 0.020000
0.805000 0.123750 0.020000
0.920000 0.123750 0.020000
0.000000 0.247500 0.020000
0.115000 0.247500 0.020000
0.230000 0.247500 0.020000
0.345000 0.247500 0.020000
0.460000 0.247500 0.020000
0.575000 0.247500 0.020000
0.690000 0.247500 0.020000
0.805000 0.247500 0.020000
0.920000 0.247500 0.020000
0.000000 0.371250 0.020000
0.115000 0.371250 0.020000
0.230000 0.371250 0.020000
0.345000 0.371250 0.020000
0.460000 0.371250 0.020000
0.575000 0.371250 0.020000
0.690000 0.371250 0.020000
0.805000 0.371250 0.020000
0.920000 0.371250 0.020000
0.000000 0.495000 0.020000
0.115000 0.495000 0.020000
0.230000 0.495000 0.020000
0.345000 0.495000 0.020000
0.460000 0.495000 0.020000
0.575000 0.495000 0.020000
0.690000 0.495000 0.020000
0.805000 0.495000 0.020000
0.920000 0.495000 0.020000
0.000000 0.618750 0.020000
0.115000 0.618750 0.020000
0.230000 0.618750 0.020000
0.345000 0.618750 0.020000
0.460000 0.618750 0.020000
0.575000 0.618750 0.020000
0.690000 0.618750 0.020000
0.805000 0.618750 0.020000
0.920000 0.618750 0.020000
0.000000 0.742500 0.020000
0.115000 0.742500 0.020000
0.230000 0.742500 0.020000
0.345000 0.742500 0.020000
0.460000 0.742500 0.020000
0.575000 0.742500 0.020000
0.690000 0.742500 0.020000
0.805000 0.742500 0.020000
0.920000 0.742500 0.020000
0.000000 0.866250 0.020000
0.115000 0.866250 0.020000
0.230000 0.866250 0.020000
0.345000 0.866250 0.020000
0.460000 0.866250 0.020000
0.575000 0.866250 0.020000
0.690000 0.866250 0.020000
0.805000 0.866250 0.020000
0.920000 0.866250 0.020000
0.000000 0.990000 0.020000
0.115000 0.990000 0.020000
0.230000 0.990000 0.020000
0.345000 0.990000 0.020000
0.460000 0.990000 0.020000
0.575000 0.990000 0.020000
0.690000 0.990000 0.020000
0.805000 0.990000 0.020000
0.920000 0.990000 0.020000
0.000000 0.000000 0.157500
0.115000 0.000000 0.157500
0.230000 0.000000 0.157500
0.345000 0.000000 0.157500
0.460000 0.000000 0.157500
0.575000 0.000000 0.157500
0.690000 0.000000 0.157500
0.805000 0.000000 0.157500
0.920000 0.000000 0.157500
0.000000 0.123750 0.157500
0.115000 0.123750 0.157500
0.230000 0.123750 0.157500
0.345000 0.123750 0.157500
0.460000 0.123750 0.157500
0.575000 0.123750 0.157500
0.690000 0.123750 0.157500
0.805000 0.123750 0.157500
0.920000 0.123750 0.157500
0.000000 0.247500 0.157500
0.115000 0.247500 0.157500
0.230000 0.247500 0.157500
0.345000 0.247500 0.157500
0.460000 0.247500 0.157500
0.575000 0.247500 0.157500
0.690000 0.247500 0.157500
0.805000 0.247500 0.157500
0.920000 0.247500 0.157500
0.000000 0.371250 0.157500
0.115000 0.371250 0.157500
0.230000 0.371250 0.157500
0.345000 0.371250 0.157500
0.460000 0.371250 0.157500
0.575000 0.371250 0.157500
0.690000 0.371250 0.157500
0.805000 0.371250 0.157500
0.920000 0.371250 0.157500
0.000000 0.495000 0.157500
0.115000 0.495000 0.157500
0.230000 0.495000 0.157500
0.345000 0.495000 0.157500
0.460000 0.495000 0.157500
0.575000 0.495000 0.157500
0.690000 0.495000 0.157500
0.805000 0.495000 0.157500
0.920000 0.495000 0.157500
0.000000 0.618750 0.157500
0.115000 0.618750 0.157500
0.230000 0.618750 0.157500
0.345000 0.618750 0.157500
0.460000 0.618750 0.157500
0.575000 0.618750 0.157500
0.690000 0.618750 0.157500
0.805000 0.618750 0.157500
0.920000 0.618750 0.157500
0.000000 0.742500 0.157500
0.115000 0.742500 0.157500
0.230000 0.742500 0.157500
0.345000 0.742500 0.157500
0.460000 0.742500 0.157500
0.575000 0.742500 0.157500
0.690000 0.742500 0.157500
0.805000 0.742500 0.157500
0.920000 0.742500 0.157500
0.000000 0.866250 0.157500
0.115000 0.866250 0.157500
0.230000 0.866250 0.157500
0.345000 0.866250 0.157500
0.460000 0.866250 0.157500
0.575000 0.866250 0.157500
0.690000 0.866250 0.157500
0.805000 0.866250 0.157500
0.920000 0.866250 0.157500
0.000000 0.990000 0.157500
0.115000 0.990000 0.157500
0.230000 0.990000 0.157500
0.345000 0.990000 0.157500
0.460000 0.990000 0.157500
0.575000 0.990000 0.157500
0.690000 0.990000 0.157500
0.805000 0.990000 0.157500
0.920000 0.990000 0.157500
0.000000 0.000000 0.295000
0.115000 0.000000 0.295000
0.230000 0.000000 0.295000
0.345000 0.000000 0.295000
0.460000 0.000000 0.295000
0.575000 0.000000 0.295000
0.690000 0.000000 0.295000
0.805000 0.000000 0.295000
0.920000 0.000000 0.295000
0.000000 0.123750 0.295000
0.115000 0.123750 0.295000
0.230000 0.123750 0.295000
0.345000 0.123750 0.295000
0.460000 0.123750 0.295000
0.575000 0.123750 0.295000
0.690000 0.123750 0.295000
0.805000 0.123750 0.295000
0.920000 0.123750 0.295000
0.000000 0.247500 0.295000
0.115000 0.247500 0.295000
0.230000 0.247500 0.295000
0.345000 0.247500 0.295000
0.460000 0.247500 0.295000
0.575000 0.247500 0.295000
0.690000 0.247500 0.295000
0.805000 0.247500 0.295000
0.920000 0.247500 0.295000
0.000000 0.371250 0.295000
0.115000 0.371250 0.295000
0.230000 0.371250 0.295000
0.345000 0.371250 0.295000
0.460000 0.371250 0.295000
0.575000 0.371250 0.295000
0.690000 0.371250 0.295000
0.805000 0.371250 0.295000
0.920000 0.371250 0.295000
0.000000 0.495000 0.295000
0.115000 0.495000 0.295000
0.230000 0.495000 0.295000
0.345000 0.495000 0.295000
0.460000 0.495000 0.295000
0.575000 0.495000 0.295000
0.690000 0.495000 0.295000
0.805000 0.495000 0.295000
0.920000 0.495000 0.295000
0.000000 0.618750 0.295000
0.115000 0.618750 0.295000
0.230000 0.618750 0.295000
0.345000 0.618750 0.295000
0.460000 0.618750 0.295000
0.575000 0.618750 0.295000
0.690000 0.618750 0.295000
0.805000 0.618750 0.295000
0.920000 0.618750 0.295000
0.000000 0.742500 0.295000
0.115000 0.742500 0.295000
0.230000 0.742500 0.295000
0.345000 0.742500 0.295000
0.460000 0.742500 0.295000
0.575000 0.742500 0.295000
0.690000 0.742500 0.295000
0.805000 0.742500 0.295000
0.920000 0.742500 0.295000
0.000000 0.866250 0.295000
0.115000 0.866250 0.295000
0.230000 0.866250 0.295000
0.345000 0.866250 0.295000
0.460000 0.866250 0.295000
0.575000 0.866250 0.295000
0.690000 0.866250 0.295000
0.805000 0.866250 0.295000
0.920000 0.866250 0.295000
0.000000 0.990000 0.295000
0.115000 0.990000 0.295000
0.230000 0.990000 0.295000
0.345000 0.990000 0.295000
0.460000 0.990000 0.295000
0.575000 0.990000 0.295000
0.690000 0.990000 0.295000
0.805000 0.990000 0.295000
0.920000 0.990000 0.295000
0.000000 0.000000 0.432500
0.115000 0.000000 0.432500
0.230000 0.000000 0.432500
0.345000 0.000000 0.432500
0.460000 0.000000 0.432500
0.575000 0.000000 0.432500
0.690000 0.000000 0.432500
0.805000 0.000000 0.432500
0.920000 0.000000 0.432500
0.000000 0.123750 0.432500
0.115000 0.123750 0.432500
0.230000 0.123750 0.432500
0.345000 0.123750 0.432500
0.460000 0.123750 0.432500
0.575000 0.123750 0.432500
0.690000 0.123750 0.432500
0.805000 0.123750 0.432500
0.920000 0.123750 0.432500
0.000000 0.247500 0.432500
0.115000 0.247500 0.432500
0.230000 0.247500 0.432500
0.345000 0.247500 0.432500
0.460000 0.247500 0.432500
0.575000 0.247500 0.432500
0.690000 0.247500 0.432500
0.805000 0.247500 0.432500
0.920000 0.247500 0.432500
0.000000 0.371250 0.432500
0.115000 0.371250 0.432500
0.230000 0.371250 0.432500
0.345000 0.371250 0.432500
0.460000 0.371250 0.432500
0.575000 0.371250 0.432500
0.690000 0.371250 0.432500
0.805000 0.371250 0.432500
0.920000 0.371250 0.432500
0.000000 0.495000 0.432500
0.115000 0.495000 0.432500
0.230000 0.495000 0.432500
0.345000 0.495000 0.432500
0.460000 0.495000 0.432500
0.575000 0.495000 0.432500
0.690000 0.495000 0.432500
0.805000 0.495000 0.432500
0.920000 0.495000 0.432500
0.000000 0.618750 0.432500
0.115000 0.618750 0.432500
0.230000 0.618750 0.432500
0.345000 0.618750 0.432500
0.460000 0.618750 0.432500
0.575000 0.618750 0.432500
0.690000 0.618750 0.432500
0.805000 0.618750 0.432500
0.920000 0.618750 0.432500
0.000000 0.742500 0.432500
0.115000 0.742500 0.432500
0.230000 0.742500 0.432500
0.345000 0.742500 0.432500
0.460000 0.742500 0.432500
0.575000 0.742500 0.432500
0.690000 0.742500 0.432500
0.805000 0.742500 0.432500
0.920000 0.742500 0.432500
0.000000 0.866250 0.432500
0.115000 0.866250 0.432500
0.230000 0.866250 0.432500
0.345000 0.866250 0.432500
0.460000 0.866250 0.432500
0.575000 0.866250 0.432500
0.690000 0.866250 0.432500
0.805000 0.866250 0.432500
0.920000 0.866250 0.432500
0.000000 0.990000 0.432500
0.115000 0.990000 0.432500
0.230000 0.990000 0.432500
0.345000 0.990000 0.432500
0.460000 0.990000 0.432500
0.575000 0.990000 0.432500
0.690000 0.990000 0.432500
0.805000 0.990000 0.432500
0.920000 0.990000 0.432500
0.000000 0.000000 0.570000
0.115000 0.000000 0.570000
0.230000 0.000000 0.570000
0.345000 0.000000 0.570000
0.460000 0.000000 0.570000
0.575000 0.000000 0.570000
0.690000 0.000000 0.570000
0.805000 0.000000 0.570000
0.920000 0.000000 0.570000
0.000000 0.123750 0.570000
0.115000 0.123750 0.570000
0.230000 0.123750 0.570000
0.345000 0.123750 0.570000
0.460000 0.123750 0.570000
0.575000 0.123750 0.570000
0.690000 0.123750 0.570000
0.805000 0.123750 0.570000
0.920000 0.123750 0.570000
0.000000 0.247500 0.570000
0.115000 0.247500 0.570000
0.230000 0.247500 0.570000
0.345000 0.247500 0.570000
0.460000 0.247500 0.570000
0.575000 0.247500 0.570000
0.690000 0.247500 0.570000
0.805000 0.247500 0.570000
0.920000 0.247500 0.570000
0.000000 0.371250 0.570000
0.115000 0.371250 0.570000
0.230000 0.371250 0.570000
0.345000 0.371250 0.570000
0.460000 0.371250 0.570000
0.575000 0.371250 0.570000
0.690000 0.371250 0.570000
0.805000 0.371250 0.570000
0.920000 0.371250 0.570000
0.000000 0.495000 0.570000
0.115000 0.495000 0.570000
0.230000 0.495000 0.570000
0.345000 0.495000 0.570000
0.460000 0.495000 0.570000
0.575000 0.495000 0.570000
0.690000 0.495000 0.570000
0.805000 0.495000 0.570000
0.920000 0.495000 0.570000
0.000000 0.618750 0.570000
0.115000 0.618750 0.570000
0.230000 0.618750 0.570000
0.345000 0.618750 0.570000
0.460000 0.618750 0.570000
0.575000 0.618750 0.570000
0.690000 0.618750 0.570000
0.805000 0.618750 0.570000
0.920000 0.618750 0.570000
0.000000 0.742500 0.570000
0.115000 0.742500 0.570000
0.230000 0.742500 0.570000
0.345000 0.742500 0.570000
0.460000 0.742500 0.570000
0.575000 0.742500 0.570000
0.690000 0.742500 0.570000
0.805000 0.742500 0.570000
0.920000 0.742500 0.570000
0.000000 0.866250 0.570000
0.115000 0.866250 0.570000
0.230000 0.866250 0.570000
0.345000 0.866250 0.570000
0.460000 0.866250 0.570000
0.575000 0.866250 0.570000
0.690000 0.866250 0.570000
0.805000 0.866250 0.570000
0.920000 0.866250 0.570000
0.000000 0.990000 0.570000
0.115000 0.990000 0.570000
0.230000 0.990000 0.570000
0.345000 0.990000 0.570000
0.460000 0.990000 0.570000
0.575000 0.990000 0.570000
0.690000 0.990000 0.570000
0.805000 0.990000 0.570000
0.920000 0.990000 0.570000
0.000000 0.000000 0.707500
0.115000 0.000000 0.707500
0.230000 0.000000 0.707500
0.345000 0.000000 0.707500
0.460000 0.000000 0.707500
0.575000 0.000000 0.707500
0.690000 0.000000 0.707500
0.805000 0.000000 0.707500
0.920000 0.000000 0.707500
0.000000 0.123750 0.707500
0.115000 0.123750 0.707500
0.230000 0.123750 0.707500
0.345000 0.123750 0.707500
0.460000 0.123750 0.707500
0.575000 0.123750 0.707500
0.690000 0.123750 0.707500
0.805000 0.123750 0.707500
0.920000 0.123750 0.707500
0.000000 0.247500 0.707500
0.115000 0.247500 0.707500
0.230000 0.247500 0.707500
0.345000 0.247500 0.707500
0.460000 0.247500 0.707500
0.575000 0.247500 0.707500
0.690000 0.247500 0.707500
0.805000 0.247500 0.707500
0.920000 0.247500 0.707500
0.000000 0.371250 0.707500
0.115000 0.371250 0.707500
0.230000 0.371250 0.707500
0.345000 0.371250 0.707500
0.460000 0.371250 0.707500
0.575000 0.371250 0.707500
0.690000 0.371250 0.707500
0.805000 0.371250 0.707500
0.920000 0.371250 0.707500
0.000000 0.495000 0.707500
0.115000 0.495000 0.707500
0.230000 0.495000 0.707500
0.345000 0.495000 0.707500
0.460000 0.495000 0.707500
0.575000 0.495000 0.707500
0.690000 0.495000 0.707500
0.805000 0.495000 0.707500
0.920000 0.495000 0.707500
0.000000 0.618750 0.707500
0.115000 0.618750 0.707500
0.230000 0.618750 0.707500
0.345000 0.618750 0.707500
0.460000 0.618750 0.707500
0.575000 0.618750 0.707500
0.690000 0.618750 0.707500
0.805000 0.618750 0.707500
0.920000 0.618750 0.707500
0.000000 0.742500 0.707500
0.115000 0.742500 0.707500
0.230000 0.742500 0.707500
0.345000 0.742500 0.707500
0.460000 0.742500 0.707500
0.575000 0.742500 0.707500
0.690000 0.742500 0.707500
0.805000 0.742500 0.707500
0.920000 0.742500 0.707500
0.000000 0.866250 0.707500
0.115000 0.866250 0.707500
0.230000 0.866250 0.707500
0.345000 0.866250 0.707500
0.460000 0.866250 0.707500
0.575000 0.866250 0.707500
0.690000 0.866250 0.707500
0.805000 0.866250 0.707500
0.920000 0.866250 0.707500
0.000000 0.990000 0.707500
0.115000 0.990000 0.707500
0.230000 0.990000 0.707500
0.345000 0.990000 0.707500
0.460000 0.990000 0.707500
0.575000 0.990000 0.707500
0.690000 0.990000 0.707500
0.805000 0.990000 0.707500
0.920000 0.990000 0.707500
0.000000 0.000000 0.845000
0.115000 0.000000 0.845000
0.230000 0.000000 0.845000
0.345000 0.000000 0.845000
0.460000 0.000000 0.845000
0.575000 0.000000 0.845000
0.690000 0.000000 0.845000
0.805000 0.000000 0.845000
0.920000 0.000000 0.845000
0.000000 0.123750 0.845000
0.115000 0.123750 0.845000
0.230000 0.123750 0.845000
0.345000 0.123750 0.845000
0.460000 0.123750 0.845000
0.575000 0.123750 0.845000
0.690000 0.123750 0.845000
0.805000 0.123750 0.845000
0.920000 0.123750 0.845000
0.000000 0.247500 0.845000
0.115000 0.247500 0.845000
0.230000 0.247500 0.845000
0.345000 0.247500 0.845000
0.460000 0.247500 0.845000
0.575000 0.247500 0.845000
0.690000 0.247500 0.845000
0.805000 0.247500 0.845000
0.920000 0.247500 0.845000
0.000000 0.371250 0.845000
0.115000 0.371250 0.845000
0.230000 0.371250 0.845000
0.345000 0.371250 0.845000
0.460000 0.371250 0.845000
0.575000 0.371250 0.845000
0.690000 0.371250 0.845000
0.805000 0.371250 0.845000
0.920000 0.371250 0.845000
0.000000 0.495000 0.845000
0.115000 0.495000 0.845000
0.230000 0.495000 0.845000
0.345000 0.495000 0.845000
0.460000 0.495000 0.845000
0.575000 0.495000 0.845000
0.690000 0.495000 0.845000
0.805000 0.495000 0.845000
0.920000 0.495000 0.845000
0.000000 0.618750 0.845000
0.115000 0.618750 0.845000
0.230000 0.618750 0.845000
0.345000 0.618750 0.845000
0.460000 0.618750 0.845000
0.575000 0.618750 0.845000
0.690000 0.618750 0.845000
0.805000 0.618750 0.845000
0.920000 0.618750 0.845000
0.000000 0.742500 0.845000
0.115000 0.742500 0.845000
0.230000 0.742500 0.845000
0.345000 0.742500 0.845000
0.460000 0.742500 0.845000
0.575000 0.742500 0.845000
0.690000 0.742500 0.845000
0.805000 0.742500 0.845000
0.920000 0.742500 0.845000
0.000000 0.866250 0.845000
0.115000 0.866250 0.845000
0.230000 0.866250 0.845000
0.345000 0.866250 0.845000
0.460000 0.866250 0.845000
0.575000 0.866250 0.845000
0.690000 0.866250 0.845000
0.805000 0.866250 0.845000
0.920000 0.866250 0.845000
0.000000 0.990000 0.845000
0.115000 0.990000 0.845000
0.230000 0.990000 0.845000
0.345000 0.990000 0.845000
0.460000 0.990000 0.845000
0.575000 0.990000 0.845000
0.690000 0.990000 0.845000
0.805000 0.990000 0.845000
0.920000 0.990000 0.845000
0.000000 0.000000 0.982500
0.115000 0.000000 0.982500
0.230000 0.000000 0.982500
0.345000 0.000000 0.982500
0.460000 0.000000 0.982500
0.575000 0.000000 0.982500
0.690000 0.000000 0.982500
0.805000 0.000000 0.982500
0.920000 0.000000 0.982500
0.000000 0.123750 0.982500
0.115000 0.123750 0.982500
0.230000 0.123750 0.982500
0.345000 0.123750 0.982500
0.460000 0.123750 0.982500
0.575000 0.123750 0.982500
0.690000 0.123750 0.982500
0.805000 0.123750 0.982500
0.920000 0.123750 0.982500
0.000000 0.247500 0.982500
0.115000 0.247500 0.982500
0.230000 0.247500 0.982500
0.345000 0.247500 0.982500
0.460000 0.247500 0.982500
0.575000 0.247500 0.982500
0.690000 0.247500 0.982500
0.805000 0.247500 0.982500
0.920000 0.247500 0.982500
0.000000 0.371250 0.982500
0.115000 0.371250 0.982500
0.230000 0.371250 0.982500
0.345000 0.371250 0.982500
0.460000 0.371250 0.982500
0.575000 0.371250 0.982500
0.690000 0.371250 0.982500
0.805000 0.371250 0.982500
0.920000 0.371250 0.982500
0.000000 0.495000 0.982500
0.115000 0.495000 0.982500
0.230000 0.495000 0.982500
0.345000 0.495000 0.982500
0.460000 0.495000 0.982500
0.575000 0.495000 0.982500
0.690000 0.495000 0.982500
0.805000 0.495000 0.982500
0.920000 0.495000 0.982500
0.000000 0.618750 0.982500
0.115000 0.618750 0.982500
0.230000 0.618750 0.982500
0.345000 0.618750 0.982500
0.460000 0.618750 0.982500
0.575000 0.618750 0.982500
0.690000 0.618750 0.982500
0.805000 0.618750 0.982500
0.920000 0.618750 0.982500
0.000000 0.742500 0.982500
0.115000 0.742500 0.982500
0.230000 0.742500 0.982500
0.345000 0.742500 0.982500
0.460000 0.742500 0.982500
0.575000 0.742500 0.982500
0.690000 0.742500 0.982500
0.805000 0.742500 0.982500
0.920000 0.742500 0.982500
0.000000 0.866250 0.982500
0.115000 0.866250 0.982500
0.230000 0.866250 0.982500
0.345000 0.866250 0.982500
0.460000 0.866250 0.982500
0.575000 0.866250 0.982500
0.690000 0.866250 0.982500
0.805000 0.866250 0.982500
0.920000 0.866250 0.982500
0.000000 0.990000 0.982500
0.115000 0.990000 0.982500
0.230000 0.990000 0.982500
0.345000 0.990000 0.982500
0.460000 0.990000 0.982500
0.575000 0.990000 0.982500
0.690000 0.990000 0.982500
0.805000 0.990000 0.982500
0.920000 0.990000 0.982500
0.000000 0.000000 1.000000
0.115000 0.000000 1.000000
0.230000 0.000000 1.000000
0.345000 0.000000 1.000000
0.460000 0.000000 1.000000
0.575000 0.000000 1.000000
0.690000 0.000000 1.000000
0.805000 0.000000 1.000000
0.920000 0.000000 1.000000
0.000000 0.123750 1.000000
0.115000 0.123750 1.000000
0.230000 0.123750 1.000000
0.345000 0.123750 1.000000
0.460000 0.123750 1.000000
0.575000 0.123750 1.000000
0.690000 0.123750 1.000000
0.805000 0.123750 1.000000
0.920000 0.123750 1.000000
0.000000 0.247500 1.000000
0.115000 0.247500 1.000000
0.230000 0.247500 1.000000
0.345000 0.247500 1.000000
0.460000 0.247500 1.000000
0.575000 0.247500 1.000000
0.690000 0.247500 1.000000
0.805000 0.247500 1.000000
0.920000 0.247500 1.000000
0.000000 0.371250 1.000000
0.115000 0.371250 1.000000
0.230000 0.371250 1.000000
0.345000 0.371250 1.000000
0.460000 0.371250 1.000000
0.575000 0.371250 1.000000
0.690000 0.371250 1.000000
0.805000 0.371250 1.000000
0.920000 0.371250 1.000000
0.000000 0.495000 1.000000
0.115000 0.495000 1.000000
0.230000 0.495000 1.000000
0.345000 0.495000 1.000000
0.460000 0.495000 1.000000
0.575000 0.495000 1.000000
0.690000 0.495000 1.000000
0.805000 0.495000 1.000000
0.920000 0.495000 1.000000
0.000000 0.618750 1.000000
0.115000 0.618750 1.000000
0.230000 0.618750 1.000000
0.345000 0.618750 1.000000
0.460000 0.618750 1.000000
0.575000 0.618750 1.000000
0.690000 0.618750 1.000000
0.805000 0.618750 1.000000
0.920000 0.618750 1.000000
0.000000 0.742500 1.000000
0.115000 0.742500 1.000000
0.230000 0.742500 1.000000
0.345000 0.742500 1.000000
0.460000 0.742500 1.000000
0.575000 0.742500 1.000000
0.690000 0.742500 1.000000
0.805000 0.742500 1.000000
0.920000 0.742500 1.000000
0.000000 0.866250 1.000000
0.115000 0.866250 1.000000
0.230000 0.866250 1.000000
0.345000 0.866250 1.000000
0.460000 0.866250 1.000000
0.575000 0.866250 1.000000
0.690000 0.866250 1.000000
0.805000 0.866250 1.000000
0.920000 0.866250 1.000000
0.000000 0.990000 1.000000
0.115000 0.990000 1.000000
0.230000 0.990000 1.000000
0.345000 0.990000 1.000000
0.460000 0.990000 1.000000
0.575000 0.990000 1.000000
0.690000 0.990000 1.000000
0.805000 0.990000 1.000000
0.920000 0.990000 1.000000
