assets/luts/cool.cube
TITLE "Cool"
LUT_3D_SIZE 17
DOMAIN_MIN 0.0 0.0 0.0
DOMAIN_MAX 1.0 1.0 1.0
0.000000 0.000000 0.020000
0.057500 0.000000 0.020000
0.115000 0.000000 0.020000
0.172500 0.000000 0.020000
0.230000 0.000000 0.020000
0.287500 0.000000 0.020000
0.345000 0.000000 0.020000
0.402500 0.000000 0.020000
0.460000 0.000000 0.020000
0.517500 0.000000 0.020000
0.575000 0.000000 0.020000
0.632500 0.000000 0.020000
0.690000 0.000000 0.020000
0.747500 0.000000 0.020000
0.805000 0.000000 0.020000
0.862500 0.000000 0.020000
0.920000 0.000000 0.020000
0.000000 0.061875 0.020000
0.057500 0.061875 0.020000
0.115000 0.061875 0.020000
0.172500 0.061875 0.020000
0.230000 0.061875 0.020000
0.287500 0.061875 0.020000
0.345000 0.061875 0.020000
0.402500 0.061875 0.020000
0.460000 0.061875 0.020000
0.517500 0.061875 0.020000
0.575000 0.061875 0.020000
0.632500 0.061875 0.020000
0.690000 0.061875 0.020000
0.747500 0.061875 0.020000
0.805000 0.061875 0.020000
0.862500 0.061875 0.020000
0.920000 0.061875 0.020000
0.000000 0.123750 0.020000
0.057500 0.123750 0.020000
0.115000 0.123750 0.020000
0.172500 0.123750 0.020000
0.230000 0.123750 0.020000
0.287500 0.123750 0.020000
0.345000 0.123750 0.020000
0.402500 0.123750 0.020000
0.460000 0.123750 0.020000
0.517500 0.123750 0.020000
0.575000 0.123750 0.020000
0.632500 0.123750 0.020000
0.690000 0.123750 0.020000
0.747500 0.123750 0.020000
0.805000 0.123750 0.020000
0.862500 0.123750 0.020000
0.920000 0.123750 0.020000
0.000000 0.185625 0.020000
0.057500 0.185625 0.020000
0.115000 0.185625 0.020000
0.172500 0.185625 0.020000
0.230000 0.185625 0.020000
0.287500 0.185625 0.020000
0.345000 0.185625 0.020000
0.402500 0.185625 0.020000
0.460000 0.185625 0.020000
0.517500 0.185625 0.020000
0.575000 0.185625 0.020000
0.632500 0.185625 0.020000
0.690000 0.185625 0.020000
0.747500 0.185625 0.020000
0.805000 0.185625 0.020000
0.862500 0.185625 0.020000
0.920000 0.185625 0.020000
0.000000 0.247500 0.020000
0.057500 0.247500 0.020000
0.115000 0.247500 0.020000
0.172500 0.247500 0.020000
0.230000 0.247500 0.020000
0.287500 0.247500 0.020000
0.345000 0.247500 0.020000
0.402500 0.247500 0.020000
0.460000 0.247500 0.020000
0.517500 0.247500 0.020000
0.575000 0.247500 0.020000
0.632500 0.247500 0.020000
0.690000 0.247500 0.020000
0.747500 0.247500 0.020000
0.805000 0.247500 0.020000
0.862500 0.247500 0.020000
0.920000 0.247500 0.020000
0.000000 0.309375 0.020000
0.057500 0.309375 0.020000
0.115000 0.309375 0.020000
0.172500 0.309375 0.020000
0.230000 0.309375 0.020000
0.287500 0.309375 0.020000
0.345000 0.309375 0.020000
0.402500 0.309375 0.020000
0.460000 0.309375 0.020000
0.517500 0.309375 0.020000
0.575000 0.309375 0.020000
0.632500 0.309375 0.020000
0.690000 0.309375 0.020000
0.747500 0.309375 0.020000
0.805000 0.309375 0.020000
0.862500 0.309375 0.020000
0.920000 0.309375 0.020000
0.000000 0.371250 0.020000
0.057500 0.371250 0.020000
0.115000 0.371250 0.020000
0.172500 0.371250 0.020000
0.230000 0.371250 0.020000
0.287500 0.371250 0.020000
0.345000 0.371250 0.020000
0.402500 0.371250 0.020000
0.460000 0.371250 0.020000
0.517500 0.371250 0.020000
0.575000 0.371250 0.020000
0.632500 0.371250 0.020000
0.690000 0.371250 0.020000
0.747500 0.371250 0.020000
0.805000 0.371250 0.020000
0.862500 0.371250 0.020000
0.920000 0.371250 0.020000
0.000000 0.433125 0.020000
0.057500 0.433125 0.020000
0.115000 0.433125 0.020000
0.172500 0.433125 0.020000
0.230000 0.433125 0.020000
0.287500 0.433125 0.020000
0.345000 0.433125 0.020000
0.402500 0.433125 0.020000
0.460000 0.433125 0.020000
0.517500 0.433125 0.020000
0.575000 0.433125 0.020000
0.632500 0.433125 0.020000
0.690000 0.433125 0.020000
0.747500 0.433125 0.020000
0.805000 0.433125 0.020000
0.862500 0.433125 0.020000
0.920000 0.433125 0.020000
0.000000 0.495000 0.020000
0.057500 0.495000 0.020000
0.115000 0.495000 0.020000
0.172500 0.495000 0.020000
0.230000 0.495000 0.020000
0.287500 0.495000 0.020000
0.345000 0.495000 0.020000
0.402500 0.495000 0.020000
0.460000 0.495000 0.020000
0.517500 0.495000 0.020000
0.575000 0.495000 0.020000
0.632500 0.495000 0.020000
0.690000 0.495000 0.020000
0.747500 0.495000 0.020000
0.805000 0.495000 0.020000
0.862500 0.495000 0.020000
0.920000 0.495000 0.020000
0.000000 0.556875 0.020000
0.057500 0.556875 0.020000
0.115000 0.556875 0.020000
0.172500 0.556875 0.020000
0.230000 0.556875 0.020000
0.287500 0.556875 0.020000
0.345000 0.556875 0.020000
0.402500 0.556875 0.020000
0.460000 0.556875 0.020000
0.517500 0.556875 0.020000
0.575000 0.556875 0.020000
0.632500 0.556875 0.020000
0.690000 0.556875 0.020000
0.747500 0.556875 0.020000
0.805000 0.556875 0.020000
0.862500 0.556875 0.020000
0.920000 0.556875 0.020000
0.000000 0.618750 0.020000
0.057500 0.618750 0.020000
0.115000 0.618750 0.020000
0.172500 0.618750 0.020000
0.230000 0.618750 0.020000
0.287500 0.618750 0.020000
0.345000 0.618750 0.020000
0.402500 0.618750 0.020000
0.460000 0.618750 0.020000
0.517500 0.618750 0.020000
0.575000 0.618750 0.020000
0.632500 0.618750 0.020000
0.690000 0.618750 0.020000
0.747500 0.618750 0.020000
0.805000 0.618750 0.020000
0.862500 0.618750 0.020000
0.920000 0.618750 0.020000
0.000000 0.680625 0.020000
0.057500 0.680625 0.020000
0.115000 0.680625 0.020000
0.172500 0.680625 0.020000
0.230000 0.680625 0.020000
0.287500 0.680625 0.020000
0.345000 0.680625 0.020000
0.402500 0.680625 0.020000
0.460000 0.680625 0.020000
0.517500 0.680625 0.020000
0.575000 0.680625 0.020000
0.632500 0.680625 0.020000
0.690000 0.680625 0.020000
0.747500 0.680625 0.020000
0.805000 0.680625 0.020000
0.862500 0.680625 0.020000
0.920000 0.680625 0.020000
0.000000 0.742500 0.020000
0.057500 0.742500 0.020000
0.115000 0.742500 0.020000
0.172500 0.742500 0.020000
0.230000 0.742500 0.020000
0.287500 0.742500 0.020000
0.345000 0.742500 0.020000
0.402500 0.742500 0.020000
0.460000 0.742500 0.020000
0.517500 0.742500 0.020000
0.575000 0.742500 0.020000
0.632500 0.742500 0.020000
0.690000 0.742500 0.020000
0.747500 0.742500 0.020000
0.805000 0.742500 0.020000
0.862500 0.742500 0.020000
0.920000 0.742500 0.020000
0.000000 0.804375 0.020000
0.057500 0.804375 0.020000
0.115000 0.804375 0.020000
0.172500 0.804375 0.020000
0.230000 0.804375 0.020000
0.287500 0.804375 0.020000
0.345000 0.804375 0.020000
0.402500 0.804375 0.020000
0.460000 0.804375 0.020000
0.517500 0.804375 0.020000
0.575000 0.804375 0.020000
0.632500 0.804375 0.020000
0.690000 0.804375 0.020000
0.747500 0.804375 0.020000
0.805000 0.804375 0.020000
0.862500 0.804375 0.020000
0.920000 0.804375 0.020000
0.000000 0.866250 0.020000
0.057500 0.866250 0.020000
0.115000 0.866250 0.020000
0.172500 0.866250 0.020000
0.230000 0.866250 0.020000
0.287500 0.866250 0.020000
0.345000 0.866250 0.020000
0.402500 0.866250 0.020000
0.460000 0.866250 0.020000
0.517500 0.866250 0.020000
0.575000 0.866250 0.020000
0.632500 0.866250 0.020000
0.690000 0.866250 0.020000
0.747500 0.866250 0.020000
0.805000 0.866250 0.020000
0.862500 0.866250 0.020000
0.920000 0.866250 0.020000
0.000000 0.928125 0.020000
0.057500 0.928125 0.020000
0.115000 0.928125 0.020000
0.172500 0.928125 0.020000
0.230000 0.928125 0.020000
0.287500 0.928125 0.020000
0.345000 0.928125 0.020000
0.402500 0.928125 0.020000
0.460000 0.928125 0.020000
0.517500 0.928125 0.020000
0.575000 0.928125 0.020000
0.632500 0.928125 0.020000
0.690000 0.928125 0.020000
0.747500 0.928125 0.020000
0.805000 0.928125 0.020000
0.862500 0.928125 0.020000
0.920000 0.928125 0.020000
0.000000 0.990000 0.020000
0.057500 0.990000 0.020000
0.115000 0.990000 0.020000
0.172500 0.990000 0.020000
0.230000 0.990000 0.020000
0.287500 0.990000 0.020000
0.345000 0.990000 0.020000
0.402500 0.990000 0.020000
0.460000 0.990000 0.020000
0.517500 0.990000 0.020000
0.575000 0.990000 0.020000
0.632500 0.990000 0.020000
0.690000 0.990000 0.020000
0.747500 0.990000 0.020000
0.805000 0.990000 0.020000
0.862500 0.990000 0.020000
0.920000 0.990000 0.020000
0.000000 0.000000 0.088750
0.057500 0.000000 0.088750
0.115000 0.000000 0.088750
0.172500 0.000000 0.088750
0.230000 0.000000 0.088750
0.287500 0.000000 0.088750
0.345000 0.000000 0.088750
0.402500 0.000000 0.088750
0.460000 0.000000 0.088750
0.517500 0.000000 0.088750
0.575000 0.000000 0.088750
0.632500 0.000000 0.088750
0.690000 0.000000 0.088750
0.747500 0.000000 0.088750
0.805000 0.000000 0.088750
0.862500 0.000000 0.088750
0.920000 0.000000 0.088750
0.000000 0.061875 0.088750
0.057500 0.061875 0.088750
0.115000 0.061875 0.088750
0.172500 0.061875 0.088750
0.230000 0.061875 0.088750
0.287500 0.061875 0.088750
0.345000 0.061875 0.088750
0.402500 0.061875 0.088750
0.460000 0.061875 0.088750
0.517500 0.061875 0.088750
0.575000 0.061875 0.088750
0.632500 0.061875 0.088750
0.690000 0.061875 0.088750
0.747500 0.061875 0.088750
0.805000 0.061875 0.088750
0.862500 0.061875 0.088750
0.920000 0.061875 0.088750
0.000000 0.123750 0.088750
0.057500 0.123750 0.088750
0.115000 0.123750 0.088750
0.172500 0.123750 0.088750
0.230000 0.123750 0.088750
0.287500 0.123750 0.088750
0.345000 0.123750 0.088750
0.402500 0.123750 0.088750
0.460000 0.123750 0.088750
0.517500 0.123750 0.088750
0.575000 0.123750 0.088750
0.632500 0.123750 0.088750
0.690000 0.123750 0.088750
0.747500 0.123750 0.088750
0.805000 0.123750 0.088750
0.862500 0.123750 0.088750
0.920000 0.123750 0.088750
0.000000 0.185625 0.088750
0.057500 0.185625 0.088750
0.115000 0.185625 0.088750
0.172500 0.185625 0.088750
0.230000 0.185625 0.088750
0.287500 0.185625 0.088750
0.345000 0.185625 0.088750
0.402500 0.185625 0.088750
0.460000 0.185625 0.088750
0.517500 0.185625 0.088750
0.575000 0.185625 0.088750
0.632500 0.185625 0.088750
0.690000 0.185625 0.088750
0.747500 0.185625 0.088750
0.805000 0.185625 0.088750
0.862500 0.185625 0.088750
0.920000 0.185625 0.088750
0.000000 0.247500 0.088750
0.057500 0.247500 0.088750
0.115000 0.247500 0.088750
0.172500 0.247500 0.088750
0.230000 0.247500 0.088750
0.287500 0.247500 0.088750
0.345000 0.247500 0.088750
0.402500 0.247500 0.088750
0.460000 0.247500 0.088750
0.517500 0.247500 0.088750
0.575000 0.247500 0.088750
0.632500 0.247500 0.088750
0.690000 0.247500 0.088750
0.747500 0.247500 0.088750
0.805000 0.247500 0.088750
0.862500 0.247500 0.088750
0.920000 0.247500 0.088750
0.000000 0.309375 0.088750
0.057500 0.309375 0.088750
0.115000 0.309375 0.088750
0.172500 0.309375 0.088750
0.230000 0.309375 0.088750
0.287500 0.309375 0.088750
0.345000 0.309375 0.088750
0.402500 0.309375 0.088750
0.460000 0.309375 0.088750
0.517500 0.309375 0.088750
0.575000 0.309375 0.088750
0.632500 0.309375 0.088750
0.690000 0.309375 0.088750
0.747500 0.309375 0.088750
0.805000 0.309375 0.088750
0.862500 0.309375 0.088750
0.920000 0.309375 0.088750
0.000000 0.371250 0.088750
0.057500 0.371250 0.088750
0.115000 0.371250 0.088750
0.172500 0.371250 0.088750
0.230000 0.371250 0.088750
0.287500 0.371250 0.088750
0.345000 0.371250 0.088750
0.402500 0.371250 0.088750
0.460000 0.371250 0.088750
0.517500 0.371250 0.088750
0.575000 0.371250 0.088750
0.632500 0.371250 0.088750
0.690000 0.371250 0.088750
0.747500 0.371250 0.088750
0.805000 0.371250 0.088750
0.862500 0.371250 0.088750
0.920000 0.371250 0.088750
0.000000 0.433125 0.088750
0.057500 0.433125 0.088750
0.115000 0.433125 0.088750
0.172500 0.433125 0.088750
0.230000 0.433125 0.088750
0.287500 0.433125 0.088750
0.345000 0.433125 0.088750
0.402500 0.433125 0.088750
0.460000 0.433125 0.088750
0.517500 0.433125 0.088750
0.575000 0.433125 0.088750
0.632500 0.433125 0.088750
0.690000 0.433125 0.088750
0.747500 0.433125 0.088750
0.805000 0.433125 0.088750
0.862500 0.433125 0.088750
0.920000 0.433125 0.088750
0.000000 0.495000 0.088750
0.057500 0.495000 0.088750
0.115000 0.495000 0.088750
0.172500 0.495000 0.088750
0.230000 0.495000 0.088750
0.287500 0.495000 0.088750
0.345000 0.495000 0.088750
0.402500 0.495000 0.088750
0.460000 0.495000 0.088750
0.517500 0.495000 0.088750
0.575000 0.495000 0.088750
0.632500 0.495000 0.088750
0.690000 0.495000 0.088750
0.747500 0.495000 0.088750
0.805000 0.495000 0.088750
0.862500 0.495000 0.088750
0.920000 0.495000 0.088750
0.000000 0.556875 0.088750
0.057500 0.556875 0.088750
0.115000 0.556875 0.088750
0.172500 0.556875 0.088750
0.230000 0.556875 0.088750
0.287500 0.556875 0.088750
0.345000 0.556875 0.088750
0.402500 0.556875 0.088750
0.460000 0.556875 0.088750
0.517500 0.556875 0.088750
0.575000 0.556875 0.088750
0.632500 0.556875 0.088750
0.690000 0.556875 0.088750
0.747500 0.556875 0.088750
0.805000 0.556875 0.088750
0.862500 0.556875 0.088750
0.920000 0.556875 0.088750
0.000000 0.618750 0.088750
0.057500 0.618750 0.088750
0.115000 0.618750 0.088750
0.172500 0.618750 0.088750
0.230000 0.618750 0.088750
0.287500 0.618750 0.088750
0.345000 0.618750 0.088750
0.402500 0.618750 0.088750
0.460000 0.618750 0.088750
0.517500 0.618750 0.088750
0.575000 0.618750 0.088750
0.632500 0.618750 0.088750
0.690000 0.618750 0.088750
0.747500 0.618750 0.088750
0.805000 0.618750 0.088750
0.862500 0.618750 0.088750
0.920000 0.618750 0.088750
0.000000 0.680625 0.088750
0.057500 0.680625 0.088750
0.115000 0.680625 0.088750
0.172500 0.680625 0.088750
0.230000 0.680625 0.088750
0.287500 0.680625 0.088750
0.345000 0.680625 0.088750
0.402500 0.680625 0.088750
0.460000 0.680625 0.088750
0.517500 0.680625 0.088750
0.575000 0.680625 0.088750
0.632500 0.680625 0.088750
0.690000 0.680625 0.088750
0.747500 0.680625 0.088750
0.805000 0.680625 0.088750
0.862500 0.680625 0.088750
0.920000 0.680625 0.088750
0.000000 0.742500 0.088750
0.057500 0.742500 0.088750
0.115000 0.742500 0.088750
0.172500 0.742500 0.088750
0.230000 0.742500 0.088750
0.287500 0.742500 0.088750
0.345000 0.742500 0.088750
0.402500 0.742500 0.088750
0.460000 0.742500 0.088750
0.517500 0.742500 0.088750
0.575000 0.742500 0.088750
0.632500 0.742500 0.088750
0.690000 0.742500 0.088750
0.747500 0.742500 0.088750
0.805000 0.742500 0.088750
0.862500 0.742500 0.088750
0.920000 0.742500 0.088750
0.000000 0.804375 0.088750
0.057500 0.804375 0.088750
0.115000 0.804375 0.088750
0.172500 0.804375 0.088750
0.230000 0.804375 0.088750
0.287500 0.804375 0.088750
0.345000 0.804375 0.088750
0.402500 0.804375 0.088750
0.460000 0.804375 0.088750
0.517500 0.804375 0.088750
0.575000 0.804375 0.088750
0.632500 0.804375 0.088750
0.690000 0.804375 0.088750
0.747500 0.804375 0.088750
0.805000 0.804375 0.088750
0.862500 0.804375 0.088750
0.920000 0.804375 0.088750
0.000000 0.866250 0.088750
0.057500 0.866250 0.088750
0.115000 0.866250 0.088750
0.172500 0.866250 0.088750
0.230000 0.866250 0.088750
0.287500 0.866250 0.088750
0.345000 0.866250 0.088750
0.402500 0.866250 0.088750
0.460000 0.866250 0.088750
0.517500 0.866250 0.088750
0.575000 0.866250 0.088750
0.632500 0.866250 0.088750
0.690000 0.866250 0.088750
0.747500 0.866250 0.088750
0.805000 0.866250 0.088750
0.862500 0.866250 0.088750
0.920000 0.866250 0.088750
0.000000 0.928125 0.088750
0.057500 0.928125 0.088750
0.115000 0.928125 0.088750
0.172500 0.928125 0.088750
0.230000 0.928125 0.088750
0.287500 0.928125 0.088750
0.345000 0.928125 0.088750
0.402500 0.928125 0.088750
0.460000 0.928125 0.088750
0.517500 0.928125 0.088750
0.575000 0.928125 0.088750
0.632500 0.928125 0.088750
0.690000 0.928125 0.088750
0.747500 0.928125 0.088750
0.805000 0.928125 0.088750
0.862500 0.928125 0.088750
0.920000 0.928125 0.088750
0.000000 0.990000 0.088750
0.057500 0.990000 0.088750
0.115000 0.990000 0.088750
0.172500 0.990000 0.088750
0.230000 0.990000 0.088750
0.287500 0.990000 0.088750
0.345000 0.990000 0.088750
0.402500 0.990000 0.088750
0.460000 0.990000 0.088750
0.517500 0.990000 0.088750
0.575000 0.990000 0.088750
0.632500 0.990000 0.088750
0.690000 0.990000 0.088750
0.747500 0.990000 0.088750
0.805000 0.990000 0.088750
0.862500 0.990000 0.088750
0.920000 0.990000 0.088750
0.000000 0.000000 0.157500
0.057500 0.000000 0.157500
0.115000 0.000000 0.157500
0.172500 0.000000 0.157500
0.230000 0.000000 0.157500
0.287500 0.000000 0.157500
0.345000 0.000000 0.157500
0.402500 0.000000 0.157500
0.460000 0.000000 0.157500
0.517500 0.000000 0.157500
0.575000 0.000000 0.157500
0.632500 0.000000 0.157500
0.690000 0.000000 0.157500
0.747500 0.000000 0.157500
0.805000 0.000000 0.157500
0.862500 0.000000 0.157500
0.920000 0.000000 0.157500
0.000000 0.061875 0.157500
0.057500 0.061875 0.157500
0.115000 0.061875 0.157500
0.172500 0.061875 0.157500
0.230000 0.061875 0.157500
0.287500 0.061875 0.157500
0.345000 0.061875 0.157500
0.402500 0.061875 0.157500
0.460000 0.061875 0.157500
0.517500 0.061875 0.157500
0.575000 0.061875 0.157500
0.632500 0.061875 0.157500
0.690000 0.061875 0.157500
0.747500 0.061875 0.157500
0.805000 0.061875 0.157500
0.862500 0.061875 0.157500
0.920000 0.061875 0.157500
0.000000 0.123750 0.157500
0.057500 0.123750 0.157500
0.115000 0.123750 0.157500
0.172500 0.123750 0.157500
0.230000 0.123750 0.157500
0.287500 0.123750 0.157500
0.345000 0.123750 0.157500
0.402500 0.123750 0.157500
0.460000 0.123750 0.157500
0.517500 0.123750 0.157500
0.575000 0.123750 0.157500
0.632500 0.123750 0.157500
0.690000 0.123750 0.157500
0.747500 0.123750 0.157500
0.805000 0.123750 0.157500
0.862500 0.123750 0.157500
0.920000 0.123750 0.157500
0.000000 0.185625 0.157500
0.057500 0.185625 0.157500
0.115000 0.185625 0.157500
0.172500 0.185625 0.157500
0.230000 0.185625 0.157500
0.287500 0.185625 0.157500
0.345000 0.185625 0.157500
0.402500 0.185625 0.157500
0.460000 0.185625 0.157500
0.517500 0.185625 0.157500
0.575000 0.185625 0.157500
0.632500 0.185625 0.157500
0.690000 0.185625 0.157500
0.747500 0.185625 0.157500
0.805000 0.185625 0.157500
0.862500 0.185625 0.157500
0.920000 0.185625 0.157500
0.000000 0.247500 0.157500
0.057500 0.247500 0.157500
0.115000 0.247500 0.157500
0.172500 0.247500 0.157500
0.230000 0.247500 0.157500
0.287500 0.247500 0.157500
0.345000 0.247500 0.157500
0.402500 0.247500 0.157500
0.460000 0.247500 0.157500
0.517500 0.247500 0.157500
0.575000 0.247500 0.157500
0.632500 0.247500 0.157500
0.690000 0.247500 0.157500
0.747500 0.247500 0.157500
0.805000 0.247500 0.157500
0.862500 0.247500 0.157500
0.920000 0.247500 0.157500
0.000000 0.309375 0.157500
0.057500 0.309375 0.157500
0.115000 0.309375 0.157500
0.172500 0.309375 0.157500
0.230000 0.309375 0.157500
0.287500 0.309375 0.157500
0.345000 0.309375 0.157500
0.402500 0.309375 0.157500
0.460000 0.309375 0.157500
0.517500 0.309375 0.157500
0.575000 0.309375 0.157500
0.632500 0.309375 0.157500
0.690000 0.309375 0.157500
0.747500 0.309375 0.157500
0.805000 0.309375 0.157500
0.862500 0.309375 0.157500
0.920000 0.309375 0.157500
0.000000 0.371250 0.157500
0.057500 0.371250 0.157500
0.115000 0.371250 0.157500
0.172500 0.371250 0.157500
0.230000 0.371250 0.157500
0.287500 0.371250 0.157500
0.345000 0.371250 0.157500
0.402500 0.371250 0.157500
0.460000 0.371250 0.157500
0.517500 0.371250 0.157500
0.575000 0.371250 0.157500
0.632500 0.371250 0.157500
0.690000 0.371250 0.157500
0.747500 0.371250 0.157500
0.805000 0.371250 0.157500
0.862500 0.371250 0.157500
0.920000 0.371250 0.157500
0.000000 0.433125 0.157500
0.057500 0.433125 0.157500
0.115000 0.433125 0.157500
0.172500 0.433125 0.157500
0.230000 0.433125 0.157500
0.287500 0.433125 0.157500
0.345000 0.433125 0.157500
0.402500 0.433125 0.157500
0.460000 0.433125 0.157500
0.517500 0.433125 0.157500
0.575000 0.433125 0.157500
0.632500 0.433125 0.157500
0.690000 0.433125 0.157500
0.747500 0.433125 0.157500
0.805000 0.433125 0.157500
0.862500 0.433125 0.157500
0.920000 0.433125 0.157500
0.000000 0.495000 0.157500
0.057500 0.495000 0.157500
0.115000 0.495000 0.157500
0.172500 0.495000 0.157500
0.230000 0.495000 0.157500
0.287500 0.495000 0.157500
0.345000 0.495000 0.157500
0.402500 0.495000 0.157500
0.460000 0.495000 0.157500
0.517500 0.495000 0.157500
0.575000 0.495000 0.157500
0.632500 0.495000 0.157500
0.690000 0.495000 0.157500
0.747500 0.495000 0.157500
0.805000 0.495000 0.157500
0.862500 0.495000 0.157500
0.920000 0.495000 0.157500
0.000000 0.556875 0.157500
0.057500 0.556875 0.157500
0.115000 0.556875 0.157500
0.172500 0.556875 0.157500
0.230000 0.556875 0.157500
0.287500 0.556875 0.157500
0.345000 0.556875 0.157500
0.402500 0.556875 0.157500
0.460000 0.556875 0.157500
0.517500 0.556875 0.157500
0.575000 0.556875 0.157500
0.632500 0.556875 0.157500
0.690000 0.556875 0.157500
0.747500 0.556875 0.157500
0.805000 0.556875 0.157500
0.862500 0.556875 0.157500
0.920000 0.556875 0.157500
0.000000 0.618750 0.157500
0.057500 0.618750 0.157500
0.115000 0.618750 0.157500
0.172500 0.618750 0.157500
0.230000 0.618750 0.157500
0.287500 0.618750 0.157500
0.345000 0.618750 0.157500
0.402500 0.618750 0.157500
0.460000 0.618750 0.157500
0.517500 0.618750 0.157500
0.575000 0.618750 0.157500
0.632500 0.618750 0.157500
0.690000 0.618750 0.157500
0.747500 0.618750 0.157500
0.805000 0.618750 0.157500
0.862500 0.618750 0.157500
0.920000 0.618750 0.157500
0.000000 0.680625 0.157500
0.057500 0.680625 0.157500
0.115000 0.680625 0.157500
0.172500 0.680625 0.157500
0.230000 0.680625 0.157500
0.287500 0.680625 0.157500
0.345000 0.680625 0.157500
0.402500 0.680625 0.157500
0.460000 0.680625 0.157500
0.517500 0.680625 0.157500
0.575000 0.680625 0.157500
0.632500 0.680625 0.157500
0.690000 0.680625 0.157500
0.747500 0.680625 0.157500
0.805000 0.680625 0.157500
0.862500 0.680625 0.157500
0.920000 0.680625 0.157500
0.000000 0.742500 0.157500
0.057500 0.742500 0.157500
0.115000 0.742500 0.157500
0.172500 0.742500 0.157500
0.230000 0.742500 0.157500
0.287500 0.742500 0.157500
0.345000 0.742500 0.157500
0.402500 0.742500 0.157500
0.460000 0.742500 0.157500
0.517500 0.742500 0.157500
0.575000 0.742500 0.157500
0.632500 0.742500 0.157500
0.690000 0.742500 0.157500
0.747500 0.742500 0.157500
0.805000 0.742500 0.157500
0.862500 0.742500 0.157500
0.920000 0.742500 0.157500
0.000000 0.804375 0.157500
0.057500 0.804375 0.157500
0.115000 0.804375 0.157500
0.172500 0.804375 0.157500
0.230000 0.804375 0.157500
0.287500 0.804375 0.157500
0.345000 0.804375 0.157500
0.402500 0.804375 0.157500
0.460000 0.804375 0.157500
0.517500 0.804375 0.157500
0.575000 0.804375 0.157500
0.632500 0.804375 0.157500
0.690000 0.804375 0.157500
0.747500 0.804375 0.157500
0.805000 0.804375 0.157500
0.862500 0.804375 0.157500
0.920000 0.804375 0.157500
0.000000 0.866250 0.157500
0.057500 0.866250 0.157500
0.115000 0.866250 0.157500
0.172500 0.866250 0.157500
0.230000 0.866250 0.157500
0.287500 0.866250 0.157500
0.345000 0.866250 0.157500
0.402500 0.866250 0.157500
0.460000 0.866250 0.157500
0.517500 0.866250 0.157500
0.575000 0.866250 0.157500
0.632500 0.866250 0.157500
0.690000 0.866250 0.157500
0.747500 0.866250 0.157500
0.805000 0.866250 0.157500
0.862500 0.866250 0.157500
0.920000 0.866250 0.157500
0.000000 0.928125 0.157500
0.057500 0.928125 0.157500
0.115000 0.928125 0.157500
0.172500 0.928125 0.157500
0.230000 0.928125 0.157500
0.287500 0.928125 0.157500
0.345000 0.928125 0.157500
0.402500 0.928125 0.157500
0.460000 0.928125 0.157500
0.517500 0.928125 0.157500
0.575000 0.928125 0.157500
0.632500 0.928125 0.157500
0.690000 0.928125 0.157500
0.747500 0.928125 0.157500
0.805000 0.928125 0.157500
0.862500 0.928125 0.157500
0.920000 0.928125 0.157500
0.000000 0.990000 0.157500
0.057500 0.990000 0.157500
0.115000 0.990000 0.157500
0.172500 0.990000 0.157500
0.230000 0.990000 0.157500
0.287500 0.990000 0.157500
0.345000 0.990000 0.157500
0.402500 0.990000 0.157500
0.460000 0.990000 0.157500
0.517500 0.990000 0.157500
0.575000 0.990000 0.157500
0.632500 0.990000 0.157500
0.690000 0.990000 0.157500
0.747500 0.990000 0.157500
0.805000 0.990000 0.157500
0.862500 0.990000 0.157500
0.920000 0.990000 0.157500
0.000000 0.000000 0.226250
0.057500 0.000000 0.226250
0.115000 0.000000 0.226250
0.172500 0.000000 0.226250
0.230000 0.000000 0.226250
0.287500 0.000000 0.226250
0.345000 0.000000 0.226250
0.402500 0.000000 0.226250
0.460000 0.000000 0.226250
0.517500 0.000000 0.226250
0.575000 0.000000 0.226250
0.632500 0.000000 0.226250
0.690000 0.000000 0.226250
0.747500 0.000000 0.226250
0.805000 0.000000 0.226250
0.862500 0.000000 0.226250
0.920000 0.000000 0.226250
0.000000 0.061875 0.226250
0.057500 0.061875 0.226250
