assets/luts/faded.cube
TITLE "Faded"
LUT_3D_SIZE 17
DOMAIN_MIN 0.0 0.0 0.0
DOMAIN_MAX 1.0 1.0 1.0
0.060000 0.060000 0.060000
0.115000 0.060000 0.060000
0.170000 0.060000 0.060000
0.225000 0.060000 0.060000
0.280000 0.060000 0.060000
0.335000 0.060000 0.060000
0.390000 0.060000 0.060000
0.445000 0.060000 0.060000
0.500000 0.060000 0.060000
0.555000 0.060000 0.060000
0.610000 0.060000 0.060000
0.665000 0.060000 0.060000
0.720000 0.060000 0.060000
0.775000 0.060000 0.060000
0.830000 0.060000 0.060000
0.885000 0.060000 0.060000
0.940000 0.060000 0.060000
0.060000 0.115000 0.060000
0.115000 0.115000 0.060000
0.170000 0.115000 0.060000
0.225000 0.115000 0.060000
0.280000 0.115000 0.060000
0.335000 0.115000 0.060000
0.390000 0.115000 0.060000
0.445000 0.115000 0.060000
0.500000 0.115000 0.060000
0.555000 0.115000 0.060000
0.610000 0.115000 0.060000
0.665000 0.115000 0.060000
0.720000 0.115000 0.060000
0.775000 0.115000 0.060000
0.830000 0.115000 0.060000
0.885000 0.115000 0.060000
0.940000 0.115000 0.060000
0.060000 0.170000 0.060000
0.115000 0.170000 0.060000
0.170000 0.170000 0.060000
0.225000 0.170000 0.060000
0.280000 0.170000 0.060000
0.335000 0.170000 0.060000
0.390000 0.170000 0.060000
0.445000 0.170000 0.060000
0.500000 0.170000 0.060000
0.555000 0.170000 0.060000
0.610000 0.170000 0.060000
0.665000 0.170000 0.060000
0.720000 0.170000 0.060000
0.775000 0.170000 0.060000
0.830000 0.170000 0.060000
0.885000 0.170000 0.060000
0.940000 0.170000 0.060000
0.060000 0.225000 0.060000
0.115000 0.225000 0.060000
0.170000 0.225000 0.060000
0.225000 0.225000 0.060000
0.280000 0.225000 0.060000
0.335000 0.225000 0.060000
0.390000 0.225000 0.060000
0.445000 0.225000 0.060000
0.500000 0.225000 0.060000
0.555000 0.225000 0.060000
0.610000 0.225000 0.060000
0.665000 0.225000 0.060000
0.720000 0.225000 0.060000
0.775000 0.225000 0.060000
0.830000 0.225000 0.060000
0.885000 0.225000 0.060000
0.940000 0.225000 0.060000
0.060000 0.280000 0.060000
0.115000 0.280000 0.060000
0.170000 0.280000 0.060000
0.225000 0.280000 0.060000
0.280000 0.280000 0.060000
0.335000 0.280000 0.060000
0.390000 0.280000 0.060000
0.445000 0.280000 0.060000
0.500000 0.280000 0.060000
0.555000 0.280000 0.060000
0.610000 0.280000 0.060000
0.665000 0.280000 0.060000
0.720000 0.280000 0.060000
0.775000 0.280000 0.060000
0.830000 0.280000 0.060000
0.885000 0.280000 0.060000
0.940000 0.280000 0.060000
0.060000 0.335000 0.060000
0.115000 0.335000 0.060000
0.170000 0.335000 0.060000
0.225000 0.335000 0.060000
0.280000 0.335000 0.060000
0.335000 0.335000 0.060000
0.390000 0.335000 0.060000
0.445000 0.335000 0.060000
0.500000 0.335000 0.060000
0.555000 0.335000 0.060000
0.610000 0.335000 0.060000
0.665000 0.335000 0.060000
0.720000 0.335000 0.060000
0.775000 0.335000 0.060000
0.830000 0.335000 0.060000
0.885000 0.335000 0.060000
0.940000 0.335000 0.060000
0.060000 0.390000 0.060000
0.115000 0.390000 0.060000
0.170000 0.390000 0.060000
0.225000 0.390000 0.060000
0.280000 0.390000 0.060000
0.335000 0.390000 0.060000
0.390000 0.390000 0.060000
0.445000 0.390000 0.060000
0.500000 0.390000 0.060000
0.555000 0.390000 0.060000
0.610000 0.390000 0.060000
0.665000 0.390000 0.060000
0.720000 0.390000 0.060000
0.775000 0.390000 0.060000
0.830000 0.390000 0.060000
0.885000 0.390000 0.060000
0.940000 0.390000 0.060000
0.060000 0.445000 0.060000
0.115000 0.445000 0.060000
0.170000 0.445000 0.060000
0.225000 0.445000 0.060000
0.280000 0.445000 0.060000
0.335000 0.445000 0.060000
0.390000 0.445000 0.060000
0.445000 0.445000 0.060000
0.500000 0.445000 0.060000
0.555000 0.445000 0.060000
0.610000 0.445000 0.060000
0.665000 0.445000 0.060000
0.720000 0.445000 0.060000
0.775000 0.445000 0.060000
0.830000 0.445000 0.060000
0.885000 0.445000 0.060000
0.940000 0.445000 0.060000
0.060000 0.500000 0.060000
0.115000 0.500000 0.060000
0.170000 0.500000 0.060000
0.225000 0.500000 0.060000
0.280000 0.500000 0.060000
0.335000 0.500000 0.060000
0.390000 0.500000 0.060000
0.445000 0.500000 0.060000
0.500000 0.500000 0.060000
0.555000 0.500000 0.060000
0.610000 0.500000 0.060000
0.665000 0.500000 0.060000
0.720000 0.500000 0.060000
0.775000 0.500000 0.060000
0.830000 0.500000 0.060000
0.885000 0.500000 0.060000
0.940000 0.500000 0.060000
0.060000 0.555000 0.060000
0.115000 0.555000 0.060000
0.170000 0.555000 0.060000
0.225000 0.555000 0.060000
0.280000 0.555000 0.060000
0.335000 0.555000 0.060000
0.390000 0.555000 0.060000
0.445000 0.555000 0.060000
0.500000 0.555000 0.060000
0.555000 0.555000 0.060000
0.610000 0.555000 0.060000
0.665000 0.555000 0.060000
0.720000 0.555000 0.060000
0.775000 0.555000 0.060000
0.830000 0.555000 0.060000
0.885000 0.555000 0.060000
0.940000 0.555000 0.060000
0.060000 0.610000 0.060000
0.115000 0.610000 0.060000
0.170000 0.610000 0.060000
0.225000 0.610000 0.060000
0.280000 0.610000 0.060000
0.335000 0.610000 0.060000
0.390000 0.610000 0.060000
0.445000 0.610000 0.060000
0.500000 0.610000 0.060000
0.555000 0.610000 0.060000
0.610000 0.610000 0.060000
0.665000 0.610000 0.060000
0.720000 0.610000 0.060000
0.775000 0.610000 0.060000
0.830000 0.610000 0.060000
0.885000 0.610000 0.060000
0.940000 0.610000 0.060000
0.060000 0.665000 0.060000
0.115000 0.665000 0.060000
0.170000 0.665000 0.060000
0.225000 0.665000 0.060000
0.280000 0.665000 0.060000
0.335000 0.665000 0.060000
0.390000 0.665000 0.060000
0.445000 0.665000 0.060000
0.500000 0.665000 0.060000
0.555000 0.665000 0.060000
0.610000 0.665000 0.060000
0.665000 0.665000 0.060000
0.720000 0.665000 0.060000
0.775000 0.665000 0.060000
0.830000 0.665000 0.060000
0.885000 0.665000 0.060000
0.940000 0.665000 0.060000
0.060000 0.720000 0.060000
0.115000 0.720000 0.060000
0.170000 0.720000 0.060000
0.225000 0.720000 0.060000
0.280000 0.720000 0.060000
0.335000 0.720000 0.060000
0.390000 0.720000 0.060000
0.445000 0.720000 0.060000
0.500000 0.720000 0.060000
0.555000 0.720000 0.060000
0.610000 0.720000 0.060000
0.665000 0.720000 0.060000
0.720000 0.720000 0.060000
0.775000 0.720000 0.060000
0.830000 0.720000 0.060000
0.885000 0.720000 0.060000
0.940000 0.720000 0.060000
0.060000 0.775000 0.060000
0.115000 0.775000 0.060000
0.170000 0.775000 0.060000
0.225000 0.775000 0.060000
0.280000 0.775000 0.060000
0.335000 0.775000 0.060000
0.390000 0.775000 0.060000
0.445000 0.775000 0.060000
0.500000 0.775000 0.060000
0.555000 0.775000 0.060000
0.610000 0.775000 0.060000
0.665000 0.775000 0.060000
0.720000 0.775000 0.060000
0.775000 0.775000 0.060000
0.830000 0.775000 0.060000
0.885000 0.775000 0.060000
0.940000 0.775000 0.060000
0.060000 0.830000 0.060000
0.115000 0.830000 0.060000
0.170000 0.830000 0.060000
0.225000 0.830000 0.060000
0.280000 0.830000 0.060000
0.335000 0.830000 0.060000
0.390000 0.830000 0.060000
0.445000 0.830000 0.060000
0.500000 0.830000 0.060000
0.555000 0.830000 0.060000
0.610000 0.830000 0.060000
0.665000 0.830000 0.060000
0.720000 0.830000 0.060000
0.775000 0.830000 0.060000
0.830000 0.830000 0.060000
0.885000 0.830000 0.060000
0.940000 0.830000 0.060000
0.060000 0.885000 0.060000
0.115000 0.885000 0.060000
0.170000 0.885000 0.060000
0.225000 0.885000 0.060000
0.280000 0.885000 0.060000
0.335000 0.885000 0.060000
0.390000 0.885000 0.060000
0.445000 0.885000 0.060000
0.500000 0.885000 0.060000
0.555000 0.885000 0.060000
0.610000 0.885000 0.060000
0.665000 0.885000 0.060000
0.720000 0.885000 0.060000
0.775000 0.885000 0.060000
0.830000 0.885000 0.060000
0.885000 0.885000 0.060000
0.940000 0.885000 0.060000
0.060000 0.940000 0.060000
0.115000 0.940000 0.060000
0.170000 0.940000 0.060000
0.225000 0.940000 0.060000
0.280000 0.940000 0.060000
0.335000 0.940000 0.060000
0.390000 0.940000 0.060000
0.445000 0.940000 0.060000
0.500000 0.940000 0.060000
0.555000 0.940000 0.060000
0.610000 0.940000 0.060000
0.665000 0.940000 0.060000
0.720000 0.940000 0.060000
0.775000 0.940000 0.060000
0.830000 0.940000 0.060000
0.885000 0.940000 0.060000
0.940000 0.940000 0.060000
0.060000 0.060000 0.116100
0.115000 0.060000 0.116100
0.170000 0.060000 0.116100
0.225000 0.060000 0.116100
0.280000 0.060000 0.116100
0.335000 0.060000 0.116100
0.390000 0.060000 0.116100
0.445000 0.060000 0.116100
0.500000 0.060000 0.116100
0.555000 0.060000 0.116100
0.610000 0.060000 0.116100
0.665000 0.060000 0.116100
0.720000 0.060000 0.116100
0.775000 0.060000 0.116100
0.830000 0.060000 0.116100
0.885000 0.060000 0.116100
0.940000 0.060000 0.116100
0.060000 0.115000 0.116100
0.115000 0.115000 0.116100
0.170000 0.115000 0.116100
0.225000 0.115000 0.116100
0.280000 0.115000 0.116100
0.335000 0.115000 0.116100
0.390000 0.115000 0.116100
0.445000 0.115000 0.116100
0.500000 0.115000 0.116100
0.555000 0.115000 0.116100
0.610000 0.115000 0.116100
0.665000 0.115000 0.116100
0.720000 0.115000 0.116100
0.775000 0.115000 0.116100
0.830000 0.115000 0.116100
0.885000 0.115000 0.116100
0.940000 0.115000 0.116100
0.060000 0.170000 0.116100
0.115000 0.170000 0.116100
0.170000 0.170000 0.116100
0.225000 0.170000 0.116100
0.280000 0.170000 0.116100
0.335000 0.170000 0.116100
0.390000 0.170000 0.116100
0.445000 0.170000 0.116100
0.500000 0.170000 0.116100
0.555000 0.170000 0.116100
0.610000 0.170000 0.116100
0.665000 0.170000 0.116100
0.720000 0.170000 0.116100
0.775000 0.170000 0.116100
0.830000 0.170000 0.116100
0.885000 0.170000 0.116100
0.940000 0.170000 0.116100
0.060000 0.225000 0.116100
0.115000 0.225000 0.116100
0.170000 0.225000 0.116100
0.225000 0.225000 0.116100
0.280000 0.225000 0.116100
0.335000 0.225000 0.116100
0.390000 0.225000 0.116100
0.445000 0.225000 0.116100
0.500000 0.225000 0.116100
0.555000 0.225000 0.116100
0.610000 0.225000 0.116100
0.665000 0.225000 0.116100
0.720000 0.225000 0.116100
0.775000 0.225000 0.116100
0.830000 0.225000 0.116100
0.885000 0.225000 0.116100
0.940000 0.225000 0.116100
0.060000 0.280000 0.116100
0.115000 0.280000 0.116100
0.170000 0.280000 0.116100
0.225000 0.280000 0.116100
0.280000 0.280000 0.116100
0.335000 0.280000 0.116100
0.390000 0.280000 0.116100
0.445000 0.280000 0.116100
0.500000 0.280000 0.116100
0.555000 0.280000 0.116100
0.610000 0.280000 0.116100
0.665000 0.280000 0.116100
0.720000 0.280000 0.116100
0.775000 0.280000 0.116100
0.830000 0.280000 0.116100
0.885000 0.280000 0.116100
0.940000 0.280000 0.116100
0.060000 0.335000 0.116100
0.115000 0.335000 0.116100
0.170000 0.335000 0.116100
0.225000 0.335000 0.116100
0.280000 0.335000 0.116100
0.335000 0.335000 0.116100
0.390000 0.335000 0.116100
0.445000 0.335000 0.116100
0.500000 0.335000 0.116100
0.555000 0.335000 0.116100
0.610000 0.335000 0.116100
0.665000 0.335000 0.116100
0.720000 0.335000 0.116100
0.775000 0.335000 0.116100
0.830000 0.335000 0.116100
0.885000 0.335000 0.116100
0.940000 0.335000 0.116100
0.060000 0.390000 0.116100
0.115000 0.390000 0.116100
0.170000 0.390000 0.116100
0.225000 0.390000 0.116100
0.280000 0.390000 0.116100
0.335000 0.390000 0.116100
0.390000 0.390000 0.116100
0.445000 0.390000 0.116100
0.500000 0.390000 0.116100
0.555000 0.390000 0.116100
0.610000 0.390000 0.116100
0.665000 0.390000 0.116100
0.720000 0.390000 0.116100
0.775000 0.390000 0.116100
0.830000 0.390000 0.116100
0.885000 0.390000 0.116100
0.940000 0.390000 0.116100
0.060000 0.445000 0.116100
0.115000 0.445000 0.116100
0.170000 0.445000 0.116100
0.225000 0.445000 0.116100
0.280000 0.445000 0.116100
0.335000 0.445000 0.116100
0.390000 0.445000 0.116100
0.445000 0.445000 0.116100
0.500000 0.445000 0.116100
0.555000 0.445000 0.116100
0.610000 0.445000 0.116100
0.665000 0.445000 0.116100
0.720000 0.445000 0.116100
0.775000 0.445000 0.116100
0.830000 0.445000 0.116100
0.885000 0.445000 0.116100
0.940000 0.445000 0.116100
0.060000 0.500000 0.116100
0.115000 0.500000 0.116100
0.170000 0.500000 0.116100
0.225000 0.500000 0.116100
0.280000 0.500000 0.116100
0.335000 0.500000 0.116100
0.390000 0.500000 0.116100
0.445000 0.500000 0.116100
0.500000 0.500000 0.116100
0.555000 0.500000 0.116100
0.610000 0.500000 0.116100
0.665000 0.500000 0.116100
0.720000 0.500000 0.116100
0.775000 0.500000 0.116100
0.830000 0.500000 0.116100
0.885000 0.500000 0.116100
0.940000 0.500000 0.116100
0.060000 0.555000 0.116100
0.115000 0.555000 0.116100
0.170000 0.555000 0.116100
0.225000 0.555000 0.116100
0.280000 0.555000 0.116100
0.335000 0.555000 0.116100
0.390000 0.555000 0.116100
0.445000 0.555000 0.116100
0.500000 0.555000 0.116100
0.555000 0.555000 0.116100
0.610000 0.555000 0.116100
0.665000 0.555000 0.116100
0.720000 0.555000 0.116100
0.775000 0.555000 0.116100
0.830000 0.555000 0.116100
0.885000 0.555000 0.116100
0.940000 0.555000 0.116100
0.060000 0.610000 0.116100
0.115000 0.610000 0.116100
0.170000 0.610000 0.116100
0.225000 0.610000 0.116100
0.280000 0.610000 0.116100
0.335000 0.610000 0.116100
0.390000 0.610000 0.116100
0.445000 0.610000 0.116100
0.500000 0.610000 0.116100
0.555000 0.610000 0.116100
0.610000 0.610000 0.116100
0.665000 0.610000 0.116100
0.720000 0.610000 0.116100
0.775000 0.610000 0.116100
0.830000 0.610000 0.116100
0.885000 0.610000 0.116100
0.940000 0.610000 0.116100
0.060000 0.665000 0.116100
0.115000 0.665000 0.116100
0.170000 0.665000 0.116100
0.225000 0.665000 0.116100
0.280000 0.665000 0.116100
0.335000 0.665000 0.116100
0.390000 0.665000 0.116100
0.445000 0.665000 0.116100
0.500000 0.665000 0.116100
0.555000 0.665000 0.116100
0.610000 0.665000 0.116100
0.665000 0.665000 0.116100
0.720000 0.665000 0.116100
0.775000 0.665000 0.116100
0.830000 0.665000 0.116100
0.885000 0.665000 0.116100
0.940000 0.665000 0.116100
0.060000 0.720000 0.116100
0.115000 0.720000 0.116100
0.170000 0.720000 0.116100
0.225000 0.720000 0.116100
0.280000 0.720000 0.116100
0.335000 0.720000 0.116100
0.390000 0.720000 0.116100
0.445000 0.720000 0.116100
0.500000 0.720000 0.116100
0.555000 0.720000 0.116100
0.610000 0.720000 0.116100
0.665000 0.720000 0.116100
0.720000 0.720000 0.116100
0.775000 0.720000 0.116100
0.830000 0.720000 0.116100
0.885000 0.720000 0.116100
0.940000 0.720000 0.116100
0.060000 0.775000 0.116100
0.115000 0.775000 0.116100
0.170000 0.775000 0.116100
0.225000 0.775000 0.116100
0.280000 0.775000 0.116100
0.335000 0.775000 0.116100
0.390000 0.775000 0.116100
0.445000 0.775000 0.116100
0.500000 0.775000 0.116100
0.555000 0.775000 0.116100
0.610000 0.775000 0.116100
0.665000 0.775000 0.116100
0.720000 0.775000 0.116100
0.775000 0.775000 0.116100
0.830000 0.775000 0.116100
0.885000 0.775000 0.116100
0.940000 0.775000 0.116100
0.060000 0.830000 0.116100
0.115000 0.830000 0.116100
0.170000 0.830000 0.116100
0.225000 0.830000 0.116100
0.280000 0.830000 0.116100
0.335000 0.830000 0.116100
0.390000 0.830000 0.116100
0.445000 0.830000 0.116100
0.500000 0.830000 0.116100
0.555000 0.830000 0.116100
0.610000 0.830000 0.116100
0.665000 0.830000 0.116100
0.720000 0.830000 0.116100
0.775000 0.830000 0.116100
0.830000 0.830000 0.116100
0.885000 0.830000 0.116100
0.940000 0.830000 0.116100
0.060000 0.885000 0.116100
0.115000 0.885000 0.116100
0.170000 0.885000 0.116100
0.225000 0.885000 0.116100
0.280000 0.885000 0.116100
0.335000 0.885000 0.116100
0.390000 0.885000 0.116100
0.445000 0.885000 0.116100
0.500000 0.885000 0.116100
0.555000 0.885000 0.116100
0.610000 0.885000 0.116100
0.665000 0.885000 0.116100
0.720000 0.885000 0.116100
0.775000 0.885000 0.116100
0.830000 0.885000 0.116100
0.885000 0.885000 0.116100
0.940000 0.885000 0.116100
0.060000 0.940000 0.116100
0.115000 0.940000 0.116100
0.170000 0.940000 0.116100
0.225000 0.940000 0.116100
0.280000 0.940000 0.116100
0.335000 0.940000 0.116100
0.390000 0.940000 0.116100
0.445000 0.940000 0.116100
0.500000 0.940000 0.116100
0.555000 0.940000 0.116100
0.610000 0.940000 0.116100
0.665000 0.940000 0.116100
0.720000 0.940000 0.116100
0.775000 0.940000 0.116100
0.830000 0.940000 0.116100
0.885000 0.940000 0.116100
0.940000 0.940000 0.116100
0.060000 0.060000 0.172200
0.115000 0.060000 0.172200
0.170000 0.060000 0.172200
0.225000 0.060000 0.172200
0.280000 0.060000 0.172200
0.335000 0.060000 0.172200
0.390000 0.060000 0.172200
0.445000 0.060000 0.172200
0.500000 0.060000 0.172200
0.555000 0.060000 0.172200
0.610000 0.060000 0.172200
0.665000 0.060000 0.172200
0.720000 0.060000 0.172200
0.775000 0.060000 0.172200
0.830000 0.060000 0.172200
0.885000 0.060000 0.172200
0.940000 0.060000 0.172200
0.060000 0.115000 0.172200
0.115000 0.115000 0.172200
0.170000 0.115000 0.172200
0.225000 0.115000 0.172200
0.280000 0.115000 0.172200
0.335000 0.115000 0.172200
0.390000 0.115000 0.172200
0.445000 0.115000 0.172200
0.500000 0.115000 0.172200
0.555000 0.115000 0.172200
0.610000 0.115000 0.172200
0.665000 0.115000 0.172200
0.720000 0.115000 0.172200
0.775000 0.115000 0.172200
0.830000 0.115000 0.172200
0.885000 0.115000 0.172200
0.940000 0.115000 0.172200
0.060000 0.170000 0.172200
0.115000 0.170000 0.172200
0.170000 0.170000 0.172200
0.225000 0.170000 0.172200
0.280000 0.170000 0.172200
0.335000 0.170000 0.172200
0.390000 0.170000 0.172200
0.445000 0.170000 0.172200
0.500000 0.170000 0.172200
0.555000 0.170000 0.172200
0.610000 0.170000 0.172200
0.665000 0.170000 0.172200
0.720000 0.170000 0.172200
0.775000 0.170000 0.172200
0.830000 0.170000 0.172200
0.885000 0.170000 0.172200
0.940000 0.170000 0.172200
0.060000 0.225000 0.172200
0.115000 0.225000 0.172200
0.170000 0.225000 0.172200
0.225000 0.225000 0.172200
0.280000 0.225000 0.172200
0.335000 0.225000 0.172200
0.390000 0.225000 0.172200
0.445000 0.225000 0.172200
0.500000 0.225000 0.172200
0.555000 0.225000 0.172200
0.610000 0.225000 0.172200
0.665000 0.225000 0.172200
0.720000 0.225000 0.172200
0.775000 0.225000 0.172200
0.830000 0.225000 0.172200
0.885000 0.225000 0.172200
0.940000 0.225000 0.172200
0.060000 0.280000 0.172200
0.115000 0.280000 0.172200
0.170000 0.280000 0.172200
0.225000 0.280000 0.172200
0.280000 0.280000 0.172200
0.335000 0.280000 0.172200
0.390000 0.280000 0.172200
0.445000 0.280000 0.172200
0.500000 0.280000 0.172200
0.555000 0.280000 0.172200
0.610000 0.280000 0.172200
0.665000 0.280000 0.172200
0.720000 0.280000 0.172200
0.775000 0.280000 0.172200
0.830000 0.280000 0.172200
0.885000 0.280000 0.172200
0.940000 0.280000 0.172200
0.060000 0.335000 0.172200
0.115000 0.335000 0.172200
0.170000 0.335000 0.172200
0.225000 0.335000 0.172200
0.280000 0.335000 0.172200
0.335000 0.335000 0.172200
0.390000 0.335000 0.172200
0.445000 0.335000 0.172200
0.500000 0.335000 0.172200
0.555000 0.335000 0.172200
0.610000 0.335000 0.172200
0.665000 0.335000 0.172200
0.720000 0.335000 0.172200
0.775000 0.335000 0.172200
0.830000 0.335000 0.172200
0.885000 0.335000 0.172200
0.940000 0.335000 0.172200
0.060000 0.390000 0.172200
0.115000 0.390000 0.172200
0.170000 0.390000 0.172200
0.225000 0.390000 0.172200
0.280000 0.390000 0.172200
0.335000 0.390000 0.172200
0.390000 0.390000 0.172200
0.445000 0.390000 0.172200
0.500000 0.390000 0.172200
0.555000 0.390000 0.172200
0.610000 0.390000 0.172200
0.665000 0.390000 0.172200
0.720000 0.390000 0.172200
0.775000 0.390000 0.172200
0.830000 0.390000 0.172200
0.885000 0.390000 0.172200
0.940000 0.390000 0.172200
0.060000 0.445000 0.172200
0.115000 0.445000 0.172200
0.170000 0.445000 0.172200
0.225000 0.445000 0.172200
0.280000 0.445000 0.172200
0.335000 0.445000 0.172200
0.390000 0.445000 0.172200
0.445000 0.445000 0.172200
0.500000 0.445000 0.172200
0.555000 0.445000 0.172200
0.610000 0.445000 0.172200
0.665000 0.445000 0.172200
0.720000 0.445000 0.172200
0.775000 0.445000 0.172200
0.830000 0.445000 0.172200
0.885000 0.445000 0.172200
0.940000 0.445000 0.172200
0.060000 0.500000 0.172200
0.115000 0.500000 0.172200
0.170000 0.500000 0.172200
0.225000 0.500000 0.172200
0.280000 0.500000 0.172200
0.335000 0.500000 0.172200
0.390000 0.500000 0.172200
0.445000 0.500000 0.172200
0.500000 0.500000 0.172200
0.555000 0.500000 0.172200
0.610000 0.500000 0.172200
0.665000 0.500000 0.172200
0.720000 0.500000 0.172200
0.775000 0.500000 0.172200
0.830000 0.500000 0.172200
0.885000 0.500000 0.172200
0.940000 0.500000 0.172200
0.060000 0.555000 0.172200
0.115000 0.555000 0.172200
0.170000 0.555000 0.172200
0.225000 0.555000 0.172200
0.280000 0.555000 0.172200
0.335000 0.555000 0.172200
0.390000 0.555000 0.172200
0.445000 0.555000 0.172200
0.500000 0.555000 0.172200
0.555000 0.555000 0.172200
0.610000 0.555000 0.172200
0.665000 0.555000 0.172200
0.720000 0.555000 0.172200
0.775000 0.555000 0.172200
0.830000 0.555000 0.172200
0.885000 0.555000 0.172200
0.940000 0.555000 0.172200
0.060000 0.610000 0.172200
0.115000 0.610000 0.172200
0.170000 0.610000 0.172200
0.225000 0.610000 0.172200
0.280000 0.610000 0.172200
0.335000 0.610000 0.172200
0.390000 0.610000 0.172200
0.445000 0.610000 0.172200
0.500000 0.610000 0.172200
0.555000 0.610000 0.172200
0.610000 0.610000 0.172200
0.665000 0.610000 0.172200
0.720000 0.610000 0.172200
0.775000 0.610000 0.172200
0.830000 0.610000 0.172200
0.885000 0.610000 0.172200
0.940000 0.610000 0.172200
0.060000 0.665000 0.172200
0.115000 0.665000 0.172200
0.170000 0.665000 0.172200
0.225000 0.665000 0.172200
0.280000 0.665000 0.172200
0.335000 0.665000 0.172200
0.390000 0.665000 0.172200
0.445000 0.665000 0.172200
0.500000 0.665000 0.172200
0.555000 0.665000 0.172200
0.610000 0.665000 0.172200
0.665000 0.665000 0.172200
0.720000 0.665000 0.172200
0.775000 0.665000 0.172200
0.830000 0.665000 0.172200
0.885000 0.665000 0.172200
0.940000 0.665000 0.172200
0.060000 0.720000 0.172200
0.115000 0.720000 0.172200
0.170000 0.720000 0.172200
0.225000 0.720000 0.172200
0.280000 0.720000 0.172200
0.335000 0.720000 0.172200
0.390000 0.720000 0.172200
0.445000 0.720000 0.172200
0.500000 0.720000 0.172200
0.555000 0.720000 0.172200
0.610000 0.720000 0.172200
0.665000 0.720000 0.172200
0.720000 0.720000 0.172200
0.775000 0.720000 0.172200
0.830000 0.720000 0.172200
0.885000 0.720000 0.172200
0.940000 0.720000 0.172200
0.060000 0.775000 0.172200
0.115000 0.775000 0.172200
0.170000 0.775000 0.172200
0.225000 0.775000 0.172200
0.280000 0.775000 0.172200
0.335000 0.775000 0.172200
0.390000 0.775000 0.172200
0.445000 0.775000 0.172200
0.500000 0.775000 0.172200
0.555000 0.775000 0.172200
0.610000 0.775000 0.172200
0.665000 0.775000 0.172200
0.720000 0.775000 0.172200
0.775000 0.775000 0.172200
0.830000 0.775000 0.172200
0.885000 0.775000 0.172200
0.940000 0.775000 0.172200
0.060000 0.830000 0.172200
0.115000 0.830000 0.172200
0.170000 0.830000 0.172200
0.225000 0.830000 0.172200
0.280000 0.830000 0.172200
0.335000 0.830000 0.172200
0.390000 0.830000 0.172200
0.445000 0.830000 0.172200
0.500000 0.830000 0.172200
0.555000 0.830000 0.172200
0.610000 0.830000 0.172200
0.665000 0.830000 0.172200
0.720000 0.830000 0.172200
0.775000 0.830000 0.172200
0.830000 0.830000 0.172200
0.885000 0.830000 0.172200
0.940000 0.830000 0.172200
0.060000 0.885000 0.172200
0.115000 0.885000 0.172200
0.170000 0.885000 0.172200
0.225000 0.885000 0.172200
0.280000 0.885000 0.172200
0.335000 0.885000 0.172200
0.390000 0.885000 0.172200
0.445000 0.885000 0.172200
0.500000 0.885000 0.172200
0.555000 0.885000 0.172200
0.610000 0.885000 0.172200
0.665000 0.885000 0.172200
0.720000 0.885000 0.172200
0.775000 0.885000 0.172200
0.830000 0.885000 0.172200
0.885000 0.885000 0.172200
0.940000 0.885000 0.172200
0.060000 0.940000 0.172200
0.115000 0.940000 0.172200
0.170000 0.940000 0.172200
0.225000 0.940000 0.172200
0.280000 0.940000 0.172200
0.335000 0.940000 0.172200
0.390000 0.940000 0.172200
0.445000 0.940000 0.172200
0.500000 0.940000 0.172200
0.555000 0.940000 0.172200
0.610000 0.940000 0.172200
0.665000 0.940000 0.172200
0.720000 0.940000 0.172200
0.775000 0.940000 0.172200
0.830000 0.940000 0.172200
0.885000 0.940000 0.172200
0.940000 0.940000 0.172200
0.060000 0.060000 0.228300
0.115000 0.060000 0.228300
0.170000 0.060000 0.228300
0.225000 0.060000 0.228300
0.280000 0.060000 0.228300
0.335000 0.060000 0.228300
0.390000 0.060000 0.228300
0.445000 0.060000 0.228300
0.500000 0.060000 0.228300
0.555000 0.060000 0.228300
0.610000 0.060000 0.228300
0.665000 0.060000 0.228300
0.720000 0.060000 0.228300
0.775000 0.060000 0.228300
0.830000 0.060000 0.228300
0.885000 0.060000 0.228300
0.940000 0.060000 0.228300
0.060000 0.115000 0.228300
0.115000 0.115000 0.228300
