assets/luts/faded.cube
TITLE "Faded"
LUT_3D_SIZE 9
DOMAIN_MIN 0.0 0.0 0.0
DOMAIN_MAX 1.0 1.0 1.0
0.060000 0.060000 0.060000
0.170000 0.060000 0.060000
0.280000 0.060000 0.060000
0.390000 0.060000 0.060000
0.500000 0.060000 0.060000
0.610000 0.060000 0.060000
0.720000 0.060000 0.060000
0.830000 0.060000 0.060000
0.940000 0.060000 0.060000
0.060000 0.170000 0.060000
0.170000 0.170000 0.060000
0.280000 0.170000 0.060000
0.390000 0.170000 0.060000
0.500000 0.170000 0.060000
0.610000 0.170000 0.060000
0.720000 0.170000 0.060000
0.830000 0.170000 0.060000
0.940000 0.170000 0.060000
0.060000 0.280000 0.060000
0.170000 0.280000 0.060000
0.280000 0.280000 0.060000
0.390000 0.280000 0.060000
0.500000 0.280000 0.060000
0.610000 0.280000 0.060000
0.720000 0.280000 0.060000
0.830000 0.280000 0.060000
0.940000 0.280000 0.060000
0.060000 0.390000 0.060000
0.170000 0.390000 0.060000
0.280000 0.390000 0.060000
0.390000 0.390000 0.060000
0.500000 0.390000 0.060000
0.610000 0.390000 0.060000
0.720000 0.390000 0.060000
0.830000 0.390000 0.060000
0.940000 0.390000 0.060000
0.060000 0.500000 0.060000
0.170000 0.500000 0.060000
0.280000 0.500000 0.060000
0.390000 0.500000 0.060000
0.500000 0.500000 0.060000
0.610000 0.500000 0.060000
0.720000 0.500000 0.060000
0.830000 0.500000 0.060000
0.940000 0.500000 0.060000
0.060000 0.610000 0.060000
0.170000 0.610000 0.060000
0.280000 0.610000 0.060000
0.390000 0.610000 0.060000
0.500000 0.610000 0.060000
0.610000 0.610000 0.060000
0.720000 0.610000 0.060000
0.830000 0.610000 0.060000
0.940000 0.610000 0.060000
0.060000 0.720000 0.060000
0.170000 0.720000 0.060000
0.280000 0.720000 0.060000
0.390000 0.720000 0.060000
0.500000 0.720000 0.060000
0.610000 0.720000 0.060000
0.720000 0.720000 0.060000
0.830000 0.720000 0.060000
0.940000 0.720000 0.060000
0.060000 0.830000 0.060000
0.170000 0.830000 0.060000
0.280000 0.830000 0.060000
0.390000 0.830000 0.060000
0.500000 0.830000 0.060000
0.610000 0.830000 0.060000
0.720000 0.830000 0.060000
0.830000 0.830000 0.060000
0.940000 0.830000 0.060000
0.060000 0.940000 0.060000
0.170000 0.940000 0.060000
0.280000 0.940000 0.060000
0.390000 0.940000 0.060000
0.500000 0.940000 0.060000
0.610000 0.940000 0.060000
0.720000 0.940000 0.060000
0.830000 0.940000 0.060000
0.940000 0.940000 0.060000
0.060000 0.060000 0.172200
0.170000 0.060000 0.172200
0.280000 0.060000 0.172200
0.390000 0.060000 0.172200
0.500000 0.060000 0.172200
0.610000 0.060000 0.172200
0.720000 0.060000 0.172200
0.830000 0.060000 0.172200
0.940000 0.060000 0.172200
0.060000 0.170000 0.172200
0.170000 0.170000 0.172200
0.280000 0.170000 0.172200
0.390000 0.170000 0.172200
0.500000 0.170000 0.172200
0.610000 0.170000 0.172200
0.720000 0.170000 0.172200
0.830000 0.170000 0.172200
0.940000 0.170000 0.172200
0.060000 0.280000 0.172200
0.170000 0.280000 0.172200
0.280000 0.280000 0.172200
0.390000 0.280000 0.172200
0.500000 0.280000 0.172200
0.610000 0.280000 0.172200
0.720000 0.280000 0.172200
0.830000 0.280000 0.172200
0.940000 0.280000 0.172200
0.060000 0.390000 0.172200
0.170000 0.390000 0.172200
0.280000 0.390000 0.172200
0.390000 0.390000 0.172200
0.500000 0.390000 0.172200
0.610000 0.390000 0.172200
0.720000 0.390000 0.172200
0.830000 0.390000 0.172200
0.940000 0.390000 0.172200
0.060000 0.500000 0.172200
0.170000 0.500000 0.172200
0.280000 0.500000 0.172200
0.390000 0.500000 0.172200
0.500000 0.500000 0.172200
0.610000 0.500000 0.172200
0.720000 0.500000 0.172200
0.830000 0.500000 0.172200
0.940000 0.500000 0.172200
0.060000 0.610000 0.172200
0.170000 0.610000 0.172200
0.280000 0.610000 0.172200
0.390000 0.610000 0.172200
0.500000 0.610000 0.172200
0.610000 0.610000 0.172200
0.720000 0.610000 0.172200
0.830000 0.610000 0.172200
0.940000 0.610000 0.172200
0.060000 0.720000 0.172200
0.170000 0.720000 0.172200
0.280000 0.720000 0.172200
0.390000 0.720000 0.172200
0.500000 0.720000 0.172200
0.610000 0.720000 0.172200
0.720000 0.720000 0.172200
0.830000 0.720000 0.172200
0.940000 0.720000 0.172200
0.060000 0.830000 0.172200
0.170000 0.830000 0.172200
0.280000 0.830000 0.172200
0.390000 0.830000 0.172200
0.500000 0.830000 0.172200
0.610000 0.830000 0.172200
0.720000 0.830000 0.172200
0.830000 0.830000 0.172200
0.940000 0.830000 0.172200
0.060000 0.940000 0.172200
0.170000 0.940000 0.172200
0.280000 0.940000 0.172200
0.390000 0.940000 0.172200
0.500000 0.940000 0.172200
0.610000 0.940000 0.172200
0.720000 0.940000 0.172200
0.830000 0.940000 0.172200
0.940000 0.940000 0.172200
0.060000 0.060000 0.284400
0.170000 0.060000 0.284400
0.280000 0.060000 0.284400
0.390000 0.060000 0.284400
0.500000 0.060000 0.284400
0.610000 0.060000 0.284400
0.720000 0.060000 0.284400
0.830000 0.060000 0.284400
0.940000 0.060000 0.284400
0.060000 0.170000 0.284400
0.170000 0.170000 0.284400
0.280000 0.170000 0.284400
0.390000 0.170000 0.284400
0.500000 0.170000 0.284400
0.610000 0.170000 0.284400
0.720000 0.170000 0.284400
0.830000 0.170000 0.284400
0.940000 0.170000 0.284400
0.060000 0.280000 0.284400
0.170000 0.280000 0.284400
0.280000 0.280000 0.284400
0.390000 0.280000 0.284400
0.500000 0.280000 0.284400
0.610000 0.280000 0.284400
0.720000 0.280000 0.284400
0.830000 0.280000 0.284400
0.940000 0.280000 0.284400
0.060000 0.390000 0.284400
0.170000 0.390000 0.284400
0.280000 0.390000 0.284400
0.390000 0.390000 0.284400
0.500000 0.390000 0.284400
0.610000 0.390000 0.284400
0.720000 0.390000 0.284400
0.830000 0.390000 0.284400
0.940000 0.390000 0.284400
0.060000 0.500000 0.284400
0.170000 0.500000 0.284400
0.280000 0.500000 0.284400
0.390000 0.500000 0.284400
0.500000 0.500000 0.284400
0.610000 0.500000 0.284400
0.720000 0.500000 0.284400
0.830000 0.500000 0.284400
0.940000 0.500000 0.284400
0.060000 0.610000 0.284400
0.170000 0.610000 0.284400
0.280000 0.610000 0.284400
0.390000 0.610000 0.284400
0.500000 0.610000 0.284400
0.610000 0.610000 0.284400
0.720000 0.610000 0.284400
0.830000 0.610000 0.284400
0.940000 0.610000 0.284400
0.060000 0.720000 0.284400
0.170000 0.720000 0.284400
0.280000 0.720000 0.284400
0.390000 0.720000 0.284400
0.500000 0.720000 0.284400
0.610000 0.720000 0.284400
0.720000 0.720000 0.284400
0.830000 0.720000 0.284400
0.940000 0.720000 0.284400
0.060000 0.830000 0.284400
0.170000 0.830000 0.284400
0.280000 0.830000 0.284400
0.390000 0.830000 0.284400
0.500000 0.830000 0.284400
0.610000 0.830000 0.284400
0.720000 0.830000 0.284400
0.830000 0.830000 0.284400
0.940000 0.830000 0.284400
0.060000 0.940000 0.284400
0.170000 0.940000 0.284400
0.280000 0.940000 0.284400
0.390000 0.940000 0.284400
0.500000 0.940000 0.284400
0.610000 0.940000 0.284400
0.720000 0.940000 0.284400
0.830000 0.940000 0.284400
0.940000 0.940000 0.284400
0.060000 0.060000 0.396600
0.170000 0.060000 0.396600
0.280000 0.060000 0.396600
0.390000 0.060000 0.396600
0.500000 0.060000 0.396600
0.610000 0.060000 0.396600
0.720000 0.060000 0.396600
0.830000 0.060000 0.396600
0.940000 0.060000 0.396600
0.060000 0.170000 0.396600
0.170000 0.170000 0.396600
0.280000 0.170000 0.396600
0.390000 0.170000 0.396600
0.500000 0.170000 0.396600
0.610000 0.170000 0.396600
0.720000 0.170000 0.396600
0.830000 0.170000 0.396600
0.940000 0.170000 0.396600
0.060000 0.280000 0.396600
0.170000 0.280000 0.396600
0.280000 0.280000 0.396600
0.390000 0.280000 0.396600
0.500000 0.280000 0.396600
0.610000 0.280000 0.396600
0.720000 0.280000 0.396600
0.830000 0.280000 0.396600
0.940000 0.280000 0.396600
0.060000 0.390000 0.396600
0.170000 0.390000 0.396600
0.280000 0.390000 0.396600
0.390000 0.390000 0.396600
0.500000 0.390000 0.396600
0.610000 0.390000 0.396600
0.720000 0.390000 0.396600
0.830000 0.390000 0.396600
0.940000 0.390000 0.396600
0.060000 0.500000 0.396600
0.170000 0.500000 0.396600
0.280000 0.500000 0.396600
0.390000 0.500000 0.396600
0.500000 0.500000 0.396600
0.610000 0.500000 0.396600
0.720000 0.500000 0.396600
0.830000 0.500000 0.396600
0.940000 0.500000 0.396600
0.060000 0.610000 0.396600
0.170000 0.610000 0.396600
0.280000 0.610000 0.396600
0.390000 0.610000 0.396600
0.500000 0.610000 0.396600
0.610000 0.610000 0.396600
0.720000 0.610000 0.396600
0.830000 0.610000 0.396600
0.940000 0.610000 0.396600
0.060000 0.720000 0.396600
0.170000 0.720000 0.396600
0.280000 0.720000 0.396600
0.390000 0.720000 0.396600
0.500000 0.720000 0.396600
0.610000 0.720000 0.396600
0.720000 0.720000 0.396600
0.830000 0.720000 0.396600
0.940000 0.720000 0.396600
0.060000 0.830000 0.396600
0.170000 0.830000 0.396600
0.280000 0.830000 0.396600
0.390000 0.830000 0.396600
0.500000 0.830000 0.396600
0.610000 0.830000 0.396600
0.720000 0.830000 0.396600
0.830000 0.830000 0.396600
0.940000 0.830000 0.396600
0.060000 0.940000 0.396600
0.170000 0.940000 0.396600
0.280000 0.940000 0.396600
0.390000 0.940000 0.396600
0.500000 0.940000 0.396600
0.610000 0.940000 0.396600
0.720000 0.940000 0.396600
0.830000 0.940000 0.396600
0.940000 0.940000 0.396600
0.060000 0.060000 0.508800
0.170000 0.060000 0.508800
0.280000 0.060000 0.508800
0.390000 0.060000 0.508800
0.500000 0.060000 0.508800
0.610000 0.060000 0.508800
0.720000 0.060000 0.508800
0.830000 0.060000 0.508800
0.940000 0.060000 0.508800
0.060000 0.170000 0.508800
0.170000 0.170000 0.508800
0.280000 0.170000 0.508800
0.390000 0.170000 0.508800
0.500000 0.170000 0.508800
0.610000 0.170000 0.508800
0.720000 0.170000 0.508800
0.830000 0.170000 0.508800
0.940000 0.170000 0.508800
0.060000 0.280000 0.508800
0.170000 0.280000 0.508800
0.280000 0.280000 0.508800
0.390000 0.280000 0.508800
0.500000 0.280000 0.508800
0.610000 0.280000 0.508800
0.720000 0.280000 0.508800
0.830000 0.280000 0.508800
0.940000 0.280000 0.508800
0.060000 0.390000 0.508800
0.170000 0.390000 0.508800
0.280000 0.390000 0.508800
0.390000 0.390000 0.508800
0.500000 0.390000 0.508800
0.610000 0.390000 0.508800
0.720000 0.390000 0.508800
0.830000 0.390000 0.508800
0.940000 0.390000 0.508800
0.060000 0.500000 0.508800
0.170000 0.500000 0.508800
0.280000 0.500000 0.508800
0.390000 0.500000 0.508800
0.500000 0.500000 0.508800
0.610000 0.500000 0.508800
0.720000 0.500000 0.508800
0.830000 0.500000 0.508800
0.940000 0.500000 0.508800
0.060000 0.610000 0.508800
0.170000 0.610000 0.508800
0.280000 0.610000 0.508800
0.390000 0.610000 0.508800
0.500000 0.610000 0.508800
0.610000 0.610000 0.508800
0.720000 0.610000 0.508800
0.830000 0.610000 0.508800
0.940000 0.610000 0.508800
0.060000 0.720000 0.508800
0.170000 0.720000 0.508800
0.280000 0.720000 0.508800
0.390000 0.720000 0.508800
0.500000 0.720000 0.508800
0.610000 0.720000 0.508800
0.720000 0.720000 0.508800
0.830000 0.720000 0.508800
0.940000 0.720000 0.508800
0.060000 0.830000 0.508800
0.170000 0.830000 0.508800
0.280000 0.830000 0.508800
0.390000 0.830000 0.508800
0.500000 0.830000 0.508800
0.610000 0.830000 0.508800
0.720000 0.830000 0.508800
0.830000 0.830000 0.508800
0.940000 0.830000 0.508800
0.060000 0.940000 0.508800
0.170000 0.940000 0.508800
0.280000 0.940000 0.508800
0.390000 0.940000 0.508800
0.500000 0.940000 0.508800
0.610000 0.940000 0.508800
0.720000 0.940000 0.508800
0.830000 0.940000 0.508800
0.940000 0.940000 0.508800
0.060000 0.060000 0.621000
0.170000 0.060000 0.621000
0.280000 0.060000 0.621000
0.390000 0.060000 0.621000
0.500000 0.060000 0.621000
0.610000 0.060000 0.621000
0.720000 0.060000 0.621000
0.830000 0.060000 0.621000
0.940000 0.060000 0.621000
0.060000 0.170000 0.621000
0.170000 0.170000 0.621000
0.280000 0.170000 0.621000
0.390000 0.170000 0.621000
0.500000 0.170000 0.621000
0.610000 0.170000 0.621000
0.720000 0.170000 0.621000
0.830000 0.170000 0.621000
0.940000 0.170000 0.621000
0.060000 0.280000 0.621000
0.170000 0.280000 0.621000
0.280000 0.280000 0.621000
0.390000 0.280000 0.621000
0.500000 0.280000 0.621000
0.610000 0.280000 0.621000
0.720000 0.280000 0.621000
0.830000 0.280000 0.621000
0.940000 0.280000 0.621000
0.060000 0.390000 0.621000
0.170000 0.390000 0.621000
0.280000 0.390000 0.621000
0.390000 0.390000 0.621000
0.500000 0.390000 0.621000
0.610000 0.390000 0.621000
0.720000 0.390000 0.621000
0.830000 0.390000 0.621000
0.940000 0.390000 0.621000
0.060000 0.500000 0.621000
0.170000 0.500000 0.621000
0.280000 0.500000 0.621000
0.390000 0.500000 0.621000
0.500000 0.500000 0.621000
0.610000 0.500000 0.621000
0.720000 0.500000 0.621000
0.830000 0.500000 0.621000
0.940000 0.500000 0.621000
0.060000 0.610000 0.621000
0.170000 0.610000 0.621000
0.280000 0.610000 0.621000
0.390000 0.610000 0.621000
0.500000 0.610000 0.621000
0.610000 0.610000 0.621000
0.720000 0.610000 0.621000
0.830000 0.610000 0.621000
0.940000 0.610000 0.621000
0.060000 0.720000 0.621000
0.170000 0.720000 0.621000
0.280000 0.720000 0.621000
0.390000 0.720000 0.621000
0.500000 0.720000 0.621000
0.610000 0.720000 0.621000
0.720000 0.720000 0.621000
0.830000 0.720000 0.621000
0.940000 0.720000 0.621000
0.060000 0.830000 0.621000
0.170000 0.830000 0.621000
0.280000 0.830000 0.621000
0.390000 0.830000 0.621000
0.500000 0.830000 0.621000
0.610000 0.830000 0.621000
0.720000 0.830000 0.621000
0.830000 0.830000 0.621000
0.940000 0.830000 0.621000
0.060000 0.940000 0.621000
0.170000 0.940000 0.621000
0.280000 0.940000 0.621000
0.390000 0.940000 0.621000
0.500000 0.940000 0.621000
0.610000 0.940000 0.621000
0.720000 0.940000 0.621000
0.830000 0.940000 0.621000
0.940000 0.940000 0.621000
0.060000 0.060000 0.733200
0.170000 0.060000 0.733200
0.280000 0.060000 0.733200
0.390000 0.060000 0.733200
0.500000 0.060000 0.733200
0.610000 0.060000 0.733200
0.720000 0.060000 0.733200
0.830000 0.060000 0.733200
0.940000 0.060000 0.733200
0.060000 0.170000 0.733200
0.170000 0.170000 0.733200
0.280000 0.170000 0.733200
0.390000 0.170000 0.733200
0.500000 0.170000 0.733200
0.610000 0.170000 0.733200
0.720000 0.170000 0.733200
0.830000 0.170000 0.733200
0.940000 0.170000 0.733200
0.060000 0.280000 0.733200
0.170000 0.280000 0.733200
0.280000 0.280000 0.733200
0.390000 0.280000 0.733200
0.500000 0.280000 0.733200
0.610000 0.280000 0.733200
0.720000 0.280000 0.733200
0.830000 0.280000 0.733200
0.940000 0.280000 0.733200
0.060000 0.390000 0.733200
0.170000 0.390000 0.733200
0.280000 0.390000 0.733200
0.390000 0.390000 0.733200
0.500000 0.390000 0.733200
0.610000 0.390000 0.733200
0.720000 0.390000 0.733200
0.830000 0.390000 0.733200
0.940000 0.390000 0.733200
0.060000 0.500000 0.733200
0.170000 0.500000 0.733200
0.280000 0.500000 0.733200
0.390000 0.500000 0.733200
0.500000 0.500000 0.733200
0.610000 0.500000 0.733200
0.720000 0.500000 0.733200
0.830000 0.500000 0.733200
0.940000 0.500000 0.733200
0.060000 0.610000 0.733200
0.170000 0.610000 0.733200
0.280000 0.610000 0.733200
0.390000 0.610000 0.733200
0.500000 0.610000 0.733200
0.610000 0.610000 0.733200
0.720000 0.610000 0.733200
0.830000 0.610000 0.733200
0.940000 0.610000 0.733200
0.060000 0.720000 0.733200
0.170000 0.720000 0.733200
0.280000 0.720000 0.733200
0.390000 0.720000 0.733200
0.500000 0.720000 0.733200
0.610000 0.720000 0.733200
0.720000 0.720000 0.733200
0.830000 0.720000 0.733200
0.940000 0.720000 0.733200
0.060000 0.830000 0.733200
0.170000 0.830000 0.733200
0.280000 0.830000 0.733200
0.390000 0.830000 0.733200
0.500000 0.830000 0.733200
0.610000 0.830000 0.733200
0.720000 0.830000 0.733200
0.830000 0.830000 0.733200
0.940000 0.830000 0.733200
0.060000 0.940000 0.733200
0.170000 0.940000 0.733200
0.280000 0.940000 0.733200
0.390000 0.940000 0.733200
0.500000 0.940000 0.733200
0.610000 0.940000 0.733200
0.720000 0.940000 0.733200
0.830000 0.940000 0.733200
0.940000 0.940000 0.733200
0.060000 0.060000 0.845400
0.170000 0.060000 0.845400
0.280000 0.060000 0.845400
0.390000 0.060000 0.845400
0.500000 0.060000 0.845400
0.610000 0.060000 0.845400
0.720000 0.060000 0.845400
0.830000 0.060000 0.845400
0.940000 0.060000 0.845400
0.060000 0.170000 0.845400
0.170000 0.170000 0.845400
0.280000 0.170000 0.845400
0.390000 0.170000 0.845400
0.500000 0.170000 0.845400
0.610000 0.170000 0.845400
0.720000 0.170000 0.845400
0.830000 0.170000 0.845400
0.940000 0.170000 0.845400
0.060000 0.280000 0.845400
0.170000 0.280000 0.845400
0.280000 0.280000 0.845400
0.390000 0.280000 0.845400
0.500000 0.280000 0.845400
0.610000 0.280000 0.845400
0.720000 0.280000 0.845400
0.830000 0.280000 0.845400
0.940000 0.280000 0.845400
0.060000 0.390000 0.845400
0.170000 0.390000 0.845400
0.280000 0.390000 0.845400
0.390000 0.390000 0.845400
0.500000 0.390000 0.845400
0.610000 0.390000 0.845400
0.720000 0.390000 0.845400
0.830000 0.390000 0.845400
0.940000 0.390000 0.845400
0.060000 0.500000 0.845400
0.170000 0.500000 0.845400
0.280000 0.500000 0.845400
0.390000 0.500000 0.845400
0.500000 0.500000 0.845400
0.610000 0.500000 0.845400
0.720000 0.500000 0.845400
0.830000 0.500000 0.845400
0.940000 0.500000 0.845400
0.060000 0.610000 0.845400
0.170000 0.610000 0.845400
0.280000 0.610000 0.845400
0.390000 0.610000 0.845400
0.500000 0.610000 0.845400
0.610000 0.610000 0.845400
0.720000 0.610000 0.845400
0.830000 0.610000 0.845400
0.940000 0.610000 0.845400
0.060000 0.720000 0.845400
0.170000 0.720000 0.845400
0.280000 0.720000 0.845400
0.390000 0.720000 0.845400
0.500000 0.720000 0.845400
0.610000 0.720000 0.845400
0.720000 0.720000 0.845400
0.830000 0.720000 0.845400
0.940000 0.720000 0.845400
0.060000 0.830000 0.845400
0.170000 0.830000 0.845400
0.280000 0.830000 0.845400
0.390000 0.830000 0.845400
0.500000 0.830000 0.845400
0.610000 0.830000 0.845400
0.720000 0.830000 0.845400
0.830000 0.830000 0.845400
0.940000 0.830000 0.845400
0.060000 0.940000 0.845400
0.170000 0.940000 0.845400
0.280000 0.940000 0.845400
0.390000 0.940000 0.845400
0.500000 0.940000 0.845400
0.610000 0.940000 0.845400
0.720000 0.940000 0.845400
0.830000 0.940000 0.845400
0.940000 0.940000 0.845400
0.060000 0.060000 0.957600
0.170000 0.060000 0.957600
0.280000 0.060000 0.957600
0.390000 0.060000 0.957600
0.500000 0.060000 0.957600
0.610000 0.060000 0.957600
0.720000 0.060000 0.957600
0.830000 0.060000 0.957600
0.940000 0.060000 0.957600
0.060000 0.170000 0.957600
0.170000 0.170000 0.957600
0.280000 0.170000 0.957600
0.390000 0.170000 0.957600
0.500000 0.170000 0.957600
0.610000 0.170000 0.957600
0.720000 0.170000 0.957600
0.830000 0.170000 0.957600
0.940000 0.170000 0.957600
0.060000 0.280000 0.957600
0.170000 0.280000 0.957600
0.280000 0.280000 0.957600
0.390000 0.280000 0.957600
0.500000 0.280000 0.957600
0.610000 0.280000 0.957600
0.720000 0.280000 0.957600
0.830000 0.280000 0.957600
0.940000 0.280000 0.957600
0.060000 0.390000 0.957600
0.170000 0.390000 0.957600
0.280000 0.390000 0.957600
0.390000 0.390000 0.957600
0.500000 0.390000 0.957600
0.610000 0.390000 0.957600
0.720000 0.390000 0.957600
0.830000 0.390000 0.957600
0.940000 0.390000 0.957600
0.060000 0.500000 0.957600
0.170000 0.500000 0.957600
0.280000 0.500000 0.957600
0.390000 0.500000 0.957600
0.500000 0.500000 0.957600
0.610000 0.500000 0.957600
0.720000 0.500000 0.957600
0.830000 0.500000 0.957600
0.940000 0.500000 0.957600
0.060000 0.610000 0.957600
0.170000 0.610000 0.957600
0.280000 0.610000 0.957600
0.390000 0.610000 0.957600
0.500000 0.610000 0.957600
0.610000 0.610000 0.957600
0.720000 0.610000 0.957600
0.830000 0.610000 0.957600
0.940000 0.610000 0.957600
0.060000 0.720000 0.957600
0.170000 0.720000 0.957600
0.280000 0.720000 0.957600
0.390000 0.720000 0.957600
0.500000 0.720000 0.957600
0.610000 0.720000 0.957600
0.720000 0.720000 0.957600
0.830000 0.720000 0.957600
0.940000 0.720000 0.957600
0.060000 0.830000 0.957600
0.170000 0.830000 0.957600
0.280000 0.830000 0.957600
0.390000 0.830000 0.957600
0.500000 0.830000 0.957600
0.610000 0.830000 0.957600
0.720000 0.830000 0.957600
0.830000 0.830000 0.957600
0.940000 0.830000 0.957600
0.060000 0.940000 0.957600
0.170000 0.940000 0.957600
0.280000 0.940000 0.957600
0.390000 0.940000 0.957600
0.500000 0.940000 0.957600
0.610000 0.940000 0.957600
0.720000 0.940000 0.957600
0.830000 0.940000 0.957600
0.940000 0.940000 0.957600
