assets/luts/teal-and-orange.cube
TITLE "Teal and Orange"
LUT_3D_SIZE 5
DOMAIN_MIN 0.0 0.0 0.0
DOMAIN_MAX 1.0 1.0 1.0
0.000000 0.020000 0.160000
0.196378 0.017874 0.142992
0.452756 0.015748 0.125984
0.709134 0.013622 0.108976
0.965512 0.011496 0.091968
0.000000 0.262848 0.102784
0.217834 0.260722 0.085776
0.474212 0.258596 0.068768
0.730590 0.256470 0.051760
0.986968 0.254344 0.034752
0.000000 0.505696 0.045568
0.239290 0.503570 0.028560
0.495668 0.501444 0.011552
0.755456 0.501705 0.000000
1.000000 0.507020 0.000000
0.011648 0.753640 0.000000
0.278656 0.758955 0.000000
0.545664 0.764270 0.000000
0.812672 0.769585 0.000000
1.000000 0.774900 0.000000
0.068864 1.000000 0.000000
0.335872 1.000000 0.000000
0.602880 1.000000 0.000000
0.869888 1.000000 0.000000
1.000000 1.000000 0.000000
0.000000 0.019278 0.404224
0.198544 0.017152 0.387216
0.454922 0.015026 0.370208
0.711300 0.012900 0.353200
0.967678 0.010774 0.336192
0.000000 0.262126 0.347008
0.220000 0.260000 0.330000
0.476378 0.257874 0.312992
0.732756 0.255748 0.295984
0.989134 0.253622 0.278976
0.000000 0.504974 0.289792
0.241456 0.502848 0.272784
0.497834 0.500722 0.255776
0.761232 0.503510 0.241576
1.000000 0.508825 0.228820
0.017424 0.755445 0.236932
0.284432 0.760760 0.224176
0.551440 0.766075 0.211420
0.818448 0.771390 0.198664
1.000000 0.776705 0.185908
0.074640 1.000000 0.194020
0.341648 1.000000 0.181264
0.608656 1.000000 0.168508
0.875664 1.000000 0.155752
1.000000 1.000000 0.142996
0.000000 0.018556 0.648448
0.200710 0.016430 0.631440
0.457088 0.014304 0.614432
0.713466 0.012178 0.597424
0.969844 0.010052 0.580416
0.000000 0.261404 0.591232
0.222166 0.259278 0.574224
0.478544 0.257152 0.557216
0.734922 0.255026 0.540208
0.991300 0.252900 0.523200
0.000000 0.504252 0.534016
0.243622 0.502126 0.517008
0.500000 0.500000 0.500000
0.767008 0.505315 0.487244
1.000000 0.510630 0.474488
0.023200 0.757250 0.482600
0.290208 0.762565 0.469844
0.557216 0.767880 0.457088
0.824224 0.773195 0.444332
1.000000 0.778510 0.431576
0.080416 1.000000 0.439688
0.347424 1.000000 0.426932
0.614432 1.000000 0.414176
0.881440 1.000000 0.401420
1.000000 1.000000 0.388664
0.000000 0.017834 0.892672
0.202876 0.015708 0.875664
0.459254 0.013582 0.858656
0.715632 0.011456 0.841648
0.972010 0.009330 0.824640
0.000000 0.260682 0.835456
0.224332 0.258556 0.818448
0.480710 0.256430 0.801440
0.737088 0.254304 0.784432
0.993466 0.252178 0.767424
0.000000 0.503530 0.778240
0.245788 0.501404 0.761232
0.505776 0.501805 0.745668
0.772784 0.507120 0.732912
1.000000 0.512435 0.720156
0.028976 0.759055 0.728268
0.295984 0.764370 0.715512
0.562992 0.769685 0.702756
0.830000 0.775000 0.690000
1.000000 0.780315 0.677244
0.086192 1.000000 0.685356
0.353200 1.000000 0.672600
0.620208 1.000000 0.659844
0.887216 1.000000 0.647088
1.000000 1.000000 0.634332
0.000000 0.017112 1.000000
0.205042 0.014986 1.000000
0.461420 0.012860 1.000000
0.717798 0.010734 1.000000
0.974176 0.008608 1.000000
0.000000 0.259960 1.000000
0.226498 0.257834 1.000000
0.482876 0.255708 1.000000
0.739254 0.253582 1.000000
0.995632 0.251456 1.000000
0.000000 0.502808 1.000000
0.247954 0.500682 1.000000
0.511552 0.503610 0.991336
0.778560 0.508925 0.978580
1.000000 0.514240 0.965824
0.034752 0.760860 0.973936
0.301760 0.766175 0.961180
0.568768 0.771490 0.948424
0.835776 0.776805 0.935668
1.000000 0.782120 0.922912
0.091968 1.000000 0.931024
0.358976 1.000000 0.918268
0.625984 1.000000 0.905512
0.892992 1.000000 0.892756
1.000000 1.000000 0.880000
