assets/luts/teal-and-orange.cube
TITLE "Teal and Orange"
LUT_3D_SIZE 17
DOMAIN_MIN 0.0 0.0 0.0
DOMAIN_MAX 1.0 1.0 1.0
0.000000 0.020000 0.160000
0.004095 0.019468 0.155748
0.068189 0.018937 0.151496
0.132283 0.018405 0.147244
0.196378 0.017874 0.142992
0.260472 0.017343 0.138740
0.324567 0.016811 0.134488
0.388661 0.016279 0.130236
0.452756 0.015748 0.125984
0.516850 0.015216 0.121732
0.580945 0.014685 0.117480
0.645039 0.014154 0.113228
0.709134 0.013622 0.108976
0.773228 0.013091 0.104724
0.837323 0.012559 0.100472
0.901417 0.012027 0.096220
0.965512 0.011496 0.091968
0.000000 0.080712 0.145696
0.009459 0.080181 0.141444
0.073553 0.079649 0.137192
0.137648 0.079118 0.132940
0.201742 0.078586 0.128688
0.265837 0.078054 0.124436
0.329931 0.077523 0.120184
0.394026 0.076992 0.115932
0.458120 0.076460 0.111680
0.522215 0.075928 0.107428
0.586309 0.075397 0.103176
0.650404 0.074866 0.098924
0.714498 0.074334 0.094672
0.778593 0.073802 0.090420
0.842687 0.073271 0.086168
0.906782 0.072739 0.081916
0.970876 0.072208 0.077664
0.000000 0.141424 0.131392
0.014823 0.140893 0.127140
0.078917 0.140361 0.122888
0.143012 0.139829 0.118636
0.207106 0.139298 0.114384
0.271201 0.138766 0.110132
0.335295 0.138235 0.105880
0.399390 0.137704 0.101628
0.463484 0.137172 0.097376
0.527578 0.136640 0.093124
0.591673 0.136109 0.088872
0.655768 0.135577 0.084620
0.719862 0.135046 0.080368
0.783957 0.134515 0.076116
0.848051 0.133983 0.071864
0.912146 0.133452 0.067612
0.976240 0.132920 0.063360
0.000000 0.202136 0.117088
0.020187 0.201604 0.112836
0.084281 0.201073 0.108584
0.148375 0.200542 0.104332
0.212470 0.200010 0.100080
0.276564 0.199479 0.095828
0.340659 0.198947 0.091576
0.404753 0.198415 0.087324
0.468848 0.197884 0.083072
0.532942 0.197352 0.078820
0.597037 0.196821 0.074568
0.661131 0.196290 0.070316
0.725226 0.195758 0.066064
0.789320 0.195226 0.061812
0.853415 0.194695 0.057560
0.917509 0.194163 0.053308
0.981604 0.193632 0.049056
0.000000 0.262848 0.102784
0.025550 0.262317 0.098532
0.089645 0.261785 0.094280
0.153740 0.261254 0.090028
0.217834 0.260722 0.085776
0.281929 0.260190 0.081524
0.346023 0.259659 0.077272
0.410118 0.259128 0.073020
0.474212 0.258596 0.068768
0.538307 0.258064 0.064516
0.602401 0.257533 0.060264
0.666496 0.257001 0.056012
0.730590 0.256470 0.051760
0.794685 0.255939 0.047508
0.858779 0.255407 0.043256
0.922874 0.254875 0.039004
0.986968 0.254344 0.034752
0.000000 0.323560 0.088480
0.030914 0.323028 0.084228
0.095009 0.322497 0.079976
0.159104 0.321966 0.075724
0.223198 0.321434 0.071472
0.287293 0.320902 0.067220
0.351387 0.320371 0.062968
0.415482 0.319839 0.058716
0.479576 0.319308 0.054464
0.543670 0.318777 0.050212
0.607765 0.318245 0.045960
0.671860 0.317713 0.041708
0.735954 0.317182 0.037456
0.800049 0.316651 0.033204
0.864143 0.316119 0.028952
0.928238 0.315588 0.024700
0.992332 0.315056 0.020448
0.000000 0.384272 0.074176
0.036279 0.383740 0.069924
0.100373 0.383209 0.065672
0.164467 0.382678 0.061420
0.228562 0.382146 0.057168
0.292656 0.381615 0.052916
0.356751 0.381083 0.048664
0.420845 0.380551 0.044412
0.484940 0.380020 0.040160
0.549034 0.379489 0.035908
0.613129 0.378957 0.031656
0.677223 0.378426 0.027404
0.741318 0.377894 0.023152
0.805412 0.377362 0.018900
0.869507 0.376831 0.014648
0.933601 0.376300 0.010396
0.997696 0.375768 0.006144
0.000000 0.444984 0.059872
0.041642 0.444453 0.055620
0.105737 0.443921 0.051368
0.169831 0.443389 0.047116
0.233926 0.442858 0.042864
0.298021 0.442327 0.038612
0.362115 0.441795 0.034360
0.426210 0.441263 0.030108
0.490304 0.440732 0.025856
0.554399 0.440200 0.021604
0.618493 0.439669 0.017352
0.682588 0.439138 0.013100
0.746682 0.438606 0.008848
0.810777 0.438074 0.004596
0.874871 0.437543 0.000344
0.941408 0.438721 0.000000
1.000000 0.440050 0.000000
0.000000 0.505696 0.045568
0.047006 0.505165 0.041316
0.111101 0.504633 0.037064
0.175196 0.504101 0.032812
0.239290 0.503570 0.028560
0.303385 0.503039 0.024308
0.367479 0.502507 0.020056
0.431573 0.501976 0.015804
0.495668 0.501444 0.011552
0.559763 0.500912 0.007300
0.623857 0.500381 0.003048
0.688704 0.500376 0.000000
0.755456 0.501705 0.000000
0.822208 0.503034 0.000000
0.888960 0.504363 0.000000
0.955712 0.505691 0.000000
1.000000 0.507020 0.000000
0.000000 0.566408 0.031264
0.052371 0.565877 0.027012
0.116465 0.565345 0.022760
0.180560 0.564813 0.018508
0.244654 0.564282 0.014256
0.308748 0.563751 0.010004
0.372843 0.563219 0.005752
0.436937 0.562688 0.001500
0.502752 0.563360 0.000000
0.569504 0.564689 0.000000
0.636256 0.566017 0.000000
0.703008 0.567346 0.000000
0.769760 0.568675 0.000000
0.836512 0.570004 0.000000
0.903264 0.571333 0.000000
0.970016 0.572661 0.000000
1.000000 0.573990 0.000000
0.000000 0.627120 0.016960
0.057734 0.626588 0.012708
0.121829 0.626057 0.008456
0.185923 0.625525 0.004204
0.250048 0.625015 0.000000
0.316800 0.626344 0.000000
0.383552 0.627672 0.000000
0.450304 0.629001 0.000000
0.517056 0.630330 0.000000
0.583808 0.631659 0.000000
0.650560 0.632988 0.000000
0.717312 0.634316 0.000000
0.784064 0.635645 0.000000
0.850816 0.636974 0.000000
0.917568 0.638302 0.000000
0.984320 0.639631 0.000000
1.000000 0.640960 0.000000
0.000000 0.687832 0.002656
0.064096 0.687999 0.000000
0.130848 0.689327 0.000000
0.197600 0.690656 0.000000
0.264352 0.691985 0.000000
0.331104 0.693314 0.000000
0.397856 0.694643 0.000000
0.464608 0.695971 0.000000
0.531360 0.697300 0.000000
0.598112 0.698629 0.000000
0.664864 0.699958 0.000000
0.731616 0.701286 0.000000
0.798368 0.702615 0.000000
0.865120 0.703944 0.000000
0.931872 0.705272 0.000000
0.998624 0.706601 0.000000
1.000000 0.707930 0.000000
0.011648 0.753640 0.000000
0.078400 0.754969 0.000000
0.145152 0.756297 0.000000
0.211904 0.757626 0.000000
0.278656 0.758955 0.000000
0.345408 0.760284 0.000000
0.412160 0.761613 0.000000
0.478912 0.762941 0.000000
0.545664 0.764270 0.000000
0.612416 0.765599 0.000000
0.679168 0.766927 0.000000
0.745920 0.768256 0.000000
0.812672 0.769585 0.000000
0.879424 0.770914 0.000000
0.946176 0.772242 0.000000
1.000000 0.773571 0.000000
1.000000 0.774900 0.000000
0.025952 0.820610 0.000000
0.092704 0.821939 0.000000
0.159456 0.823268 0.000000
0.226208 0.824596 0.000000
0.292960 0.825925 0.000000
0.359712 0.827254 0.000000
0.426464 0.828582 0.000000
0.493216 0.829911 0.000000
0.559968 0.831240 0.000000
0.626720 0.832569 0.000000
0.693472 0.833897 0.000000
0.760224 0.835226 0.000000
0.826976 0.836555 0.000000
0.893728 0.837884 0.000000
0.960480 0.839213 0.000000
1.000000 0.840541 0.000000
1.000000 0.841870 0.000000
0.040256 0.887580 0.000000
0.107008 0.888909 0.000000
0.173760 0.890238 0.000000
0.240512 0.891566 0.000000
0.307264 0.892895 0.000000
0.374016 0.894224 0.000000
0.440768 0.895552 0.000000
0.507520 0.896881 0.000000
0.574272 0.898210 0.000000
0.641024 0.899539 0.000000
0.707776 0.900868 0.000000
0.774528 0.902196 0.000000
0.841280 0.903525 0.000000
0.908032 0.904854 0.000000
0.974784 0.906183 0.000000
1.000000 0.907511 0.000000
1.000000 0.908840 0.000000
0.054560 0.954550 0.000000
0.121312 0.955879 0.000000
0.188064 0.957207 0.000000
0.254816 0.958536 0.000000
0.321568 0.959865 0.000000
0.388320 0.961194 0.000000
0.455072 0.962522 0.000000
0.521824 0.963851 0.000000
0.588576 0.965180 0.000000
0.655328 0.966509 0.000000
0.722080 0.967838 0.000000
0.788832 0.969166 0.000000
0.855584 0.970495 0.000000
0.922336 0.971824 0.000000
0.989088 0.973152 0.000000
1.000000 0.974481 0.000000
1.000000 0.975810 0.000000
0.068864 1.000000 0.000000
0.135616 1.000000 0.000000
0.202368 1.000000 0.000000
0.269120 1.000000 0.000000
0.335872 1.000000 0.000000
0.402624 1.000000 0.000000
0.469376 1.000000 0.000000
0.536128 1.000000 0.000000
0.602880 1.000000 0.000000
0.669632 1.000000 0.000000
0.736384 1.000000 0.000000
0.803136 1.000000 0.000000
0.869888 1.000000 0.000000
0.936640 1.000000 0.000000
1.000000 1.000000 0.000000
1.000000 1.000000 0.000000
1.000000 1.000000 0.000000
0.000000 0.019820 0.221056
0.004636 0.019288 0.216804
0.068730 0.018757 0.212552
0.132825 0.018225 0.208300
0.196919 0.017694 0.204048
0.261014 0.017162 0.199796
0.325109 0.016630 0.195544
0.389203 0.016099 0.191292
0.453298 0.015568 0.187040
0.517392 0.015036 0.182788
0.581487 0.014505 0.178536
0.645581 0.013973 0.174284
0.709676 0.013442 0.170032
0.773770 0.012910 0.165780
0.837865 0.012378 0.161528
0.901959 0.011847 0.157276
0.966054 0.011315 0.153024
0.000000 0.080532 0.206752
0.010000 0.080000 0.202500
0.074095 0.079468 0.198248
0.138189 0.078937 0.193996
0.202284 0.078406 0.189744
0.266378 0.077874 0.185492
0.330473 0.077342 0.181240
0.394567 0.076811 0.176988
0.458661 0.076280 0.172736
0.522756 0.075748 0.168484
0.586851 0.075217 0.164232
0.650945 0.074685 0.159980
0.715040 0.074153 0.155728
0.779134 0.073622 0.151476
0.843229 0.073091 0.147224
0.907323 0.072559 0.142972
0.971418 0.072027 0.138720
0.000000 0.141243 0.192448
0.015364 0.140712 0.188196
0.079459 0.140181 0.183944
0.143553 0.139649 0.179692
0.207647 0.139118 0.175440
0.271742 0.138586 0.171188
0.335836 0.138054 0.166936
0.399931 0.137523 0.162684
0.464025 0.136991 0.158432
0.528120 0.136460 0.154180
0.592214 0.135929 0.149928
0.656309 0.135397 0.145676
0.720403 0.134865 0.141424
0.784498 0.134334 0.137172
0.848592 0.133802 0.132920
0.912687 0.133271 0.128668
0.976781 0.132740 0.124416
0.000000 0.201956 0.178144
0.020728 0.201424 0.173892
0.084823 0.200893 0.169640
0.148917 0.200361 0.165388
0.213011 0.199829 0.161136
0.277106 0.199298 0.156884
0.341201 0.198767 0.152632
0.405295 0.198235 0.148380
0.469390 0.197704 0.144128
0.533484 0.197172 0.139876
0.597579 0.196640 0.135624
0.661673 0.196109 0.131372
0.725768 0.195578 0.127120
0.789862 0.195046 0.122868
0.853957 0.194515 0.118616
0.918051 0.193983 0.114364
0.982146 0.193451 0.110112
0.000000 0.262667 0.163840
0.026092 0.262136 0.159588
0.090187 0.261605 0.155336
0.154281 0.261073 0.151084
0.218376 0.260541 0.146832
0.282470 0.260010 0.142580
0.346564 0.259479 0.138328
0.410659 0.258947 0.134076
0.474753 0.258416 0.129824
0.538848 0.257884 0.125572
0.602943 0.257352 0.121320
0.667037 0.256821 0.117068
0.731132 0.256290 0.112816
0.795226 0.255758 0.108564
0.859321 0.255227 0.104312
0.923415 0.254695 0.100060
0.987510 0.254163 0.095808
0.000000 0.323379 0.149536
0.031456 0.322848 0.145284
0.095550 0.322317 0.141032
0.159645 0.321785 0.136780
0.223739 0.321254 0.132528
0.287834 0.320722 0.128276
0.351928 0.320190 0.124024
0.416023 0.319659 0.119772
0.480117 0.319128 0.115520
0.544212 0.318596 0.111268
0.608306 0.318065 0.107016
0.672401 0.317533 0.102764
0.736495 0.317001 0.098512
0.800590 0.316470 0.094260
0.864684 0.315939 0.090008
0.928779 0.315407 0.085756
0.992873 0.314875 0.081504
0.000000 0.384091 0.135232
0.036820 0.383560 0.130980
0.100914 0.383028 0.126728
0.165009 0.382497 0.122476
0.229104 0.381966 0.118224
0.293198 0.381434 0.113972
0.357293 0.380902 0.109720
0.421387 0.380371 0.105468
0.485482 0.379839 0.101216
0.549576 0.379308 0.096964
0.613671 0.378777 0.092712
0.677765 0.378245 0.088460
0.741860 0.377713 0.084208
0.805954 0.377182 0.079956
0.870049 0.376650 0.075704
0.934143 0.376119 0.071452
0.998237 0.375588 0.067200
0.000000 0.444804 0.120928
0.042184 0.444272 0.116676
0.106278 0.443740 0.112424
0.170373 0.443209 0.108172
0.234467 0.442678 0.103920
0.298562 0.442146 0.099668
0.362656 0.441615 0.095416
0.426751 0.441083 0.091164
0.490845 0.440551 0.086912
0.554940 0.440020 0.082660
0.619035 0.439489 0.078408
0.683129 0.438957 0.074156
0.747224 0.438426 0.069904
0.811318 0.437894 0.065652
0.876100 0.437844 0.061675
0.942852 0.439173 0.058486
1.000000 0.440501 0.055297
0.000000 0.505516 0.106624
0.047548 0.504984 0.102372
0.111642 0.504452 0.098120
0.175737 0.503921 0.093868
0.239832 0.503390 0.089616
0.303926 0.502858 0.085364
0.368020 0.502327 0.081112
0.432115 0.501795 0.076860
0.496209 0.501263 0.072608
0.560304 0.500732 0.068356
0.624398 0.500201 0.064104
0.690148 0.500827 0.060514
0.756900 0.502156 0.057325
0.823652 0.503485 0.054136
0.890404 0.504814 0.050947
0.957156 0.506142 0.047758
1.000000 0.507471 0.044569
0.000000 0.566227 0.092320
0.052912 0.565696 0.088068
0.117006 0.565164 0.083816
0.181101 0.564633 0.079564
0.245196 0.564102 0.075312
0.309290 0.563570 0.071060
0.373385 0.563038 0.066808
0.437479 0.562507 0.062556
0.504196 0.563811 0.059353
0.570948 0.565140 0.056164
0.637700 0.566469 0.052975
0.704452 0.567797 0.049786
0.771204 0.569126 0.046597
0.837956 0.570455 0.043408
0.904708 0.571784 0.040219
0.971460 0.573113 0.037030
1.000000 0.574441 0.033841
0.000000 0.626939 0.078016
0.058276 0.626408 0.073764
0.122370 0.625876 0.069512
0.186465 0.625345 0.065260
0.251492 0.625466 0.061381
0.318244 0.626795 0.058192
0.384996 0.628124 0.055003
0.451748 0.629452 0.051814
0.518500 0.630781 0.048625
0.585252 0.632110 0.045436
0.652004 0.633439 0.042247
0.718756 0.634768 0.039058
0.785508 0.636096 0.035869
0.852260 0.637425 0.032680
0.919012 0.638754 0.029491
0.985764 0.640082 0.026302
1.000000 0.641411 0.023113
0.000000 0.687651 0.063712
0.065540 0.688450 0.060220
0.132292 0.689779 0.057031
0.199044 0.691107 0.053842
0.265796 0.692436 0.050653
0.332548 0.693765 0.047464
0.399300 0.695094 0.044275
0.466052 0.696422 0.041086
0.532804 0.697751 0.037897
0.599556 0.699080 0.034708
0.666308 0.700409 0.031519
0.733060 0.701738 0.028330
0.799812 0.703066 0.025141
0.866564 0.704395 0.021952
0.933316 0.705724 0.018763
1.000000 0.707052 0.015574
1.000000 0.708381 0.012385
0.013092 0.754091 0.052681
0.079844 0.755420 0.049492
0.146596 0.756749 0.046303
0.213348 0.758077 0.043114
0.280100 0.759406 0.039925
0.346852 0.760735 0.036736
0.413604 0.762064 0.033547
0.480356 0.763393 0.030358
0.547108 0.764721 0.027169
0.613860 0.766050 0.023980
0.680612 0.767379 0.020791
0.747364 0.768707 0.017602
0.814116 0.770036 0.014413
0.880868 0.771365 0.011224
0.947620 0.772694 0.008035
1.000000 0.774023 0.004846
1.000000 0.775351 0.001657
0.027396 0.821061 0.041953
0.094148 0.822390 0.038764
0.160900 0.823719 0.035575
0.227652 0.825048 0.032386
0.294404 0.826376 0.029197
0.361156 0.827705 0.026008
0.427908 0.829034 0.022819
0.494660 0.830363 0.019630
0.561412 0.831691 0.016441
0.628164 0.833020 0.013252
0.694916 0.834349 0.010063
0.761668 0.835677 0.006874
0.828420 0.837006 0.003685
0.895172 0.838335 0.000496
0.961924 0.839664 0.000000
1.000000 0.840993 0.000000
1.000000 0.842321 0.000000
0.041700 0.888031 0.031225
0.108452 0.889360 0.028036
0.175204 0.890689 0.024847
0.241956 0.892018 0.021658
0.308708 0.893346 0.018469
0.375460 0.894675 0.015280
0.442212 0.896004 0.012091
0.508964 0.897332 0.008902
0.575716 0.898661 0.005713
0.642468 0.899990 0.002524
0.709220 0.901319 0.000000
0.775972 0.902648 0.000000
0.842724 0.903976 0.000000
0.909476 0.905305 0.000000
0.976228 0.906634 0.000000
1.000000 0.907963 0.000000
1.000000 0.909291 0.000000
0.056004 0.955001 0.020497
0.122756 0.956330 0.017308
0.189508 0.957659 0.014119
0.256260 0.958987 0.010930
0.323012 0.960316 0.007741
0.389764 0.961645 0.004552
0.456516 0.962974 0.001363
0.523268 0.964303 0.000000
0.590020 0.965631 0.000000
0.656772 0.966960 0.000000
0.723524 0.968289 0.000000
0.790276 0.969618 0.000000
0.857028 0.970946 0.000000
0.923780 0.972275 0.000000
0.990532 0.973604 0.000000
1.000000 0.974932 0.000000
1.000000 0.976261 0.000000
0.070308 1.000000 0.009769
0.137060 1.000000 0.006580
0.203812 1.000000 0.003391
0.270564 1.000000 0.000202
0.337316 1.000000 0.000000
0.404068 1.000000 0.000000
0.470820 1.000000 0.000000
0.537572 1.000000 0.000000
0.604324 1.000000 0.000000
0.671076 1.000000 0.000000
0.737828 1.000000 0.000000
0.804580 1.000000 0.000000
0.871332 1.000000 0.000000
0.938084 1.000000 0.000000
1.000000 1.000000 0.000000
1.000000 1.000000 0.000000
1.000000 1.000000 0.000000
0.000000 0.019639 0.282112
0.005178 0.019107 0.277860
0.069272 0.018576 0.273608
0.133366 0.018045 0.269356
0.197461 0.017513 0.265104
0.261555 0.016982 0.260852
0.325650 0.016450 0.256600
0.389744 0.015918 0.252348
0.453839 0.015387 0.248096
0.517934 0.014855 0.243844
0.582028 0.014324 0.239592
0.646123 0.013792 0.235340
0.710217 0.013261 0.231088
0.774312 0.012729 0.226836
0.838406 0.012198 0.222584
0.902501 0.011666 0.218332
0.966595 0.011135 0.214080
0.000000 0.080351 0.267808
0.010542 0.079820 0.263556
0.074636 0.079288 0.259304
0.138731 0.078757 0.255052
0.202825 0.078225 0.250800
0.266919 0.077693 0.246548
0.331014 0.077162 0.242296
0.395108 0.076631 0.238044
0.459203 0.076099 0.233792
0.523297 0.075567 0.229540
0.587392 0.075036 0.225288
0.651486 0.074505 0.221036
0.715581 0.073973 0.216784
0.779675 0.073441 0.212532
0.843770 0.072910 0.208280
0.907864 0.072378 0.204028
0.971959 0.071847 0.199776
0.000000 0.141063 0.253504
0.015906 0.140532 0.249252
0.080000 0.140000 0.245000
0.144095 0.139468 0.240748
0.208189 0.138937 0.236496
0.272284 0.138405 0.232244
0.336378 0.137874 0.227992
0.400473 0.137343 0.223740
0.464567 0.136811 0.219488
0.528662 0.136279 0.215236
0.592756 0.135748 0.210984
0.656851 0.135216 0.206732
0.720945 0.134685 0.202480
0.785040 0.134154 0.198228
0.849134 0.133622 0.193976
0.913228 0.133091 0.189724
0.977323 0.132559 0.185472
0.000000 0.201775 0.239200
0.021270 0.201243 0.234948
0.085364 0.200712 0.230696
0.149458 0.200181 0.226444
0.213553 0.199649 0.222192
0.277647 0.199118 0.217940
0.341742 0.198586 0.213688
0.405836 0.198054 0.209436
0.469931 0.197523 0.205184
0.534026 0.196991 0.200932
0.598120 0.196460 0.196680
0.662215 0.195929 0.192428
0.726309 0.195397 0.188176
0.790404 0.194865 0.183924
0.854498 0.194334 0.179672
0.918593 0.193802 0.175420
0.982687 0.193271 0.171168
0.000000 0.262487 0.224896
0.026634 0.261956 0.220644
0.090728 0.261424 0.216392
0.154823 0.260893 0.212140
0.218917 0.260361 0.207888
0.283012 0.259829 0.203636
0.347106 0.259298 0.199384
0.411201 0.258767 0.195132
0.475295 0.258235 0.190880
0.539389 0.257703 0.186628
0.603484 0.257172 0.182376
0.667578 0.256640 0.178124
0.731673 0.256109 0.173872
0.795767 0.255578 0.169620
0.859862 0.255046 0.165368
0.923956 0.254514 0.161116
0.988051 0.253983 0.156864
0.000000 0.323199 0.210592
0.031997 0.322667 0.206340
0.096092 0.322136 0.202088
0.160187 0.321605 0.197836
0.224281 0.321073 0.193584
0.288376 0.320541 0.189332
0.352470 0.320010 0.185080
0.416565 0.319478 0.180828
0.480659 0.318947 0.176576
0.544754 0.318416 0.172324
0.608848 0.317884 0.168072
0.672942 0.317352 0.163820
0.737037 0.316821 0.159568
0.801131 0.316290 0.155316
0.865226 0.315758 0.151064
0.929320 0.315227 0.146812
0.993415 0.314695 0.142560
0.000000 0.383911 0.196288
0.037362 0.383379 0.192036
0.101456 0.382848 0.187784
0.165550 0.382317 0.183532
0.229645 0.381785 0.179280
0.293739 0.381254 0.175028
0.357834 0.380722 0.170776
0.421928 0.380190 0.166524
0.486023 0.379659 0.162272
0.550118 0.379128 0.158020
0.614212 0.378596 0.153768
0.678307 0.378065 0.149516
0.742401 0.377533 0.145264
0.806496 0.377001 0.141012
0.870590 0.376470 0.136760
0.934685 0.375939 0.132508
0.998779 0.375407 0.128256
0.000000 0.444623 0.181984
0.042725 0.444092 0.177732
0.106820 0.443560 0.173480
0.170914 0.443028 0.169228
0.235009 0.442497 0.164976
0.299104 0.441966 0.160724
0.363198 0.441434 0.156472
0.427293 0.440902 0.152220
0.491387 0.440371 0.147968
0.555481 0.439839 0.143716
0.619576 0.439308 0.139464
0.683670 0.438777 0.135212
0.747765 0.438245 0.130960
0.811859 0.437713 0.126708
0.877544 0.438295 0.123092
0.944296 0.439624 0.119903
1.000000 0.440952 0.116714
0.000000 0.505335 0.167680
0.048090 0.504803 0.163428
0.112184 0.504272 0.159176
0.176279 0.503741 0.154924
0.240373 0.503209 0.150672
0.304468 0.502677 0.146420
0.368562 0.502146 0.142168
0.432656 0.501614 0.137916
0.496751 0.501083 0.133664
0.560845 0.500552 0.129412
0.624940 0.500020 0.125160
0.691592 0.501279 0.121931
0.758344 0.502607 0.118742
0.825096 0.503936 0.115553
0.891848 0.505265 0.112364
0.958600 0.506594 0.109175
1.000000 0.507923 0.105986
0.000000 0.566047 0.153376
0.053454 0.565515 0.149124
0.117548 0.564984 0.144872
0.181643 0.564453 0.140620
0.245737 0.563921 0.136368
0.309831 0.563389 0.132116
0.373926 0.562858 0.127864
0.438888 0.562934 0.123959
0.505640 0.564263 0.120770
0.572392 0.565591 0.117581
0.639144 0.566920 0.114392
0.705896 0.568249 0.111203
0.772648 0.569577 0.108014
0.839400 0.570906 0.104825
0.906152 0.572235 0.101636
0.972904 0.573564 0.098447
1.000000 0.574893 0.095258
0.000000 0.626759 0.139072
0.058817 0.626228 0.134820
0.122912 0.625696 0.130568
0.187006 0.625165 0.126316
0.252936 0.625918 0.122798
0.319688 0.627246 0.119609
0.386440 0.628575 0.116420
0.453192 0.629904 0.113231
0.519944 0.631232 0.110042
0.586696 0.632561 0.106853
0.653448 0.633890 0.103664
0.720200 0.635219 0.100475
0.786952 0.636548 0.097286
0.853704 0.637876 0.094097
0.920456 0.639205 0.090908
0.987208 0.640534 0.087719
1.000000 0.641863 0.084530
0.000232 0.687573 0.124826
0.066984 0.688901 0.121637
0.133736 0.690230 0.118448
0.200488 0.691559 0.115259
0.267240 0.692887 0.112070
0.333992 0.694216 0.108881
0.400744 0.695545 0.105692
0.467496 0.696874 0.102503
0.534248 0.698202 0.099314
0.601000 0.699531 0.096125
0.667752 0.700860 0.092936
0.734504 0.702189 0.089747
0.801256 0.703518 0.086558
0.868008 0.704846 0.083369
0.934760 0.706175 0.080180
1.000000 0.707504 0.076991
1.000000 0.708832 0.073802
0.014536 0.754543 0.114098
0.081288 0.755871 0.110909
0.148040 0.757200 0.107720
0.214792 0.758529 0.104531
0.281544 0.759857 0.101342
0.348296 0.761186 0.098153
0.415048 0.762515 0.094964
0.481800 0.763844 0.091775
0.548552 0.765173 0.088586
0.615304 0.766501 0.085397
0.682056 0.767830 0.082208
0.748808 0.769159 0.079019
0.815560 0.770487 0.075830
0.882312 0.771816 0.072641
0.949064 0.773145 0.069452
1.000000 0.774474 0.066263
1.000000 0.775802 0.063074
0.028840 0.821512 0.103370
0.095592 0.822841 0.100181
0.162344 0.824170 0.096992
0.229096 0.825499 0.093803
0.295848 0.826828 0.090614
0.362600 0.828156 0.087425
0.429352 0.829485 0.084236
0.496104 0.830814 0.081047
0.562856 0.832143 0.077858
0.629608 0.833471 0.074669
0.696360 0.834800 0.071480
0.763112 0.836129 0.068291
0.829864 0.837457 0.065102
0.896616 0.838786 0.061913
0.963368 0.840115 0.058724
1.000000 0.841444 0.055535
1.000000 0.842773 0.052346
0.043144 0.888482 0.092642
0.109896 0.889811 0.089453
0.176648 0.891140 0.086264
0.243400 0.892469 0.083075
0.310152 0.893798 0.079886
0.376904 0.895126 0.076697
0.443656 0.896455 0.073508
0.510408 0.897784 0.070319
0.577160 0.899112 0.067130
0.643912 0.900441 0.063941
0.710664 0.901770 0.060752
0.777416 0.903099 0.057563
0.844168 0.904427 0.054374
0.910920 0.905756 0.051185
0.977672 0.907085 0.047996
1.000000 0.908414 0.044807
1.000000 0.909743 0.041618
0.057448 0.955453 0.081914
0.124200 0.956781 0.078725
0.190952 0.958110 0.075536
0.257704 0.959439 0.072347
0.324456 0.960767 0.069158
0.391208 0.962096 0.065969
0.457960 0.963425 0.062780
0.524712 0.964754 0.059591
0.591464 0.966082 0.056402
0.658216 0.967411 0.053213
0.724968 0.968740 0.050024
0.791720 0.970069 0.046835
0.858472 0.971398 0.043646
0.925224 0.972726 0.040457
0.991976 0.974055 0.037268
1.000000 0.975384 0.034079
1.000000 0.976712 0.030890
0.071752 1.000000 0.071186
0.138504 1.000000 0.067997
0.205256 1.000000 0.064808
0.272008 1.000000 0.061619
0.338760 1.000000 0.058430
0.405512 1.000000 0.055241
0.472264 1.000000 0.052052
0.539016 1.000000 0.048863
0.605768 1.000000 0.045674
0.672520 1.000000 0.042485
0.739272 1.000000 0.039296
0.806024 1.000000 0.036107
0.872776 1.000000 0.032918
0.939528 1.000000 0.029729
1.000000 1.000000 0.026540
1.000000 1.000000 0.023351
1.000000 1.000000 0.020162
0.000000 0.019459 0.343168
0.005719 0.018927 0.338916
0.069814 0.018396 0.334664
0.133908 0.017864 0.330412
0.198002 0.017333 0.326160
0.262097 0.016801 0.321908
0.326192 0.016269 0.317656
0.390286 0.015738 0.313404
0.454381 0.015206 0.309152
0.518475 0.014675 0.304900
0.582569 0.014143 0.300648
0.646664 0.013612 0.296396
0.710758 0.013081 0.292144
0.774853 0.012549 0.287892
0.838947 0.012018 0.283640
0.903042 0.011486 0.279388
0.967136 0.010955 0.275136
0.000000 0.080171 0.328864
