assets/luts/teal-and-orange.cube
TITLE "Teal and Orange"
LUT_3D_SIZE 9
DOMAIN_MIN 0.0 0.0 0.0
DOMAIN_MAX 1.0 1.0 1.0
0.000000 0.020000 0.160000
0.068189 0.018937 0.151496
0.196378 0.017874 0.142992
0.324567 0.016811 0.134488
0.452756 0.015748 0.125984
0.580945 0.014685 0.117480
0.709134 0.013622 0.108976
0.837323 0.012559 0.100472
0.965512 0.011496 0.091968
0.000000 0.141424 0.131392
0.078917 0.140361 0.122888
0.207106 0.139298 0.114384
0.335295 0.138235 0.105880
0.463484 0.137172 0.097376
0.591673 0.136109 0.088872
0.719862 0.135046 0.080368
0.848051 0.133983 0.071864
0.976240 0.132920 0.063360
0.000000 0.262848 0.102784
0.089645 0.261785 0.094280
0.217834 0.260722 0.085776
0.346023 0.259659 0.077272
0.474212 0.258596 0.068768
0.602401 0.257533 0.060264
0.730590 0.256470 0.051760
0.858779 0.255407 0.043256
0.986968 0.254344 0.034752
0.000000 0.384272 0.074176
0.100373 0.383209 0.065672
0.228562 0.382146 0.057168
0.356751 0.381083 0.048664
0.484940 0.380020 0.040160
0.613129 0.378957 0.031656
0.741318 0.377894 0.023152
0.869507 0.376831 0.014648
0.997696 0.375768 0.006144
0.000000 0.505696 0.045568
0.111101 0.504633 0.037064
0.239290 0.503570 0.028560
0.367479 0.502507 0.020056
0.495668 0.501444 0.011552
0.623857 0.500381 0.003048
0.755456 0.501705 0.000000
0.888960 0.504363 0.000000
1.000000 0.507020 0.000000
0.000000 0.627120 0.016960
0.121829 0.626057 0.008456
0.250048 0.625015 0.000000
0.383552 0.627672 0.000000
0.517056 0.630330 0.000000
0.650560 0.632988 0.000000
0.784064 0.635645 0.000000
0.917568 0.638302 0.000000
1.000000 0.640960 0.000000
0.011648 0.753640 0.000000
0.145152 0.756297 0.000000
0.278656 0.758955 0.000000
0.412160 0.761613 0.000000
0.545664 0.764270 0.000000
0.679168 0.766927 0.000000
0.812672 0.769585 0.000000
0.946176 0.772242 0.000000
1.000000 0.774900 0.000000
0.040256 0.887580 0.000000
0.173760 0.890238 0.000000
0.307264 0.892895 0.000000
0.440768 0.895552 0.000000
0.574272 0.898210 0.000000
0.707776 0.900868 0.000000
0.841280 0.903525 0.000000
0.974784 0.906183 0.000000
1.000000 0.908840 0.000000
0.068864 1.000000 0.000000
0.202368 1.000000 0.000000
0.335872 1.000000 0.000000
0.469376 1.000000 0.000000
0.602880 1.000000 0.000000
0.736384 1.000000 0.000000
0.869888 1.000000 0.000000
1.000000 1.000000 0.000000
1.000000 1.000000 0.000000
0.000000 0.019639 0.282112
0.069272 0.018576 0.273608
0.197461 0.017513 0.265104
0.325650 0.016450 0.256600
0.453839 0.015387 0.248096
0.582028 0.014324 0.239592
0.710217 0.013261 0.231088
0.838406 0.012198 0.222584
0.966595 0.011135 0.214080
0.000000 0.141063 0.253504
0.080000 0.140000 0.245000
0.208189 0.138937 0.236496
0.336378 0.137874 0.227992
0.464567 0.136811 0.219488
0.592756 0.135748 0.210984
0.720945 0.134685 0.202480
0.849134 0.133622 0.193976
0.977323 0.132559 0.185472
0.000000 0.262487 0.224896
0.090728 0.261424 0.216392
0.218917 0.260361 0.207888
0.347106 0.259298 0.199384
0.475295 0.258235 0.190880
0.603484 0.257172 0.182376
0.731673 0.256109 0.173872
0.859862 0.255046 0.165368
0.988051 0.253983 0.156864
0.000000 0.383911 0.196288
0.101456 0.382848 0.187784
0.229645 0.381785 0.179280
0.357834 0.380722 0.170776
0.486023 0.379659 0.162272
0.614212 0.378596 0.153768
0.742401 0.377533 0.145264
0.870590 0.376470 0.136760
0.998779 0.375407 0.128256
0.000000 0.505335 0.167680
0.112184 0.504272 0.159176
0.240373 0.503209 0.150672
0.368562 0.502146 0.142168
0.496751 0.501083 0.133664
0.624940 0.500020 0.125160
0.758344 0.502607 0.118742
0.891848 0.505265 0.112364
1.000000 0.507923 0.105986
0.000000 0.626759 0.139072
0.122912 0.625696 0.130568
0.252936 0.625918 0.122798
0.386440 0.628575 0.116420
0.519944 0.631232 0.110042
0.653448 0.633890 0.103664
0.786952 0.636548 0.097286
0.920456 0.639205 0.090908
1.000000 0.641863 0.084530
0.014536 0.754543 0.114098
0.148040 0.757200 0.107720
0.281544 0.759857 0.101342
0.415048 0.762515 0.094964
0.548552 0.765173 0.088586
0.682056 0.767830 0.082208
0.815560 0.770487 0.075830
0.949064 0.773145 0.069452
1.000000 0.775802 0.063074
0.043144 0.888482 0.092642
0.176648 0.891140 0.086264
0.310152 0.893798 0.079886
0.443656 0.896455 0.073508
0.577160 0.899112 0.067130
0.710664 0.901770 0.060752
0.844168 0.904427 0.054374
0.977672 0.907085 0.047996
1.000000 0.909743 0.041618
0.071752 1.000000 0.071186
0.205256 1.000000 0.064808
0.338760 1.000000 0.058430
0.472264 1.000000 0.052052
0.605768 1.000000 0.045674
0.739272 1.000000 0.039296
0.872776 1.000000 0.032918
1.000000 1.000000 0.026540
1.000000 1.000000 0.020162
0.000000 0.019278 0.404224
0.070355 0.018215 0.395720
0.198544 0.017152 0.387216
0.326733 0.016089 0.378712
0.454922 0.015026 0.370208
0.583111 0.013963 0.361704
0.711300 0.012900 0.353200
0.839489 0.011837 0.344696
0.967678 0.010774 0.336192
0.000000 0.140702 0.375616
0.081083 0.139639 0.367112
0.209272 0.138576 0.358608
0.337461 0.137513 0.350104
0.465650 0.136450 0.341600
0.593839 0.135387 0.333096
0.722028 0.134324 0.324592
0.850217 0.133261 0.316088
0.978406 0.132198 0.307584
0.000000 0.262126 0.347008
0.091811 0.261063 0.338504
0.220000 0.260000 0.330000
0.348189 0.258937 0.321496
0.476378 0.257874 0.312992
0.604567 0.256811 0.304488
0.732756 0.255748 0.295984
0.860945 0.254685 0.287480
0.989134 0.253622 0.278976
0.000000 0.383550 0.318400
0.102539 0.382487 0.309896
0.230728 0.381424 0.301392
0.358917 0.380361 0.292888
0.487106 0.379298 0.284384
0.615295 0.378235 0.275880
0.743484 0.377172 0.267376
0.871673 0.376109 0.258872
0.999862 0.375046 0.250368
0.000000 0.504974 0.289792
0.113267 0.503911 0.281288
0.241456 0.502848 0.272784
0.369645 0.501785 0.264280
0.497834 0.500722 0.255776
0.627728 0.500853 0.247954
0.761232 0.503510 0.241576
0.894736 0.506167 0.235198
1.000000 0.508825 0.228820
0.000000 0.626398 0.261184
0.123995 0.625335 0.252680
0.255824 0.626820 0.245632
0.389328 0.629478 0.239254
0.522832 0.632135 0.232876
0.656336 0.634792 0.226498
0.789840 0.637450 0.220120
0.923344 0.640108 0.213742
1.000000 0.642765 0.207364
0.017424 0.755445 0.236932
0.150928 0.758103 0.230554
0.284432 0.760760 0.224176
0.417936 0.763417 0.217798
0.551440 0.766075 0.211420
0.684944 0.768733 0.205042
0.818448 0.771390 0.198664
0.951952 0.774047 0.192286
1.000000 0.776705 0.185908
0.046032 0.889385 0.215476
0.179536 0.892042 0.209098
0.313040 0.894700 0.202720
0.446544 0.897358 0.196342
0.580048 0.900015 0.189964
0.713552 0.902672 0.183586
0.847056 0.905330 0.177208
0.980560 0.907987 0.170830
1.000000 0.910645 0.164452
0.074640 1.000000 0.194020
0.208144 1.000000 0.187642
0.341648 1.000000 0.181264
0.475152 1.000000 0.174886
0.608656 1.000000 0.168508
0.742160 1.000000 0.162130
0.875664 1.000000 0.155752
1.000000 1.000000 0.149374
1.000000 1.000000 0.142996
0.000000 0.018917 0.526336
0.071438 0.017854 0.517832
0.199627 0.016791 0.509328
0.327816 0.015728 0.500824
0.456005 0.014665 0.492320
0.584194 0.013602 0.483816
0.712383 0.012539 0.475312
0.840572 0.011476 0.466808
0.968761 0.010413 0.458304
0.000000 0.140341 0.497728
0.082166 0.139278 0.489224
0.210355 0.138215 0.480720
0.338544 0.137152 0.472216
0.466733 0.136089 0.463712
0.594922 0.135026 0.455208
0.723111 0.133963 0.446704
0.851300 0.132900 0.438200
0.979489 0.131837 0.429696
0.000000 0.261765 0.469120
0.092894 0.260702 0.460616
0.221083 0.259639 0.452112
0.349272 0.258576 0.443608
0.477461 0.257513 0.435104
0.605650 0.256450 0.426600
0.733839 0.255387 0.418096
0.862028 0.254324 0.409592
0.990217 0.253261 0.401088
0.000000 0.383189 0.440512
0.103622 0.382126 0.432008
0.231811 0.381063 0.423504
0.360000 0.380000 0.415000
0.488189 0.378937 0.406496
0.616378 0.377874 0.397992
0.744567 0.376811 0.389488
0.872756 0.375748 0.380984
1.000000 0.375787 0.373110
0.000000 0.504613 0.411904
0.114350 0.503550 0.403400
0.242539 0.502487 0.394896
0.370728 0.501424 0.386392
0.498917 0.500361 0.377888
0.630616 0.501755 0.370788
0.764120 0.504413 0.364410
0.897624 0.507070 0.358032
1.000000 0.509728 0.351654
0.000000 0.626037 0.383296
0.125208 0.625065 0.374844
0.258712 0.627722 0.368466
0.392216 0.630380 0.362088
0.525720 0.633038 0.355710
0.659224 0.635695 0.349332
0.792728 0.638352 0.342954
0.926232 0.641010 0.336576
1.000000 0.643667 0.330198
0.020312 0.756347 0.359766
0.153816 0.759005 0.353388
0.287320 0.761663 0.347010
0.420824 0.764320 0.340632
0.554328 0.766977 0.334254
0.687832 0.769635 0.327876
0.821336 0.772293 0.321498
0.954840 0.774950 0.315120
1.000000 0.777608 0.308742
0.048920 0.890288 0.338310
0.182424 0.892945 0.331932
0.315928 0.895602 0.325554
0.449432 0.898260 0.319176
0.582936 0.900918 0.312798
0.716440 0.903575 0.306420
0.849944 0.906232 0.300042
0.983448 0.908890 0.293664
1.000000 0.911547 0.287286
0.077528 1.000000 0.316854
0.211032 1.000000 0.310476
0.344536 1.000000 0.304098
0.478040 1.000000 0.297720
0.611544 1.000000 0.291342
0.745048 1.000000 0.284964
0.878552 1.000000 0.278586
1.000000 1.000000 0.272208
1.000000 1.000000 0.265830
0.000000 0.018556 0.648448
0.072521 0.017493 0.639944
0.200710 0.016430 0.631440
0.328899 0.015367 0.622936
0.457088 0.014304 0.614432
0.585277 0.013241 0.605928
0.713466 0.012178 0.597424
0.841655 0.011115 0.588920
0.969844 0.010052 0.580416
0.000000 0.139980 0.619840
0.083249 0.138917 0.611336
0.211438 0.137854 0.602832
0.339627 0.136791 0.594328
0.467816 0.135728 0.585824
0.596005 0.134665 0.577320
0.724194 0.133602 0.568816
0.852383 0.132539 0.560312
0.980572 0.131476 0.551808
0.000000 0.261404 0.591232
0.093977 0.260341 0.582728
0.222166 0.259278 0.574224
0.350355 0.258215 0.565720
0.478544 0.257152 0.557216
0.606733 0.256089 0.548712
0.734922 0.255026 0.540208
0.863111 0.253963 0.531704
0.991300 0.252900 0.523200
0.000000 0.382828 0.562624
0.104705 0.381765 0.554120
0.232894 0.380702 0.545616
0.361083 0.379639 0.537112
0.489272 0.378576 0.528608
0.617461 0.377513 0.520104
0.745650 0.376450 0.511600
0.873839 0.375387 0.503096
1.000000 0.376690 0.495944
0.000000 0.504252 0.534016
0.115433 0.503189 0.525512
0.243622 0.502126 0.517008
0.371811 0.501063 0.508504
0.500000 0.500000 0.500000
0.633504 0.502657 0.493622
0.767008 0.505315 0.487244
0.900512 0.507973 0.480866
1.000000 0.510630 0.474488
0.000000 0.625676 0.505408
0.128096 0.625968 0.497678
0.261600 0.628625 0.491300
0.395104 0.631282 0.484922
0.528608 0.633940 0.478544
0.662112 0.636598 0.472166
0.795616 0.639255 0.465788
0.929120 0.641912 0.459410
1.000000 0.644570 0.453032
0.023200 0.757250 0.482600
0.156704 0.759907 0.476222
0.290208 0.762565 0.469844
0.423712 0.765223 0.463466
0.557216 0.767880 0.457088
0.690720 0.770537 0.450710
0.824224 0.773195 0.444332
0.957728 0.775853 0.437954
1.000000 0.778510 0.431576
0.051808 0.891190 0.461144
0.185312 0.893848 0.454766
0.318816 0.896505 0.448388
0.452320 0.899162 0.442010
0.585824 0.901820 0.435632
0.719328 0.904478 0.429254
0.852832 0.907135 0.422876
0.986336 0.909793 0.416498
1.000000 0.912450 0.410120
0.080416 1.000000 0.439688
0.213920 1.000000 0.433310
0.347424 1.000000 0.426932
0.480928 1.000000 0.420554
0.614432 1.000000 0.414176
0.747936 1.000000 0.407798
0.881440 1.000000 0.401420
1.000000 1.000000 0.395042
1.000000 1.000000 0.388664
0.000000 0.018195 0.770560
0.073604 0.017132 0.762056
0.201793 0.016069 0.753552
0.329982 0.015006 0.745048
0.458171 0.013943 0.736544
0.586360 0.012880 0.728040
0.714549 0.011817 0.719536
0.842738 0.010754 0.711032
0.970927 0.009691 0.702528
0.000000 0.139619 0.741952
0.084332 0.138556 0.733448
0.212521 0.137493 0.724944
0.340710 0.136430 0.716440
0.468899 0.135367 0.707936
0.597088 0.134304 0.699432
0.725277 0.133241 0.690928
0.853466 0.132178 0.682424
0.981655 0.131115 0.673920
0.000000 0.261043 0.713344
0.095060 0.259980 0.704840
0.223249 0.258917 0.696336
0.351438 0.257854 0.687832
0.479627 0.256791 0.679328
0.607816 0.255728 0.670824
0.736005 0.254665 0.662320
0.864194 0.253602 0.653816
0.992383 0.252539 0.645312
0.000000 0.382467 0.684736
0.105788 0.381404 0.676232
0.233977 0.380341 0.667728
0.362166 0.379278 0.659224
0.490355 0.378215 0.650720
0.618544 0.377152 0.642216
0.746733 0.376089 0.633712
0.874922 0.375026 0.625208
1.000000 0.377592 0.618778
0.000000 0.503891 0.656128
0.116516 0.502828 0.647624
0.244705 0.501765 0.639120
0.372894 0.500702 0.630616
0.502888 0.500903 0.622834
0.636392 0.503560 0.616456
0.769896 0.506217 0.610078
0.903400 0.508875 0.603700
1.000000 0.511532 0.597322
0.000000 0.625315 0.627520
0.130984 0.626870 0.620512
0.264488 0.629528 0.614134
0.397992 0.632185 0.607756
0.531496 0.634842 0.601378
0.665000 0.637500 0.595000
0.798504 0.640157 0.588622
0.932008 0.642815 0.582244
1.000000 0.645473 0.575866
0.026088 0.758153 0.605434
0.159592 0.760810 0.599056
0.293096 0.763467 0.592678
0.426600 0.766125 0.586300
0.560104 0.768783 0.579922
0.693608 0.771440 0.573544
0.827112 0.774097 0.567166
0.960616 0.776755 0.560788
1.000000 0.779412 0.554410
0.054696 0.892092 0.583978
0.188200 0.894750 0.577600
0.321704 0.897408 0.571222
0.455208 0.900065 0.564844
0.588712 0.902722 0.558466
0.722216 0.905380 0.552088
0.855720 0.908037 0.545710
0.989224 0.910695 0.539332
1.000000 0.913353 0.532954
0.083304 1.000000 0.562522
0.216808 1.000000 0.556144
0.350312 1.000000 0.549766
0.483816 1.000000 0.543388
0.617320 1.000000 0.537010
0.750824 1.000000 0.530632
0.884328 1.000000 0.524254
1.000000 1.000000 0.517876
1.000000 1.000000 0.511498
0.000000 0.017834 0.892672
0.074687 0.016771 0.884168
0.202876 0.015708 0.875664
0.331065 0.014645 0.867160
0.459254 0.013582 0.858656
0.587443 0.012519 0.850152
0.715632 0.011456 0.841648
0.843821 0.010393 0.833144
0.972010 0.009330 0.824640
0.000000 0.139258 0.864064
0.085415 0.138195 0.855560
0.213604 0.137132 0.847056
0.341793 0.136069 0.838552
0.469982 0.135006 0.830048
0.598171 0.133943 0.821544
0.726360 0.132880 0.813040
0.854549 0.131817 0.804536
0.982738 0.130754 0.796032
0.000000 0.260682 0.835456
0.096143 0.259619 0.826952
0.224332 0.258556 0.818448
0.352521 0.257493 0.809944
0.480710 0.256430 0.801440
0.608899 0.255367 0.792936
0.737088 0.254304 0.784432
0.865277 0.253241 0.775928
0.993466 0.252178 0.767424
0.000000 0.382106 0.806848
0.106871 0.381043 0.798344
0.235060 0.379980 0.789840
0.363249 0.378917 0.781336
0.491438 0.377854 0.772832
0.619627 0.376791 0.764328
0.747816 0.375728 0.755824
0.877680 0.375837 0.747990
1.000000 0.378495 0.741612
0.000000 0.503530 0.778240
0.117599 0.502467 0.769736
0.245788 0.501404 0.761232
0.373977 0.500341 0.752728
0.505776 0.501805 0.745668
0.639280 0.504463 0.739290
0.772784 0.507120 0.732912
0.906288 0.509777 0.726534
1.000000 0.512435 0.720156
0.000368 0.625115 0.749724
0.133872 0.627772 0.743346
0.267376 0.630430 0.736968
0.400880 0.633088 0.730590
0.534384 0.635745 0.724212
0.667888 0.638402 0.717834
0.801392 0.641060 0.711456
0.934896 0.643717 0.705078
1.000000 0.646375 0.698700
0.028976 0.759055 0.728268
0.162480 0.761713 0.721890
0.295984 0.764370 0.715512
0.429488 0.767027 0.709134
0.562992 0.769685 0.702756
0.696496 0.772343 0.696378
0.830000 0.775000 0.690000
0.963504 0.777658 0.683622
1.000000 0.780315 0.677244
0.057584 0.892995 0.706812
0.191088 0.895652 0.700434
0.324592 0.898310 0.694056
0.458096 0.900968 0.687678
0.591600 0.903625 0.681300
0.725104 0.906282 0.674922
0.858608 0.908940 0.668544
0.992112 0.911597 0.662166
1.000000 0.914255 0.655788
0.086192 1.000000 0.685356
0.219696 1.000000 0.678978
0.353200 1.000000 0.672600
0.486704 1.000000 0.666222
0.620208 1.000000 0.659844
0.753712 1.000000 0.653466
0.887216 1.000000 0.647088
1.000000 1.000000 0.640710
1.000000 1.000000 0.634332
0.000000 0.017473 1.000000
0.075770 0.016410 1.000000
0.203959 0.015347 0.997776
0.332148 0.014284 0.989272
0.460337 0.013221 0.980768
0.588526 0.012158 0.972264
0.716715 0.011095 0.963760
0.844904 0.010032 0.955256
0.973093 0.008969 0.946752
0.000000 0.138897 0.986176
0.086498 0.137834 0.977672
0.214687 0.136771 0.969168
0.342876 0.135708 0.960664
0.471065 0.134645 0.952160
0.599254 0.133582 0.943656
0.727443 0.132519 0.935152
0.855632 0.131456 0.926648
0.983821 0.130393 0.918144
0.000000 0.260321 0.957568
0.097226 0.259258 0.949064
0.225415 0.258195 0.940560
0.353604 0.257132 0.932056
0.481793 0.256069 0.923552
0.609982 0.255006 0.915048
0.738171 0.253943 0.906544
0.866360 0.252880 0.898040
0.994549 0.251817 0.889536
0.000000 0.381745 0.928960
0.107954 0.380682 0.920456
0.236143 0.379619 0.911952
0.364332 0.378556 0.903448
0.492521 0.377493 0.894944
0.620710 0.376430 0.886440
0.748899 0.375367 0.877936
0.880568 0.376740 0.870824
1.000000 0.379397 0.864446
0.000000 0.503169 0.900352
0.118682 0.502106 0.891848
0.246871 0.501043 0.883344
0.375160 0.500050 0.874880
0.508664 0.502707 0.868502
0.642168 0.505365 0.862124
0.775672 0.508023 0.855746
0.909176 0.510680 0.849368
1.000000 0.513338 0.842990
0.003256 0.626018 0.872558
0.136760 0.628675 0.866180
0.270264 0.631332 0.859802
0.403768 0.633990 0.853424
0.537272 0.636648 0.847046
0.670776 0.639305 0.840668
0.804280 0.641962 0.834290
0.937784 0.644620 0.827912
1.000000 0.647277 0.821534
0.031864 0.759957 0.851102
0.165368 0.762615 0.844724
0.298872 0.765273 0.838346
0.432376 0.767930 0.831968
0.565880 0.770587 0.825590
0.699384 0.773245 0.819212
0.832888 0.775902 0.812834
0.966392 0.778560 0.806456
1.000000 0.781218 0.800078
0.060472 0.893898 0.829646
0.193976 0.896555 0.823268
0.327480 0.899212 0.816890
0.460984 0.901870 0.810512
0.594488 0.904528 0.804134
0.727992 0.907185 0.797756
0.861496 0.909842 0.791378
0.995000 0.912500 0.785000
1.000000 0.915157 0.778622
0.089080 1.000000 0.808190
0.222584 1.000000 0.801812
0.356088 1.000000 0.795434
0.489592 1.000000 0.789056
0.623096 1.000000 0.782678
0.756600 1.000000 0.776300
0.890104 1.000000 0.769922
1.000000 1.000000 0.763544
1.000000 1.000000 0.757166
0.000000 0.017112 1.000000
0.076853 0.016049 1.000000
0.205042 0.014986 1.000000
0.333231 0.013923 1.000000
0.461420 0.012860 1.000000
0.589609 0.011797 1.000000
0.717798 0.010734 1.000000
0.845987 0.009671 1.000000
0.974176 0.008608 1.000000
0.000000 0.138536 1.000000
0.087581 0.137473 1.000000
0.215770 0.136410 1.000000
0.343959 0.135347 1.000000
0.472148 0.134284 1.000000
0.600337 0.133221 1.000000
0.728526 0.132158 1.000000
0.856715 0.131095 1.000000
0.984904 0.130032 1.000000
0.000000 0.259960 1.000000
0.098309 0.258897 1.000000
0.226498 0.257834 1.000000
0.354687 0.256771 1.000000
0.482876 0.255708 1.000000
0.611065 0.254645 1.000000
0.739254 0.253582 1.000000
0.867443 0.252519 1.000000
0.995632 0.251456 1.000000
0.000000 0.381384 1.000000
0.109037 0.380321 1.000000
0.237226 0.379258 1.000000
0.365415 0.378195 1.000000
0.493604 0.377132 1.000000
0.621793 0.376069 1.000000
0.749982 0.375006 1.000000
0.883456 0.377642 0.993658
1.000000 0.380300 0.987280
0.000000 0.502808 1.000000
0.119765 0.501745 1.000000
0.247954 0.500682 1.000000
0.378048 0.500953 0.997714
0.511552 0.503610 0.991336
0.645056 0.506267 0.984958
0.778560 0.508925 0.978580
0.912064 0.511583 0.972202
1.000000 0.514240 0.965824
0.006144 0.626920 0.995392
0.139648 0.629578 0.989014
0.273152 0.632235 0.982636
0.406656 0.634892 0.976258
0.540160 0.637550 0.969880
0.673664 0.640208 0.963502
0.807168 0.642865 0.957124
0.940672 0.645522 0.950746
1.000000 0.648180 0.944368
0.034752 0.760860 0.973936
0.168256 0.763517 0.967558
0.301760 0.766175 0.961180
0.435264 0.768833 0.954802
0.568768 0.771490 0.948424
0.702272 0.774147 0.942046
0.835776 0.776805 0.935668
0.969280 0.779462 0.929290
1.000000 0.782120 0.922912
0.063360 0.894800 0.952480
0.196864 0.897458 0.946102
0.330368 0.900115 0.939724
0.463872 0.902772 0.933346
0.597376 0.905430 0.926968
0.730880 0.908088 0.920590
0.864384 0.910745 0.914212
0.997888 0.913403 0.907834
1.000000 0.916060 0.901456
0.091968 1.000000 0.931024
0.225472 1.000000 0.924646
0.358976 1.000000 0.918268
0.492480 1.000000 0.911890
0.625984 1.000000 0.905512
0.759488 1.000000 0.899134
0.892992 1.000000 0.892756
1.000000 1.000000 0.886378
1.000000 1.000000 0.880000
