assets/luts/warm.cube
TITLE "Warm"
LUT_3D_SIZE 5
DOMAIN_MIN 0.0 0.0 0.0
DOMAIN_MAX 1.0 1.0 1.0
0.020000 0.010000 0.000000
0.292500 0.010000 0.000000
0.565000 0.010000 0.000000
0.837500 0.010000 0.000000
1.000000 0.010000 0.000000
0.020000 0.265000 0.000000
0.292500 0.265000 0.000000
0.565000 0.265000 0.000000
0.837500 0.265000 0.000000
1.000000 0.265000 0.000000
0.020000 0.520000 0.000000
0.292500 0.520000 0.000000
0.565000 0.520000 0.000000
0.837500 0.520000 0.000000
1.000000 0.520000 0.000000
0.020000 0.775000 0.000000
0.292500 0.775000 0.000000
0.565000 0.775000 0.000000
0.837500 0.775000 0.000000
1.000000 0.775000 0.000000
0.020000 1.000000 0.000000
0.292500 1.000000 0.000000
0.565000 1.000000 0.000000
0.837500 1.000000 0.000000
1.000000 1.000000 0.000000
0.020000 0.010000 0.225000
0.292500 0.010000 0.225000
0.565000 0.010000 0.225000
0.837500 0.010000 0.225000
1.000000 0.010000 0.225000
0.020000 0.265000 0.225000
0.292500 0.265000 0.225000
0.565000 0.265000 0.225000
0.837500 0.265000 0.225000
1.000000 0.265000 0.225000
0.020000 0.520000 0.225000
0.292500 0.520000 0.225000
0.565000 0.520000 0.225000
0.837500 0.520000 0.225000
1.000000 0.520000 0.225000
0.020000 0.775000 0.225000
0.292500 0.775000 0.225000
0.565000 0.775000 0.225000
0.837500 0.775000 0.225000
1.000000 0.775000 0.225000
0.020000 1.000000 0.225000
0.292500 1.000000 0.225000
0.565000 1.000000 0.225000
0.837500 1.000000 0.225000
1.000000 1.000000 0.225000
0.020000 0.010000 0.450000
0.292500 0.010000 0.450000
0.565000 0.010000 0.450000
0.837500 0.010000 0.450000
1.000000 0.010000 0.450000
0.020000 0.265000 0.450000
0.292500 0.265000 0.450000
0.565000 0.265000 0.450000
0.837500 0.265000 0.450000
1.000000 0.265000 0.450000
0.020000 0.520000 0.450000
0.292500 0.520000 0.450000
0.565000 0.520000 0.450000
0.837500 0.520000 0.450000
1.000000 0.520000 0.450000
0.020000 0.775000 0.450000
0.292500 0.775000 0.450000
0.565000 0.775000 0.450000
0.837500 0.775000 0.450000
1.000000 0.775000 0.450000
0.020000 1.000000 0.450000
0.292500 1.000000 0.450000
0.565000 1.000000 0.450000
0.837500 1.000000 0.450000
1.000000 1.000000 0.450000
0.020000 0.010000 0.675000
0.292500 0.010000 0.675000
0.565000 0.010000 0.675000
0.837500 0.010000 0.675000
1.000000 0.010000 0.675000
0.020000 0.265000 0.675000
0.292500 0.265000 0.675000
0.565000 0.265000 0.675000
0.837500 0.265000 0.675000
1.000000 0.265000 0.675000
0.020000 0.520000 0.675000
0.292500 0.520000 0.675000
0.565000 0.520000 0.675000
0.837500 0.520000 0.675000
1.000000 0.520000 0.675000
0.020000 0.775000 0.675000
0.292500 0.775000 0.675000
0.565000 0.775000 0.675000
0.837500 0.775000 0.675000
1.000000 0.775000 0.675000
0.020000 1.000000 0.675000
0.292500 1.000000 0.675000
0.565000 1.000000 0.675000
0.837500 1.000000 0.675000
1.000000 1.000000 0.675000
0.020000 0.010000 0.900000
0.292500 0.010000 0.900000
0.565000 0.010000 0.900000
0.837500 0.010000 0.900000
1.000000 0.010000 0.900000
0.020000 0.265000 0.900000
0.292500 0.265000 0.900000
0.565000 0.265000 0.900000
0.837500 0.265000 0.900000
1.000000 0.265000 0.900000
0.020000 0.520000 0.900000
0.292500 0.520000 0.900000
0.565000 0.520000 0.900000
0.837500 0.520000 0.900000
1.000000 0.520000 0.900000
0.020000 0.775000 0.900000
0.292500 0.775000 0.900000
0.565000 0.775000 0.900000
0.837500 0.775000 0.900000
1.000000 0.775000 0.900000
0.020000 1.000000 0.900000
0.292500 1.000000 0.900000
0.565000 1.000000 0.900000
0.837500 1.000000 0.900000
1.000000 1.000000 0.900000
