assets/luts/warm.cube
TITLE "Warm"
LUT_3D_SIZE 17
DOMAIN_MIN 0.0 0.0 0.0
DOMAIN_MAX 1.0 1.0 1.0
0.020000 0.010000 0.000000
0.088125 0.010000 0.000000
0.156250 0.010000 0.000000
0.224375 0.010000 0.000000
0.292500 0.010000 0.000000
0.360625 0.010000 0.000000
0.428750 0.010000 0.000000
0.496875 0.010000 0.000000
0.565000 0.010000 0.000000
0.633125 0.010000 0.000000
0.701250 0.010000 0.000000
0.769375 0.010000 0.000000
0.837500 0.010000 0.000000
0.905625 0.010000 0.000000
0.973750 0.010000 0.000000
1.000000 0.010000 0.000000
1.000000 0.010000 0.000000
0.020000 0.073750 0.000000
0.088125 0.073750 0.000000
0.156250 0.073750 0.000000
0.224375 0.073750 0.000000
0.292500 0.073750 0.000000
0.360625 0.073750 0.000000
0.428750 0.073750 0.000000
0.496875 0.073750 0.000000
0.565000 0.073750 0.000000
0.633125 0.073750 0.000000
0.701250 0.073750 0.000000
0.769375 0.073750 0.000000
0.837500 0.073750 0.000000
0.905625 0.073750 0.000000
0.973750 0.073750 0.000000
1.000000 0.073750 0.000000
1.000000 0.073750 0.000000
0.020000 0.137500 0.000000
0.088125 0.137500 0.000000
0.156250 0.137500 0.000000
0.224375 0.137500 0.000000
0.292500 0.137500 0.000000
0.360625 0.137500 0.000000
0.428750 0.137500 0.000000
0.496875 0.137500 0.000000
0.565000 0.137500 0.000000
0.633125 0.137500 0.000000
0.701250 0.137500 0.000000
0.769375 0.137500 0.000000
0.837500 0.137500 0.000000
0.905625 0.137500 0.000000
0.973750 0.137500 0.000000
1.000000 0.137500 0.000000
1.000000 0.137500 0.000000
0.020000 0.201250 0.000000
0.088125 0.201250 0.000000
0.156250 0.201250 0.000000
0.224375 0.201250 0.000000
0.292500 0.201250 0.000000
0.360625 0.201250 0.000000
0.428750 0.201250 0.000000
0.496875 0.201250 0.000000
0.565000 0.201250 0.000000
0.633125 0.201250 0.000000
0.701250 0.201250 0.000000
0.769375 0.201250 0.000000
0.837500 0.201250 0.000000
0.905625 0.201250 0.000000
0.973750 0.201250 0.000000
1.000000 0.201250 0.000000
1.000000 0.201250 0.000000
0.020000 0.265000 0.000000
0.088125 0.265000 0.000000
0.156250 0.265000 0.000000
0.224375 0.265000 0.000000
0.292500 0.265000 0.000000
0.360625 0.265000 0.000000
0.428750 0.265000 0.000000
0.496875 0.265000 0.000000
0.565000 0.265000 0.000000
0.633125 0.265000 0.000000
0.701250 0.265000 0.000000
0.769375 0.265000 0.000000
0.837500 0.265000 0.000000
0.905625 0.265000 0.000000
0.973750 0.265000 0.000000
1.000000 0.265000 0.000000
1.000000 0.265000 0.000000
0.020000 0.328750 0.000000
0.088125 0.328750 0.000000
0.156250 0.328750 0.000000
0.224375 0.328750 0.000000
0.292500 0.328750 0.000000
0.360625 0.328750 0.000000
0.428750 0.328750 0.000000
0.496875 0.328750 0.000000
0.565000 0.328750 0.000000
0.633125 0.328750 0.000000
0.701250 0.328750 0.000000
0.769375 0.328750 0.000000
0.837500 0.328750 0.000000
0.905625 0.328750 0.000000
0.973750 0.328750 0.000000
1.000000 0.328750 0.000000
1.000000 0.328750 0.000000
0.020000 0.392500 0.000000
0.088125 0.392500 0.000000
0.156250 0.392500 0.000000
0.224375 0.392500 0.000000
0.292500 0.392500 0.000000
0.360625 0.392500 0.000000
0.428750 0.392500 0.000000
0.496875 0.392500 0.000000
0.565000 0.392500 0.000000
0.633125 0.392500 0.000000
0.701250 0.392500 0.000000
0.769375 0.392500 0.000000
0.837500 0.392500 0.000000
0.905625 0.392500 0.000000
0.973750 0.392500 0.000000
1.000000 0.392500 0.000000
1.000000 0.392500 0.000000
0.020000 0.456250 0.000000
0.088125 0.456250 0.000000
0.156250 0.456250 0.000000
0.224375 0.456250 0.000000
0.292500 0.456250 0.000000
0.360625 0.456250 0.000000
0.428750 0.456250 0.000000
0.496875 0.456250 0.000000
0.565000 0.456250 0.000000
0.633125 0.456250 0.000000
0.701250 0.456250 0.000000
0.769375 0.456250 0.000000
0.837500 0.456250 0.000000
0.905625 0.456250 0.000000
0.973750 0.456250 0.000000
1.000000 0.456250 0.000000
1.000000 0.456250 0.000000
0.020000 0.520000 0.000000
0.088125 0.520000 0.000000
0.156250 0.520000 0.000000
0.224375 0.520000 0.000000
0.292500 0.520000 0.000000
0.360625 0.520000 0.000000
0.428750 0.520000 0.000000
0.496875 0.520000 0.000000
0.565000 0.520000 0.000000
0.633125 0.520000 0.000000
0.701250 0.520000 0.000000
0.769375 0.520000 0.000000
0.837500 0.520000 0.000000
0.905625 0.520000 0.000000
0.973750 0.520000 0.000000
1.000000 0.520000 0.000000
1.000000 0.520000 0.000000
0.020000 0.583750 0.000000
0.088125 0.583750 0.000000
0.156250 0.583750 0.000000
0.224375 0.583750 0.000000
0.292500 0.583750 0.000000
0.360625 0.583750 0.000000
0.428750 0.583750 0.000000
0.496875 0.583750 0.000000
0.565000 0.583750 0.000000
0.633125 0.583750 0.000000
0.701250 0.583750 0.000000
0.769375 0.583750 0.000000
0.837500 0.583750 0.000000
0.905625 0.583750 0.000000
0.973750 0.583750 0.000000
1.000000 0.583750 0.000000
1.000000 0.583750 0.000000
0.020000 0.647500 0.000000
0.088125 0.647500 0.000000
0.156250 0.647500 0.000000
0.224375 0.647500 0.000000
0.292500 0.647500 0.000000
0.360625 0.647500 0.000000
0.428750 0.647500 0.000000
0.496875 0.647500 0.000000
0.565000 0.647500 0.000000
0.633125 0.647500 0.000000
0.701250 0.647500 0.000000
0.769375 0.647500 0.000000
0.837500 0.647500 0.000000
0.905625 0.647500 0.000000
0.973750 0.647500 0.000000
1.000000 0.647500 0.000000
1.000000 0.647500 0.000000
0.020000 0.711250 0.000000
0.088125 0.711250 0.000000
0.156250 0.711250 0.000000
0.224375 0.711250 0.000000
0.292500 0.711250 0.000000
0.360625 0.711250 0.000000
0.428750 0.711250 0.000000
0.496875 0.711250 0.000000
0.565000 0.711250 0.000000
0.633125 0.711250 0.000000
0.701250 0.711250 0.000000
0.769375 0.711250 0.000000
0.837500 0.711250 0.000000
0.905625 0.711250 0.000000
0.973750 0.711250 0.000000
1.000000 0.711250 0.000000
1.000000 0.711250 0.000000
0.020000 0.775000 0.000000
0.088125 0.775000 0.000000
0.156250 0.775000 0.000000
0.224375 0.775000 0.000000
0.292500 0.775000 0.000000
0.360625 0.775000 0.000000
0.428750 0.775000 0.000000
0.496875 0.775000 0.000000
0.565000 0.775000 0.000000
0.633125 0.775000 0.000000
0.701250 0.775000 0.000000
0.769375 0.775000 0.000000
0.837500 0.775000 0.000000
0.905625 0.775000 0.000000
0.973750 0.775000 0.000000
1.000000 0.775000 0.000000
1.000000 0.775000 0.000000
0.020000 0.838750 0.000000
0.088125 0.838750 0.000000
0.156250 0.838750 0.000000
0.224375 0.838750 0.000000
0.292500 0.838750 0.000000
0.360625 0.838750 0.000000
0.428750 0.838750 0.000000
0.496875 0.838750 0.000000
0.565000 0.838750 0.000000
0.633125 0.838750 0.000000
0.701250 0.838750 0.000000
0.769375 0.838750 0.000000
0.837500 0.838750 0.000000
0.905625 0.838750 0.000000
0.973750 0.838750 0.000000
1.000000 0.838750 0.000000
1.000000 0.838750 0.000000
0.020000 0.902500 0.000000
0.088125 0.902500 0.000000
0.156250 0.902500 0.000000
0.224375 0.902500 0.000000
0.292500 0.902500 0.000000
0.360625 0.902500 0.000000
0.428750 0.902500 0.000000
0.496875 0.902500 0.000000
0.565000 0.902500 0.000000
0.633125 0.902500 0.000000
0.701250 0.902500 0.000000
0.769375 0.902500 0.000000
0.837500 0.902500 0.000000
0.905625 0.902500 0.000000
0.973750 0.902500 0.000000
1.000000 0.902500 0.000000
1.000000 0.902500 0.000000
0.020000 0.966250 0.000000
0.088125 0.966250 0.000000
0.156250 0.966250 0.000000
0.224375 0.966250 0.000000
0.292500 0.966250 0.000000
0.360625 0.966250 0.000000
0.428750 0.966250 0.000000
0.496875 0.966250 0.000000
0.565000 0.966250 0.000000
0.633125 0.966250 0.000000
0.701250 0.966250 0.000000
0.769375 0.966250 0.000000
0.837500 0.966250 0.000000
0.905625 0.966250 0.000000
0.973750 0.966250 0.000000
1.000000 0.966250 0.000000
1.000000 0.966250 0.000000
0.020000 1.000000 0.000000
0.088125 1.000000 0.000000
0.156250 1.000000 0.000000
0.224375 1.000000 0.000000
0.292500 1.000000 0.000000
0.360625 1.000000 0.000000
0.428750 1.000000 0.000000
0.496875 1.000000 0.000000
0.565000 1.000000 0.000000
0.633125 1.000000 0.000000
0.701250 1.000000 0.000000
0.769375 1.000000 0.000000
0.837500 1.000000 0.000000
0.905625 1.000000 0.000000
0.973750 1.000000 0.000000
1.000000 1.000000 0.000000
1.000000 1.000000 0.000000
0.020000 0.010000 0.056250
0.088125 0.010000 0.056250
0.156250 0.010000 0.056250
0.224375 0.010000 0.056250
0.292500 0.010000 0.056250
0.360625 0.010000 0.056250
0.428750 0.010000 0.056250
0.496875 0.010000 0.056250
0.565000 0.010000 0.056250
0.633125 0.010000 0.056250
0.701250 0.010000 0.056250
0.769375 0.010000 0.056250
0.837500 0.010000 0.056250
0.905625 0.010000 0.056250
0.973750 0.010000 0.056250
1.000000 0.010000 0.056250
1.000000 0.010000 0.056250
0.020000 0.073750 0.056250
0.088125 0.073750 0.056250
0.156250 0.073750 0.056250
0.224375 0.073750 0.056250
0.292500 0.073750 0.056250
0.360625 0.073750 0.056250
0.428750 0.073750 0.056250
0.496875 0.073750 0.056250
0.565000 0.073750 0.056250
0.633125 0.073750 0.056250
0.701250 0.073750 0.056250
0.769375 0.073750 0.056250
0.837500 0.073750 0.056250
0.905625 0.073750 0.056250
0.973750 0.073750 0.056250
1.000000 0.073750 0.056250
1.000000 0.073750 0.056250
0.020000 0.137500 0.056250
0.088125 0.137500 0.056250
0.156250 0.137500 0.056250
0.224375 0.137500 0.056250
0.292500 0.137500 0.056250
0.360625 0.137500 0.056250
0.428750 0.137500 0.056250
0.496875 0.137500 0.056250
0.565000 0.137500 0.056250
0.633125 0.137500 0.056250
0.701250 0.137500 0.056250
0.769375 0.137500 0.056250
0.837500 0.137500 0.056250
0.905625 0.137500 0.056250
0.973750 0.137500 0.056250
1.000000 0.137500 0.056250
1.000000 0.137500 0.056250
0.020000 0.201250 0.056250
0.088125 0.201250 0.056250
0.156250 0.201250 0.056250
0.224375 0.201250 0.056250
0.292500 0.201250 0.056250
0.360625 0.201250 0.056250
0.428750 0.201250 0.056250
0.496875 0.201250 0.056250
0.565000 0.201250 0.056250
0.633125 0.201250 0.056250
0.701250 0.201250 0.056250
0.769375 0.201250 0.056250
0.837500 0.201250 0.056250
0.905625 0.201250 0.056250
0.973750 0.201250 0.056250
1.000000 0.201250 0.056250
1.000000 0.201250 0.056250
0.020000 0.265000 0.056250
0.088125 0.265000 0.056250
0.156250 0.265000 0.056250
0.224375 0.265000 0.056250
0.292500 0.265000 0.056250
0.360625 0.265000 0.056250
0.428750 0.265000 0.056250
0.496875 0.265000 0.056250
0.565000 0.265000 0.056250
0.633125 0.265000 0.056250
0.701250 0.265000 0.056250
0.769375 0.265000 0.056250
0.837500 0.265000 0.056250
0.905625 0.265000 0.056250
0.973750 0.265000 0.056250
1.000000 0.265000 0.056250
1.000000 0.265000 0.056250
0.020000 0.328750 0.056250
0.088125 0.328750 0.056250
0.156250 0.328750 0.056250
0.224375 0.328750 0.056250
0.292500 0.328750 0.056250
0.360625 0.328750 0.056250
0.428750 0.328750 0.056250
0.496875 0.328750 0.056250
0.565000 0.328750 0.056250
0.633125 0.328750 0.056250
0.701250 0.328750 0.056250
0.769375 0.328750 0.056250
0.837500 0.328750 0.056250
0.905625 0.328750 0.056250
0.973750 0.328750 0.056250
1.000000 0.328750 0.056250
1.000000 0.328750 0.056250
0.020000 0.392500 0.056250
0.088125 0.392500 0.056250
0.156250 0.392500 0.056250
0.224375 0.392500 0.056250
0.292500 0.392500 0.056250
0.360625 0.392500 0.056250
0.428750 0.392500 0.056250
0.496875 0.392500 0.056250
0.565000 0.392500 0.056250
0.633125 0.392500 0.056250
0.701250 0.392500 0.056250
0.769375 0.392500 0.056250
0.837500 0.392500 0.056250
0.905625 0.392500 0.056250
0.973750 0.392500 0.056250
1.000000 0.392500 0.056250
1.000000 0.392500 0.056250
0.020000 0.456250 0.056250
0.088125 0.456250 0.056250
0.156250 0.456250 0.056250
0.224375 0.456250 0.056250
0.292500 0.456250 0.056250
0.360625 0.456250 0.056250
0.428750 0.456250 0.056250
0.496875 0.456250 0.056250
0.565000 0.456250 0.056250
0.633125 0.456250 0.056250
0.701250 0.456250 0.056250
0.769375 0.456250 0.056250
0.837500 0.456250 0.056250
0.905625 0.456250 0.056250
0.973750 0.456250 0.056250
1.000000 0.456250 0.056250
1.000000 0.456250 0.056250
0.020000 0.520000 0.056250
0.088125 0.520000 0.056250
0.156250 0.520000 0.056250
0.224375 0.520000 0.056250
0.292500 0.520000 0.056250
0.360625 0.520000 0.056250
0.428750 0.520000 0.056250
0.496875 0.520000 0.056250
0.565000 0.520000 0.056250
0.633125 0.520000 0.056250
0.701250 0.520000 0.056250
0.769375 0.520000 0.056250
0.837500 0.520000 0.056250
0.905625 0.520000 0.056250
0.973750 0.520000 0.056250
1.000000 0.520000 0.056250
1.000000 0.520000 0.056250
0.020000 0.583750 0.056250
0.088125 0.583750 0.056250
0.156250 0.583750 0.056250
0.224375 0.583750 0.056250
0.292500 0.583750 0.056250
0.360625 0.583750 0.056250
0.428750 0.583750 0.056250
0.496875 0.583750 0.056250
0.565000 0.583750 0.056250
0.633125 0.583750 0.056250
0.701250 0.583750 0.056250
0.769375 0.583750 0.056250
0.837500 0.583750 0.056250
0.905625 0.583750 0.056250
0.973750 0.583750 0.056250
1.000000 0.583750 0.056250
1.000000 0.583750 0.056250
0.020000 0.647500 0.056250
0.088125 0.647500 0.056250
0.156250 0.647500 0.056250
0.224375 0.647500 0.056250
0.292500 0.647500 0.056250
0.360625 0.647500 0.056250
0.428750 0.647500 0.056250
0.496875 0.647500 0.056250
0.565000 0.647500 0.056250
0.633125 0.647500 0.056250
0.701250 0.647500 0.056250
0.769375 0.647500 0.056250
0.837500 0.647500 0.056250
0.905625 0.647500 0.056250
0.973750 0.647500 0.056250
1.000000 0.647500 0.056250
1.000000 0.647500 0.056250
0.020000 0.711250 0.056250
0.088125 0.711250 0.056250
0.156250 0.711250 0.056250
0.224375 0.711250 0.056250
0.292500 0.711250 0.056250
0.360625 0.711250 0.056250
0.428750 0.711250 0.056250
0.496875 0.711250 0.056250
0.565000 0.711250 0.056250
0.633125 0.711250 0.056250
0.701250 0.711250 0.056250
0.769375 0.711250 0.056250
0.837500 0.711250 0.056250
0.905625 0.711250 0.056250
0.973750 0.711250 0.056250
1.000000 0.711250 0.056250
1.000000 0.711250 0.056250
0.020000 0.775000 0.056250
0.088125 0.775000 0.056250
0.156250 0.775000 0.056250
0.224375 0.775000 0.056250
0.292500 0.775000 0.056250
0.360625 0.775000 0.056250
0.428750 0.775000 0.056250
0.496875 0.775000 0.056250
0.565000 0.775000 0.056250
0.633125 0.775000 0.056250
0.701250 0.775000 0.056250
0.769375 0.775000 0.056250
0.837500 0.775000 0.056250
0.905625 0.775000 0.056250
0.973750 0.775000 0.056250
1.000000 0.775000 0.056250
1.000000 0.775000 0.056250
0.020000 0.838750 0.056250
0.088125 0.838750 0.056250
0.156250 0.838750 0.056250
0.224375 0.838750 0.056250
0.292500 0.838750 0.056250
0.360625 0.838750 0.056250
0.428750 0.838750 0.056250
0.496875 0.838750 0.056250
0.565000 0.838750 0.056250
0.633125 0.838750 0.056250
0.701250 0.838750 0.056250
0.769375 0.838750 0.056250
0.837500 0.838750 0.056250
0.905625 0.838750 0.056250
0.973750 0.838750 0.056250
1.000000 0.838750 0.056250
1.000000 0.838750 0.056250
0.020000 0.902500 0.056250
0.088125 0.902500 0.056250
0.156250 0.902500 0.056250
0.224375 0.902500 0.056250
0.292500 0.902500 0.056250
0.360625 0.902500 0.056250
0.428750 0.902500 0.056250
0.496875 0.902500 0.056250
0.565000 0.902500 0.056250
0.633125 0.902500 0.056250
0.701250 0.902500 0.056250
0.769375 0.902500 0.056250
0.837500 0.902500 0.056250
0.905625 0.902500 0.056250
0.973750 0.902500 0.056250
1.000000 0.902500 0.056250
1.000000 0.902500 0.056250
0.020000 0.966250 0.056250
0.088125 0.966250 0.056250
0.156250 0.966250 0.056250
0.224375 0.966250 0.056250
0.292500 0.966250 0.056250
0.360625 0.966250 0.056250
0.428750 0.966250 0.056250
0.496875 0.966250 0.056250
0.565000 0.966250 0.056250
0.633125 0.966250 0.056250
0.701250 0.966250 0.056250
0.769375 0.966250 0.056250
0.837500 0.966250 0.056250
0.905625 0.966250 0.056250
0.973750 0.966250 0.056250
1.000000 0.966250 0.056250
1.000000 0.966250 0.056250
0.020000 1.000000 0.056250
0.088125 1.000000 0.056250
0.156250 1.000000 0.056250
0.224375 1.000000 0.056250
0.292500 1.000000 0.056250
0.360625 1.000000 0.056250
0.428750 1.000000 0.056250
0.496875 1.000000 0.056250
0.565000 1.000000 0.056250
0.633125 1.000000 0.056250
0.701250 1.000000 0.056250
0.769375 1.000000 0.056250
0.837500 1.000000 0.056250
0.905625 1.000000 0.056250
0.973750 1.000000 0.056250
1.000000 1.000000 0.056250
1.000000 1.000000 0.056250
0.020000 0.010000 0.112500
0.088125 0.010000 0.112500
0.156250 0.010000 0.112500
0.224375 0.010000 0.112500
0.292500 0.010000 0.112500
0.360625 0.010000 0.112500
0.428750 0.010000 0.112500
0.496875 0.010000 0.112500
0.565000 0.010000 0.112500
0.633125 0.010000 0.112500
0.701250 0.010000 0.112500
0.769375 0.010000 0.112500
0.837500 0.010000 0.112500
0.905625 0.010000 0.112500
0.973750 0.010000 0.112500
1.000000 0.010000 0.112500
1.000000 0.010000 0.112500
0.020000 0.073750 0.112500
0.088125 0.073750 0.112500
0.156250 0.073750 0.112500
0.224375 0.073750 0.112500
0.292500 0.073750 0.112500
0.360625 0.073750 0.112500
0.428750 0.073750 0.112500
0.496875 0.073750 0.112500
0.565000 0.073750 0.112500
0.633125 0.073750 0.112500
0.701250 0.073750 0.112500
0.769375 0.073750 0.112500
0.837500 0.073750 0.112500
0.905625 0.073750 0.112500
0.973750 0.073750 0.112500
1.000000 0.073750 0.112500
1.000000 0.073750 0.112500
0.020000 0.137500 0.112500
0.088125 0.137500 0.112500
0.156250 0.137500 0.112500
0.224375 0.137500 0.112500
0.292500 0.137500 0.112500
0.360625 0.137500 0.112500
0.428750 0.137500 0.112500
0.496875 0.137500 0.112500
0.565000 0.137500 0.112500
0.633125 0.137500 0.112500
0.701250 0.137500 0.112500
0.769375 0.137500 0.112500
0.837500 0.137500 0.112500
0.905625 0.137500 0.112500
0.973750 0.137500 0.112500
1.000000 0.137500 0.112500
1.000000 0.137500 0.112500
0.020000 0.201250 0.112500
0.088125 0.201250 0.112500
0.156250 0.201250 0.112500
0.224375 0.201250 0.112500
0.292500 0.201250 0.112500
0.360625 0.201250 0.112500
0.428750 0.201250 0.112500
0.496875 0.201250 0.112500
0.565000 0.201250 0.112500
0.633125 0.201250 0.112500
0.701250 0.201250 0.112500
0.769375 0.201250 0.112500
0.837500 0.201250 0.112500
0.905625 0.201250 0.112500
0.973750 0.201250 0.112500
1.000000 0.201250 0.112500
1.000000 0.201250 0.112500
0.020000 0.265000 0.112500
0.088125 0.265000 0.112500
0.156250 0.265000 0.112500
0.224375 0.265000 0.112500
0.292500 0.265000 0.112500
0.360625 0.265000 0.112500
0.428750 0.265000 0.112500
0.496875 0.265000 0.112500
0.565000 0.265000 0.112500
0.633125 0.265000 0.112500
0.701250 0.265000 0.112500
0.769375 0.265000 0.112500
0.837500 0.265000 0.112500
0.905625 0.265000 0.112500
0.973750 0.265000 0.112500
1.000000 0.265000 0.112500
1.000000 0.265000 0.112500
0.020000 0.328750 0.112500
0.088125 0.328750 0.112500
0.156250 0.328750 0.112500
0.224375 0.328750 0.112500
0.292500 0.328750 0.112500
0.360625 0.328750 0.112500
0.428750 0.328750 0.112500
0.496875 0.328750 0.112500
0.565000 0.328750 0.112500
0.633125 0.328750 0.112500
0.701250 0.328750 0.112500
0.769375 0.328750 0.112500
0.837500 0.328750 0.112500
0.905625 0.328750 0.112500
0.973750 0.328750 0.112500
1.000000 0.328750 0.112500
1.000000 0.328750 0.112500
0.020000 0.392500 0.112500
0.088125 0.392500 0.112500
0.156250 0.392500 0.112500
0.224375 0.392500 0.112500
0.292500 0.392500 0.112500
0.360625 0.392500 0.112500
0.428750 0.392500 0.112500
0.496875 0.392500 0.112500
0.565000 0.392500 0.112500
0.633125 0.392500 0.112500
0.701250 0.392500 0.112500
0.769375 0.392500 0.112500
0.837500 0.392500 0.112500
0.905625 0.392500 0.112500
0.973750 0.392500 0.112500
1.000000 0.392500 0.112500
1.000000 0.392500 0.112500
0.020000 0.456250 0.112500
0.088125 0.456250 0.112500
0.156250 0.456250 0.112500
0.224375 0.456250 0.112500
0.292500 0.456250 0.112500
0.360625 0.456250 0.112500
0.428750 0.456250 0.112500
0.496875 0.456250 0.112500
0.565000 0.456250 0.112500
0.633125 0.456250 0.112500
0.701250 0.456250 0.112500
0.769375 0.456250 0.112500
0.837500 0.456250 0.112500
0.905625 0.456250 0.112500
0.973750 0.456250 0.112500
1.000000 0.456250 0.112500
1.000000 0.456250 0.112500
0.020000 0.520000 0.112500
0.088125 0.520000 0.112500
0.156250 0.520000 0.112500
0.224375 0.520000 0.112500
0.292500 0.520000 0.112500
0.360625 0.520000 0.112500
0.428750 0.520000 0.112500
0.496875 0.520000 0.112500
0.565000 0.520000 0.112500
0.633125 0.520000 0.112500
0.701250 0.520000 0.112500
0.769375 0.520000 0.112500
0.837500 0.520000 0.112500
0.905625 0.520000 0.112500
0.973750 0.520000 0.112500
1.000000 0.520000 0.112500
1.000000 0.520000 0.112500
0.020000 0.583750 0.112500
0.088125 0.583750 0.112500
0.156250 0.583750 0.112500
0.224375 0.583750 0.112500
0.292500 0.583750 0.112500
0.360625 0.583750 0.112500
0.428750 0.583750 0.112500
0.496875 0.583750 0.112500
0.565000 0.583750 0.112500
0.633125 0.583750 0.112500
0.701250 0.583750 0.112500
0.769375 0.583750 0.112500
0.837500 0.583750 0.112500
0.905625 0.583750 0.112500
0.973750 0.583750 0.112500
1.000000 0.583750 0.112500
1.000000 0.583750 0.112500
0.020000 0.647500 0.112500
0.088125 0.647500 0.112500
0.156250 0.647500 0.112500
0.224375 0.647500 0.112500
0.292500 0.647500 0.112500
0.360625 0.647500 0.112500
0.428750 0.647500 0.112500
0.496875 0.647500 0.112500
0.565000 0.647500 0.112500
0.633125 0.647500 0.112500
0.701250 0.647500 0.112500
0.769375 0.647500 0.112500
0.837500 0.647500 0.112500
0.905625 0.647500 0.112500
0.973750 0.647500 0.112500
1.000000 0.647500 0.112500
1.000000 0.647500 0.112500
0.020000 0.711250 0.112500
0.088125 0.711250 0.112500
0.156250 0.711250 0.112500
0.224375 0.711250 0.112500
0.292500 0.711250 0.112500
0.360625 0.711250 0.112500
0.428750 0.711250 0.112500
0.496875 0.711250 0.112500
0.565000 0.711250 0.112500
0.633125 0.711250 0.112500
0.701250 0.711250 0.112500
0.769375 0.711250 0.112500
0.837500 0.711250 0.112500
0.905625 0.711250 0.112500
0.973750 0.711250 0.112500
1.000000 0.711250 0.112500
1.000000 0.711250 0.112500
0.020000 0.775000 0.112500
0.088125 0.775000 0.112500
0.156250 0.775000 0.112500
0.224375 0.775000 0.112500
0.292500 0.775000 0.112500
0.360625 0.775000 0.112500
0.428750 0.775000 0.112500
0.496875 0.775000 0.112500
0.565000 0.775000 0.112500
0.633125 0.775000 0.112500
0.701250 0.775000 0.112500
0.769375 0.775000 0.112500
0.837500 0.775000 0.112500
0.905625 0.775000 0.112500
0.973750 0.775000 0.112500
1.000000 0.775000 0.112500
1.000000 0.775000 0.112500
0.020000 0.838750 0.112500
0.088125 0.838750 0.112500
0.156250 0.838750 0.112500
0.224375 0.838750 0.112500
0.292500 0.838750 0.112500
0.360625 0.838750 0.112500
0.428750 0.838750 0.112500
0.496875 0.838750 0.112500
0.565000 0.838750 0.112500
0.633125 0.838750 0.112500
0.701250 0.838750 0.112500
0.769375 0.838750 0.112500
0.837500 0.838750 0.112500
0.905625 0.838750 0.112500
0.973750 0.838750 0.112500
1.000000 0.838750 0.112500
1.000000 0.838750 0.112500
0.020000 0.902500 0.112500
0.088125 0.902500 0.112500
0.156250 0.902500 0.112500
0.224375 0.902500 0.112500
0.292500 0.902500 0.112500
0.360625 0.902500 0.112500
0.428750 0.902500 0.112500
0.496875 0.902500 0.112500
0.565000 0.902500 0.112500
0.633125 0.902500 0.112500
0.701250 0.902500 0.112500
0.769375 0.902500 0.112500
0.837500 0.902500 0.112500
0.905625 0.902500 0.112500
0.973750 0.902500 0.112500
1.000000 0.902500 0.112500
1.000000 0.902500 0.112500
0.020000 0.966250 0.112500
0.088125 0.966250 0.112500
0.156250 0.966250 0.112500
0.224375 0.966250 0.112500
0.292500 0.966250 0.112500
0.360625 0.966250 0.112500
0.428750 0.966250 0.112500
0.496875 0.966250 0.112500
0.565000 0.966250 0.112500
0.633125 0.966250 0.112500
0.701250 0.966250 0.112500
0.769375 0.966250 0.112500
0.837500 0.966250 0.112500
0.905625 0.966250 0.112500
0.973750 0.966250 0.112500
1.000000 0.966250 0.112500
1.000000 0.966250 0.112500
0.020000 1.000000 0.112500
0.088125 1.000000 0.112500
0.156250 1.000000 0.112500
0.224375 1.000000 0.112500
0.292500 1.000000 0.112500
0.360625 1.000000 0.112500
0.428750 1.000000 0.112500
0.496875 1.000000 0.112500
0.565000 1.000000 0.112500
0.633125 1.000000 0.112500
0.701250 1.000000 0.112500
0.769375 1.000000 0.112500
0.837500 1.000000 0.112500
0.905625 1.000000 0.112500
0.973750 1.000000 0.112500
1.000000 1.000000 0.112500
1.000000 1.000000 0.112500
0.020000 0.010000 0.168750
0.088125 0.010000 0.168750
0.156250 0.010000 0.168750
0.224375 0.010000 0.168750
0.292500 0.010000 0.168750
0.360625 0.010000 0.168750
0.428750 0.010000 0.168750
0.496875 0.010000 0.168750
0.565000 0.010000 0.168750
0.633125 0.010000 0.168750
0.701250 0.010000 0.168750
0.769375 0.010000 0.168750
0.837500 0.010000 0.168750
0.905625 0.010000 0.168750
0.973750 0.010000 0.168750
1.000000 0.010000 0.168750
1.000000 0.010000 0.168750
0.020000 0.073750 0.168750
0.088125 0.073750 0.168750
