assets/luts/warm.cube
TITLE "Warm"
LUT_3D_SIZE 9
DOMAIN_MIN 0.0 0.0 0.0
DOMAIN_MAX 1.0 1.0 1.0
0.020000 0.010000 0.000000
0.156250 0.010000 0.000000
0.292500 0.010000 0.000000
0.428750 0.010000 0.000000
0.565000 0.010000 0.000000
0.701250 0.010000 0.000000
0.837500 0.010000 0.000000
0.973750 0.010000 0.000000
1.000000 0.010000 0.000000
0.020000 0.137500 0.000000
0.156250 0.137500 0.000000
0.292500 0.137500 0.000000
0.428750 0.137500 0.000000
0.565000 0.137500 0.000000
0.701250 0.137500 0.000000
0.837500 0.137500 0.000000
0.973750 0.137500 0.000000
1.000000 0.137500 0.000000
0.020000 0.265000 0.000000
0.156250 0.265000 0.000000
0.292500 0.265000 0.000000
0.428750 0.265000 0.000000
0.565000 0.265000 0.000000
0.701250 0.265000 0.000000
0.837500 0.265000 0.000000
0.973750 0.265000 0.000000
1.000000 0.265000 0.000000
0.020000 0.392500 0.000000
0.156250 0.392500 0.000000
0.292500 0.392500 0.000000
0.428750 0.392500 0.000000
0.565000 0.392500 0.000000
0.701250 0.392500 0.000000
0.837500 0.392500 0.000000
0.973750 0.392500 0.000000
1.000000 0.392500 0.000000
0.020000 0.520000 0.000000
0.156250 0.520000 0.000000
0.292500 0.520000 0.000000
0.428750 0.520000 0.000000
0.565000 0.520000 0.000000
0.701250 0.520000 0.000000
0.837500 0.520000 0.000000
0.973750 0.520000 0.000000
1.000000 0.520000 0.000000
0.020000 0.647500 0.000000
0.156250 0.647500 0.000000
0.292500 0.647500 0.000000
0.428750 0.647500 0.000000
0.565000 0.647500 0.000000
0.701250 0.647500 0.000000
0.837500 0.647500 0.000000
0.973750 0.647500 0.000000
1.000000 0.647500 0.000000
0.020000 0.775000 0.000000
0.156250 0.775000 0.000000
0.292500 0.775000 0.000000
0.428750 0.775000 0.000000
0.565000 0.775000 0.000000
0.701250 0.775000 0.000000
0.837500 0.775000 0.000000
0.973750 0.775000 0.000000
1.000000 0.775000 0.000000
0.020000 0.902500 0.000000
0.156250 0.902500 0.000000
0.292500 0.902500 0.000000
0.428750 0.902500 0.000000
0.565000 0.902500 0.000000
0.701250 0.902500 0.000000
0.837500 0.902500 0.000000
0.973750 0.902500 0.000000
1.000000 0.902500 0.000000
0.020000 1.000000 0.000000
0.156250 1.000000 0.000000
0.292500 1.000000 0.000000
0.428750 1.000000 0.000000
0.565000 1.000000 0.000000
0.701250 1.000000 0.000000
0.837500 1.000000 0.000000
0.973750 1.000000 0.000000
1.000000 1.000000 0.000000
0.020000 0.010000 0.112500
0.156250 0.010000 0.112500
0.292500 0.010000 0.112500
0.428750 0.010000 0.112500
0.565000 0.010000 0.112500
0.701250 0.010000 0.112500
0.837500 0.010000 0.112500
0.973750 0.010000 0.112500
1.000000 0.010000 0.112500
0.020000 0.137500 0.112500
0.156250 0.137500 0.112500
0.292500 0.137500 0.112500
0.428750 0.137500 0.112500
0.565000 0.137500 0.112500
0.701250 0.137500 0.112500
0.837500 0.137500 0.112500
0.973750 0.137500 0.112500
1.000000 0.137500 0.112500
0.020000 0.265000 0.112500
0.156250 0.265000 0.112500
0.292500 0.265000 0.112500
0.428750 0.265000 0.112500
0.565000 0.265000 0.112500
0.701250 0.265000 0.112500
0.837500 0.265000 0.112500
0.973750 0.265000 0.112500
1.000000 0.265000 0.112500
0.020000 0.392500 0.112500
0.156250 0.392500 0.112500
0.292500 0.392500 0.112500
0.428750 0.392500 0.112500
0.565000 0.392500 0.112500
0.701250 0.392500 0.112500
0.837500 0.392500 0.112500
0.973750 0.392500 0.112500
1.000000 0.392500 0.112500
0.020000 0.520000 0.112500
0.156250 0.520000 0.112500
0.292500 0.520000 0.112500
0.428750 0.520000 0.112500
0.565000 0.520000 0.112500
0.701250 0.520000 0.112500
0.837500 0.520000 0.112500
0.973750 0.520000 0.112500
1.000000 0.520000 0.112500
0.020000 0.647500 0.112500
0.156250 0.647500 0.112500
0.292500 0.647500 0.112500
0.428750 0.647500 0.112500
0.565000 0.647500 0.112500
0.701250 0.647500 0.112500
0.837500 0.647500 0.112500
0.973750 0.647500 0.112500
1.000000 0.647500 0.112500
0.020000 0.775000 0.112500
0.156250 0.775000 0.112500
0.292500 0.775000 0.112500
0.428750 0.775000 0.112500
0.565000 0.775000 0.112500
0.701250 0.775000 0.112500
0.837500 0.775000 0.112500
0.973750 0.775000 0.112500
1.000000 0.775000 0.112500
0.020000 0.902500 0.112500
0.156250 0.902500 0.112500
0.292500 0.902500 0.112500
0.428750 0.902500 0.112500
0.565000 0.902500 0.112500
0.701250 0.902500 0.112500
0.837500 0.902500 0.112500
0.973750 0.902500 0.112500
1.000000 0.902500 0.112500
0.020000 1.000000 0.112500
0.156250 1.000000 0.112500
0.292500 1.000000 0.112500
0.428750 1.000000 0.112500
0.565000 1.000000 0.112500
0.701250 1.000000 0.112500
0.837500 1.000000 0.112500
0.973750 1.000000 0.112500
1.000000 1.000000 0.112500
0.020000 0.010000 0.225000
0.156250 0.010000 0.225000
0.292500 0.010000 0.225000
0.428750 0.010000 0.225000
0.565000 0.010000 0.225000
0.701250 0.010000 0.225000
0.837500 0.010000 0.225000
0.973750 0.010000 0.225000
1.000000 0.010000 0.225000
0.020000 0.137500 0.225000
0.156250 0.137500 0.225000
0.292500 0.137500 0.225000
0.428750 0.137500 0.225000
0.565000 0.137500 0.225000
0.701250 0.137500 0.225000
0.837500 0.137500 0.225000
0.973750 0.137500 0.225000
1.000000 0.137500 0.225000
0.020000 0.265000 0.225000
0.156250 0.265000 0.225000
0.292500 0.265000 0.225000
0.428750 0.265000 0.225000
0.565000 0.265000 0.225000
0.701250 0.265000 0.225000
0.837500 0.265000 0.225000
0.973750 0.265000 0.225000
1.000000 0.265000 0.225000
0.020000 0.392500 0.225000
0.156250 0.392500 0.225000
0.292500 0.392500 0.225000
0.428750 0.392500 0.225000
0.565000 0.392500 0.225000
0.701250 0.392500 0.225000
0.837500 0.392500 0.225000
0.973750 0.392500 0.225000
1.000000 0.392500 0.225000
0.020000 0.520000 0.225000
0.156250 0.520000 0.225000
0.292500 0.520000 0.225000
0.428750 0.520000 0.225000
0.565000 0.520000 0.225000
0.701250 0.520000 0.225000
0.837500 0.520000 0.225000
0.973750 0.520000 0.225000
1.000000 0.520000 0.225000
0.020000 0.647500 0.225000
0.156250 0.647500 0.225000
0.292500 0.647500 0.225000
0.428750 0.647500 0.225000
0.565000 0.647500 0.225000
0.701250 0.647500 0.225000
0.837500 0.647500 0.225000
0.973750 0.647500 0.225000
1.000000 0.647500 0.225000
0.020000 0.775000 0.225000
0.156250 0.775000 0.225000
0.292500 0.775000 0.225000
0.428750 0.775000 0.225000
0.565000 0.775000 0.225000
0.701250 0.775000 0.225000
0.837500 0.775000 0.225000
0.973750 0.775000 0.225000
1.000000 0.775000 0.225000
0.020000 0.902500 0.225000
0.156250 0.902500 0.225000
0.292500 0.902500 0.225000
0.428750 0.902500 0.225000
0.565000 0.902500 0.225000
0.701250 0.902500 0.225000
0.837500 0.902500 0.225000
0.973750 0.902500 0.225000
1.000000 0.902500 0.225000
0.020000 1.000000 0.225000
0.156250 1.000000 0.225000
0.292500 1.000000 0.225000
0.428750 1.000000 0.225000
0.565000 1.000000 0.225000
0.701250 1.000000 0.225000
0.837500 1.000000 0.225000
0.973750 1.000000 0.225000
1.000000 1.000000 0.225000
0.020000 0.010000 0.337500
0.156250 0.010000 0.337500
0.292500 0.010000 0.337500
0.428750 0.010000 0.337500
0.565000 0.010000 0.337500
0.701250 0.010000 0.337500
0.837500 0.010000 0.337500
0.973750 0.010000 0.337500
1.000000 0.010000 0.337500
0.020000 0.137500 0.337500
0.156250 0.137500 0.337500
0.292500 0.137500 0.337500
0.428750 0.137500 0.337500
0.565000 0.137500 0.337500
0.701250 0.137500 0.337500
0.837500 0.137500 0.337500
0.973750 0.137500 0.337500
1.000000 0.137500 0.337500
0.020000 0.265000 0.337500
0.156250 0.265000 0.337500
0.292500 0.265000 0.337500
0.428750 0.265000 0.337500
0.565000 0.265000 0.337500
0.701250 0.265000 0.337500
0.837500 0.265000 0.337500
0.973750 0.265000 0.337500
1.000000 0.265000 0.337500
0.020000 0.392500 0.337500
0.156250 0.392500 0.337500
0.292500 0.392500 0.337500
0.428750 0.392500 0.337500
0.565000 0.392500 0.337500
0.701250 0.392500 0.337500
0.837500 0.392500 0.337500
0.973750 0.392500 0.337500
1.000000 0.392500 0.337500
0.020000 0.520000 0.337500
0.156250 0.520000 0.337500
0.292500 0.520000 0.337500
0.428750 0.520000 0.337500
0.565000 0.520000 0.337500
0.701250 0.520000 0.337500
0.837500 0.520000 0.337500
0.973750 0.520000 0.337500
1.000000 0.520000 0.337500
0.020000 0.647500 0.337500
0.156250 0.647500 0.337500
0.292500 0.647500 0.337500
0.428750 0.647500 0.337500
0.565000 0.647500 0.337500
0.701250 0.647500 0.337500
0.837500 0.647500 0.337500
0.973750 0.647500 0.337500
1.000000 0.647500 0.337500
0.020000 0.775000 0.337500
0.156250 0.775000 0.337500
0.292500 0.775000 0.337500
0.428750 0.775000 0.337500
0.565000 0.775000 0.337500
0.701250 0.775000 0.337500
0.837500 0.775000 0.337500
0.973750 0.775000 0.337500
1.000000 0.775000 0.337500
0.020000 0.902500 0.337500
0.156250 0.902500 0.337500
0.292500 0.902500 0.337500
0.428750 0.902500 0.337500
0.565000 0.902500 0.337500
0.701250 0.902500 0.337500
0.837500 0.902500 0.337500
0.973750 0.902500 0.337500
1.000000 0.902500 0.337500
0.020000 1.000000 0.337500
0.156250 1.000000 0.337500
0.292500 1.000000 0.337500
0.428750 1.000000 0.337500
0.565000 1.000000 0.337500
0.701250 1.000000 0.337500
0.837500 1.000000 0.337500
0.973750 1.000000 0.337500
1.000000 1.000000 0.337500
0.020000 0.010000 0.450000
0.156250 0.010000 0.450000
0.292500 0.010000 0.450000
0.428750 0.010000 0.450000
0.565000 0.010000 0.450000
0.701250 0.010000 0.450000
0.837500 0.010000 0.450000
0.973750 0.010000 0.450000
1.000000 0.010000 0.450000
0.020000 0.137500 0.450000
0.156250 0.137500 0.450000
0.292500 0.137500 0.450000
0.428750 0.137500 0.450000
0.565000 0.137500 0.450000
0.701250 0.137500 0.450000
0.837500 0.137500 0.450000
0.973750 0.137500 0.450000
1.000000 0.137500 0.450000
0.020000 0.265000 0.450000
0.156250 0.265000 0.450000
0.292500 0.265000 0.450000
0.428750 0.265000 0.450000
0.565000 0.265000 0.450000
0.701250 0.265000 0.450000
0.837500 0.265000 0.450000
0.973750 0.265000 0.450000
1.000000 0.265000 0.450000
0.020000 0.392500 0.450000
0.156250 0.392500 0.450000
0.292500 0.392500 0.450000
0.428750 0.392500 0.450000
0.565000 0.392500 0.450000
0.701250 0.392500 0.450000
0.837500 0.392500 0.450000
0.973750 0.392500 0.450000
1.000000 0.392500 0.450000
0.020000 0.520000 0.450000
0.156250 0.520000 0.450000
0.292500 0.520000 0.450000
0.428750 0.520000 0.450000
0.565000 0.520000 0.450000
0.701250 0.520000 0.450000
0.837500 0.520000 0.450000
0.973750 0.520000 0.450000
1.000000 0.520000 0.450000
0.020000 0.647500 0.450000
0.156250 0.647500 0.450000
0.292500 0.647500 0.450000
0.428750 0.647500 0.450000
0.565000 0.647500 0.450000
0.701250 0.647500 0.450000
0.837500 0.647500 0.450000
0.973750 0.647500 0.450000
1.000000 0.647500 0.450000
0.020000 0.775000 0.450000
0.156250 0.775000 0.450000
0.292500 0.775000 0.450000
0.428750 0.775000 0.450000
0.565000 0.775000 0.450000
0.701250 0.775000 0.450000
0.837500 0.775000 0.450000
0.973750 0.775000 0.450000
1.000000 0.775000 0.450000
0.020000 0.902500 0.450000
0.156250 0.902500 0.450000
0.292500 0.902500 0.450000
0.428750 0.902500 0.450000
0.565000 0.902500 0.450000
0.701250 0.902500 0.450000
0.837500 0.902500 0.450000
0.973750 0.902500 0.450000
1.000000 0.902500 0.450000
0.020000 1.000000 0.450000
0.156250 1.000000 0.450000
0.292500 1.000000 0.450000
0.428750 1.000000 0.450000
0.565000 1.000000 0.450000
0.701250 1.000000 0.450000
0.837500 1.000000 0.450000
0.973750 1.000000 0.450000
1.000000 1.000000 0.450000
0.020000 0.010000 0.562500
0.156250 0.010000 0.562500
0.292500 0.010000 0.562500
0.428750 0.010000 0.562500
0.565000 0.010000 0.562500
0.701250 0.010000 0.562500
0.837500 0.010000 0.562500
0.973750 0.010000 0.562500
1.000000 0.010000 0.562500
0.020000 0.137500 0.562500
0.156250 0.137500 0.562500
0.292500 0.137500 0.562500
0.428750 0.137500 0.562500
0.565000 0.137500 0.562500
0.701250 0.137500 0.562500
0.837500 0.137500 0.562500
0.973750 0.137500 0.562500
1.000000 0.137500 0.562500
0.020000 0.265000 0.562500
0.156250 0.265000 0.562500
0.292500 0.265000 0.562500
0.428750 0.265000 0.562500
0.565000 0.265000 0.562500
0.701250 0.265000 0.562500
0.837500 0.265000 0.562500
0.973750 0.265000 0.562500
1.000000 0.265000 0.562500
0.020000 0.392500 0.562500
0.156250 0.392500 0.562500
0.292500 0.392500 0.562500
0.428750 0.392500 0.562500
0.565000 0.392500 0.562500
0.701250 0.392500 0.562500
0.837500 0.392500 0.562500
0.973750 0.392500 0.562500
1.000000 0.392500 0.562500
0.020000 0.520000 0.562500
0.156250 0.520000 0.562500
0.292500 0.520000 0.562500
0.428750 0.520000 0.562500
0.565000 0.520000 0.562500
0.701250 0.520000 0.562500
0.837500 0.520000 0.562500
0.973750 0.520000 0.562500
1.000000 0.520000 0.562500
0.020000 0.647500 0.562500
0.156250 0.647500 0.562500
0.292500 0.647500 0.562500
0.428750 0.647500 0.562500
0.565000 0.647500 0.562500
0.701250 0.647500 0.562500
0.837500 0.647500 0.562500
0.973750 0.647500 0.562500
1.000000 0.647500 0.562500
0.020000 0.775000 0.562500
0.156250 0.775000 0.562500
0.292500 0.775000 0.562500
0.428750 0.775000 0.562500
0.565000 0.775000 0.562500
0.701250 0.775000 0.562500
0.837500 0.775000 0.562500
0.973750 0.775000 0.562500
1.000000 0.775000 0.562500
0.020000 0.902500 0.562500
0.156250 0.902500 0.562500
0.292500 0.902500 0.562500
0.428750 0.902500 0.562500
0.565000 0.902500 0.562500
0.701250 0.902500 0.562500
0.837500 0.902500 0.562500
0.973750 0.902500 0.562500
1.000000 0.902500 0.562500
0.020000 1.000000 0.562500
0.156250 1.000000 0.562500
0.292500 1.000000 0.562500
0.428750 1.000000 0.562500
0.565000 1.000000 0.562500
0.701250 1.000000 0.562500
0.837500 1.000000 0.562500
0.973750 1.000000 0.562500
1.000000 1.000000 0.562500
0.020000 0.010000 0.675000
0.156250 0.010000 0.675000
0.292500 0.010000 0.675000
0.428750 0.010000 0.675000
0.565000 0.010000 0.675000
0.701250 0.010000 0.675000
0.837500 0.010000 0.675000
0.973750 0.010000 0.675000
1.000000 0.010000 0.675000
0.020000 0.137500 0.675000
0.156250 0.137500 0.675000
0.292500 0.137500 0.675000
0.428750 0.137500 0.675000
0.565000 0.137500 0.675000
0.701250 0.137500 0.675000
0.837500 0.137500 0.675000
0.973750 0.137500 0.675000
1.000000 0.137500 0.675000
0.020000 0.265000 0.675000
0.156250 0.265000 0.675000
0.292500 0.265000 0.675000
0.428750 0.265000 0.675000
0.565000 0.265000 0.675000
0.701250 0.265000 0.675000
0.837500 0.265000 0.675000
0.973750 0.265000 0.675000
1.000000 0.265000 0.675000
0.020000 0.392500 0.675000
0.156250 0.392500 0.675000
0.292500 0.392500 0.675000
0.428750 0.392500 0.675000
0.565000 0.392500 0.675000
0.701250 0.392500 0.675000
0.837500 0.392500 0.675000
0.973750 0.392500 0.675000
1.000000 0.392500 0.675000
0.020000 0.520000 0.675000
0.156250 0.520000 0.675000
0.292500 0.520000 0.675000
0.428750 0.520000 0.675000
0.565000 0.520000 0.675000
0.701250 0.520000 0.675000
0.837500 0.520000 0.675000
0.973750 0.520000 0.675000
1.000000 0.520000 0.675000
0.020000 0.647500 0.675000
0.156250 0.647500 0.675000
0.292500 0.647500 0.675000
0.428750 0.647500 0.675000
0.565000 0.647500 0.675000
0.701250 0.647500 0.675000
0.837500 0.647500 0.675000
0.973750 0.647500 0.675000
1.000000 0.647500 0.675000
0.020000 0.775000 0.675000
0.156250 0.775000 0.675000
0.292500 0.775000 0.675000
0.428750 0.775000 0.675000
0.565000 0.775000 0.675000
0.701250 0.775000 0.675000
0.837500 0.775000 0.675000
0.973750 0.775000 0.675000
1.000000 0.775000 0.675000
0.020000 0.902500 0.675000
0.156250 0.902500 0.675000
0.292500 0.902500 0.675000
0.428750 0.902500 0.675000
0.565000 0.902500 0.675000
0.701250 0.902500 0.675000
0.837500 0.902500 0.675000
0.973750 0.902500 0.675000
1.000000 0.902500 0.675000
0.020000 1.000000 0.675000
0.156250 1.000000 0.675000
0.292500 1.000000 0.675000
0.428750 1.000000 0.675000
0.565000 1.000000 0.675000
0.701250 1.000000 0.675000
0.837500 1.000000 0.675000
0.973750 1.000000 0.675000
1.000000 1.000000 0.675000
0.020000 0.010000 0.787500
0.156250 0.010000 0.787500
0.292500 0.010000 0.787500
0.428750 0.010000 0.787500
0.565000 0.010000 0.787500
0.701250 0.010000 0.787500
0.837500 0.010000 0.787500
0.973750 0.010000 0.787500
1.000000 0.010000 0.787500
0.020000 0.137500 0.787500
0.156250 0.137500 0.787500
0.292500 0.137500 0.787500
0.428750 0.137500 0.787500
0.565000 0.137500 0.787500
0.701250 0.137500 0.787500
0.837500 0.137500 0.787500
0.973750 0.137500 0.787500
1.000000 0.137500 0.787500
0.020000 0.265000 0.787500
0.156250 0.265000 0.787500
0.292500 0.265000 0.787500
0.428750 0.265000 0.787500
0.565000 0.265000 0.787500
0.701250 0.265000 0.787500
0.837500 0.265000 0.787500
0.973750 0.265000 0.787500
1.000000 0.265000 0.787500
0.020000 0.392500 0.787500
0.156250 0.392500 0.787500
0.292500 0.392500 0.787500
0.428750 0.392500 0.787500
0.565000 0.392500 0.787500
0.701250 0.392500 0.787500
0.837500 0.392500 0.787500
0.973750 0.392500 0.787500
1.000000 0.392500 0.787500
0.020000 0.520000 0.787500
0.156250 0.520000 0.787500
0.292500 0.520000 0.787500
0.428750 0.520000 0.787500
0.565000 0.520000 0.787500
0.701250 0.520000 0.787500
0.837500 0.520000 0.787500
0.973750 0.520000 0.787500
1.000000 0.520000 0.787500
0.020000 0.647500 0.787500
0.156250 0.647500 0.787500
0.292500 0.647500 0.787500
0.428750 0.647500 0.787500
0.565000 0.647500 0.787500
0.701250 0.647500 0.787500
0.837500 0.647500 0.787500
0.973750 0.647500 0.787500
1.000000 0.647500 0.787500
0.020000 0.775000 0.787500
0.156250 0.775000 0.787500
0.292500 0.775000 0.787500
0.428750 0.775000 0.787500
0.565000 0.775000 0.787500
0.701250 0.775000 0.787500
0.837500 0.775000 0.787500
0.973750 0.775000 0.787500
1.000000 0.775000 0.787500
0.020000 0.902500 0.787500
0.156250 0.902500 0.787500
0.292500 0.902500 0.787500
0.428750 0.902500 0.787500
0.565000 0.902500 0.787500
0.701250 0.902500 0.787500
0.837500 0.902500 0.787500
0.973750 0.902500 0.787500
1.000000 0.902500 0.787500
0.020000 1.000000 0.787500
0.156250 1.000000 0.787500
0.292500 1.000000 0.787500
0.428750 1.000000 0.787500
0.565000 1.000000 0.787500
0.701250 1.000000 0.787500
0.837500 1.000000 0.787500
0.973750 1.000000 0.787500
1.000000 1.000000 0.787500
0.020000 0.010000 0.900000
0.156250 0.010000 0.900000
0.292500 0.010000 0.900000
0.428750 0.010000 0.900000
0.565000 0.010000 0.900000
0.701250 0.010000 0.900000
0.837500 0.010000 0.900000
0.973750 0.010000 0.900000
1.000000 0.010000 0.900000
0.020000 0.137500 0.900000
0.156250 0.137500 0.900000
0.292500 0.137500 0.900000
0.428750 0.137500 0.900000
0.565000 0.137500 0.900000
0.701250 0.137500 0.900000
0.837500 0.137500 0.900000
0.973750 0.137500 0.900000
1.000000 0.137500 0.900000
0.020000 0.265000 0.900000
0.156250 0.265000 0.900000
0.292500 0.265000 0.900000
0.428750 0.265000 0.900000
0.565000 0.265000 0.900000
0.701250 0.265000 0.900000
0.837500 0.265000 0.900000
0.973750 0.265000 0.900000
1.000000 0.265000 0.900000
0.020000 0.392500 0.900000
0.156250 0.392500 0.900000
0.292500 0.392500 0.900000
0.428750 0.392500 0.900000
0.565000 0.392500 0.900000
0.701250 0.392500 0.900000
0.837500 0.392500 0.900000
0.973750 0.392500 0.900000
1.000000 0.392500 0.900000
0.020000 0.520000 0.900000
0.156250 0.520000 0.900000
0.292500 0.520000 0.900000
0.428750 0.520000 0.900000
0.565000 0.520000 0.900000
0.701250 0.520000 0.900000
0.837500 0.520000 0.900000
0.973750 0.520000 0.900000
1.000000 0.520000 0.900000
0.020000 0.647500 0.900000
0.156250 0.647500 0.900000
0.292500 0.647500 0.900000
0.428750 0.647500 0.900000
0.565000 0.647500 0.900000
0.701250 0.647500 0.900000
0.837500 0.647500 0.900000
0.973750 0.647500 0.900000
1.000000 0.647500 0.900000
0.020000 0.775000 0.900000
0.156250 0.775000 0.900000
0.292500 0.775000 0.900000
0.428750 0.775000 0.900000
0.565000 0.775000 0.900000
0.701250 0.775000 0.900000
0.837500 0.775000 0.900000
0.973750 0.775000 0.900000
1.000000 0.775000 0.900000
0.020000 0.902500 0.900000
0.156250 0.902500 0.900000
0.292500 0.902500 0.900000
0.428750 0.902500 0.900000
0.565000 0.902500 0.900000
0.701250 0.902500 0.900000
0.837500 0.902500 0.900000
0.973750 0.902500 0.900000
1.000000 0.902500 0.900000
0.020000 1.000000 0.900000
0.156250 1.000000 0.900000
0.292500 1.000000 0.900000
0.428750 1.000000 0.900000
0.565000 1.000000 0.900000
0.701250 1.000000 0.900000
0.837500 1.000000 0.900000
0.973750 1.000000 0.900000
1.000000 1.000000 0.900000
